;FLAVOR:Marlin
;TIME:2062
;Filament used: 1.65439m
;Layer height: 0.28
;MINX:78.005
;MINY:89.888
;MINZ:0.28
;MAXX:151.995
;MAXY:140.112
;MAXZ:3.08
;Generated with Cura_SteamEngine 5.0.0
M140 S60
M105
M190 S60
M104 S200
M105
M109 S200
M82 ;absolute extrusion mode
; Ender 3 Custom Start G-code
G92 E0 ; Reset Extruder
G28 ; Home all axes
; G29  level
G1 Z2.0 F3000 ; Move Z Axis up little to prevent scratching of Heat Bed
G1 X0.1 Y20 Z0.3 F5000.0 ; Move to start position
G1 X0.1 Y200.0 Z0.3 F1500.0 E15 ; Draw the first line
G1 X0.4 Y200.0 Z0.3 F5000.0 ; Move to side a little
G1 X0.4 Y20 Z0.3 F1500.0 E30 ; Draw the second line
G92 E0 ; Reset Extruder
G1 Z2.0 F3000 ; Move Z Axis up little to prevent scratching of Heat Bed
G1 X5 Y20 Z0.3 F5000.0 ; Move over to prevent blob squish
G92 E0
G92 E0
G1 F1500 E-6.5
;LAYER_COUNT:11
;LAYER:0
M107
G0 F6000 X81.035 Y91.671 Z0.28
G0 X78.005 Y97.988
;TYPE:SKIRT
G1 F1500 E0
G1 F1200 X78.045 Y97.184 E0.05623
G1 X78.165 Y96.388 E0.11245
G1 X78.362 Y95.608 E0.16864
G1 X78.637 Y94.852 E0.22483
G1 X78.985 Y94.126 E0.28106
G1 X79.403 Y93.439 E0.33723
G1 X79.888 Y92.796 E0.39349
G1 X80.433 Y92.205 E0.44964
G1 X81.035 Y91.671 E0.50584
G1 X81.687 Y91.199 E0.56207
G1 X82.383 Y90.794 E0.61831
G1 X83.115 Y90.46 E0.67451
G1 X83.877 Y90.201 E0.73072
G1 X84.66 Y90.018 E0.78688
G1 X85.458 Y89.914 E0.84309
G1 X86.105 Y89.888 E0.88832
G1 X143.895 Y89.888 E4.92474
G1 X144.699 Y89.928 E4.98096
G1 X145.495 Y90.048 E5.03719
G1 X146.275 Y90.245 E5.09338
G1 X147.031 Y90.52 E5.14957
G1 X147.757 Y90.868 E5.2058
G1 X148.444 Y91.286 E5.26197
G1 X149.087 Y91.771 E5.31822
G1 X149.678 Y92.316 E5.37438
G1 X150.212 Y92.918 E5.43058
G1 X150.684 Y93.57 E5.4868
G1 X151.089 Y94.266 E5.54305
G1 X151.423 Y94.998 E5.59924
G1 X151.682 Y95.76 E5.65546
G1 X151.865 Y96.543 E5.71162
G1 X151.969 Y97.341 E5.76783
G1 X151.995 Y97.988 E5.81306
G1 X151.995 Y132.012 E8.18951
G1 X151.955 Y132.816 E8.24573
G1 X151.835 Y133.612 E8.30196
G1 X151.638 Y134.392 E8.35815
G1 X151.363 Y135.148 E8.41434
G1 X151.015 Y135.874 E8.47057
G1 X150.597 Y136.561 E8.52674
G1 X150.112 Y137.204 E8.58299
G1 X149.567 Y137.795 E8.63915
G1 X148.965 Y138.329 E8.69535
G1 X148.313 Y138.801 E8.75157
G1 X147.617 Y139.206 E8.80782
G1 X146.885 Y139.54 E8.86401
G1 X146.123 Y139.799 E8.92023
G1 X145.34 Y139.982 E8.97639
G1 X144.542 Y140.086 E9.0326
G1 X143.895 Y140.112 E9.07783
G1 X86.105 Y140.112 E13.11424
G1 X85.301 Y140.072 E13.17047
G1 X84.505 Y139.952 E13.2267
G1 X83.725 Y139.755 E13.28289
G1 X82.969 Y139.48 E13.33908
G1 X82.243 Y139.132 E13.39531
G1 X81.556 Y138.714 E13.45148
G1 X80.913 Y138.229 E13.50773
G1 X80.322 Y137.684 E13.56388
G1 X79.788 Y137.082 E13.62009
G1 X79.316 Y136.43 E13.67631
G1 X78.911 Y135.734 E13.73255
G1 X78.577 Y135.002 E13.78875
G1 X78.318 Y134.24 E13.84496
G1 X78.135 Y133.457 E13.90113
G1 X78.031 Y132.659 E13.95734
G1 X78.005 Y132.012 E14.00256
G1 X78.005 Y97.988 E16.37901
G0 F6000 X78.605 Y97.988
G1 F1200 X78.645 Y97.215 E16.43308
G1 X78.764 Y96.45 E16.48715
G1 X78.962 Y95.701 E16.54126
G1 X79.236 Y94.977 E16.59533
G1 X79.583 Y94.284 E16.64947
G1 X80 Y93.632 E16.70352
G1 X80.482 Y93.026 E16.75761
G1 X81.023 Y92.472 E16.81169
G1 X81.619 Y91.978 E16.86576
G1 X82.263 Y91.547 E16.91988
G1 X82.947 Y91.185 E16.97394
G1 X83.665 Y90.896 E17.028
G1 X84.41 Y90.682 E17.08214
G1 X85.172 Y90.546 E17.1362
G1 X86.105 Y90.488 E17.20149
G1 X143.895 Y90.488 E21.23791
G1 X144.668 Y90.528 E21.29197
G1 X145.433 Y90.647 E21.34605
G1 X146.182 Y90.845 E21.40016
G1 X146.906 Y91.119 E21.45423
G1 X147.599 Y91.466 E21.50836
G1 X148.251 Y91.883 E21.56242
G1 X148.857 Y92.365 E21.6165
G1 X149.411 Y92.906 E21.67059
G1 X149.905 Y93.502 E21.72466
G1 X150.336 Y94.146 E21.77878
G1 X150.698 Y94.83 E21.83283
G1 X150.987 Y95.548 E21.88689
G1 X151.201 Y96.293 E21.94103
G1 X151.337 Y97.055 E21.9951
G1 X151.395 Y97.988 E22.06039
G1 X151.395 Y132.012 E24.43684
G1 X151.355 Y132.785 E24.4909
G1 X151.236 Y133.55 E24.54498
G1 X151.038 Y134.299 E24.59909
G1 X150.764 Y135.023 E24.65316
G1 X150.417 Y135.716 E24.70729
G1 X150 Y136.368 E24.76135
G1 X149.518 Y136.974 E24.81543
G1 X148.977 Y137.528 E24.86952
G1 X148.381 Y138.022 E24.92358
G1 X147.737 Y138.453 E24.97771
G1 X147.053 Y138.815 E25.03176
G1 X146.335 Y139.104 E25.08582
G1 X145.59 Y139.318 E25.13996
G1 X144.828 Y139.454 E25.19403
G1 X143.895 Y139.512 E25.25932
G1 X86.105 Y139.512 E29.29573
G1 X85.332 Y139.472 E29.3498
G1 X84.567 Y139.353 E29.40387
G1 X83.818 Y139.155 E29.45799
G1 X83.094 Y138.881 E29.51205
G1 X82.401 Y138.534 E29.56619
G1 X81.749 Y138.117 E29.62024
G1 X81.143 Y137.635 E29.67433
G1 X80.589 Y137.094 E29.72841
G1 X80.095 Y136.498 E29.78248
G1 X79.664 Y135.854 E29.83661
G1 X79.302 Y135.17 E29.89066
G1 X79.013 Y134.452 E29.94472
G1 X78.799 Y133.707 E29.99886
G1 X78.663 Y132.945 E30.05292
G1 X78.605 Y132.012 E30.11821
G1 X78.605 Y97.988 E32.49466
G0 F6000 X79.205 Y97.988
G1 F1200 X79.245 Y97.246 E32.54657
G1 X79.364 Y96.513 E32.59843
G1 X79.562 Y95.797 E32.65032
G1 X79.835 Y95.107 E32.70215
G1 X80.181 Y94.45 E32.75401
G1 X80.596 Y93.833 E32.80595
G1 X81.074 Y93.265 E32.8578
G1 X81.611 Y92.752 E32.90967
G1 X82.2 Y92.299 E32.96157
G1 X82.834 Y91.913 E33.01342
G1 X83.506 Y91.596 E33.06531
G1 X84.208 Y91.354 E33.11718
G1 X84.932 Y91.188 E33.16906
G1 X85.67 Y91.102 E33.22095
G1 X86.105 Y91.088 E33.25135
G1 X143.895 Y91.088 E37.28777
G1 X144.637 Y91.128 E37.33967
G1 X145.37 Y91.247 E37.39154
G1 X146.086 Y91.445 E37.44342
G1 X146.776 Y91.718 E37.49525
G1 X147.433 Y92.064 E37.54712
G1 X148.05 Y92.479 E37.59905
G1 X148.618 Y92.957 E37.6509
G1 X149.131 Y93.494 E37.70278
G1 X149.584 Y94.083 E37.75468
G1 X149.97 Y94.717 E37.80652
G1 X150.287 Y95.389 E37.85842
G1 X150.529 Y96.091 E37.91028
G1 X150.695 Y96.815 E37.96216
G1 X150.781 Y97.553 E38.01406
G1 X150.795 Y97.988 E38.04446
G1 X150.795 Y132.012 E40.42091
G1 X150.755 Y132.754 E40.47281
G1 X150.636 Y133.487 E40.52467
G1 X150.438 Y134.203 E40.57656
G1 X150.165 Y134.893 E40.62839
G1 X149.819 Y135.55 E40.68025
G1 X149.404 Y136.167 E40.73219
G1 X148.926 Y136.735 E40.78404
G1 X148.389 Y137.248 E40.83591
G1 X147.8 Y137.701 E40.88781
G1 X147.166 Y138.087 E40.93966
G1 X146.494 Y138.404 E40.99155
G1 X145.792 Y138.646 E41.04342
G1 X145.068 Y138.812 E41.0953
G1 X144.33 Y138.898 E41.14719
G1 X143.895 Y138.912 E41.17759
G1 X86.105 Y138.912 E45.21401
G1 X85.363 Y138.872 E45.26591
G1 X84.63 Y138.753 E45.31778
G1 X83.914 Y138.555 E45.36967
G1 X83.224 Y138.282 E45.4215
G1 X82.567 Y137.936 E45.47336
G1 X81.95 Y137.521 E45.5253
G1 X81.382 Y137.043 E45.57715
G1 X80.869 Y136.506 E45.62902
G1 X80.416 Y135.917 E45.68092
G1 X80.03 Y135.283 E45.73276
G1 X79.713 Y134.611 E45.78466
G1 X79.471 Y133.909 E45.83652
G1 X79.305 Y133.185 E45.8884
G1 X79.219 Y132.447 E45.9403
G1 X79.205 Y132.012 E45.9707
G1 X79.205 Y97.988 E48.34715
G0 F6000 X79.805 Y97.988
G1 F1200 X79.845 Y97.279 E48.39675
G1 X79.964 Y96.58 E48.44627
G1 X80.162 Y95.898 E48.49587
G1 X80.434 Y95.243 E48.54541
G1 X80.779 Y94.623 E48.59497
G1 X81.191 Y94.045 E48.64455
G1 X81.666 Y93.518 E48.6941
G1 X82.197 Y93.047 E48.74368
G1 X82.777 Y92.639 E48.79321
G1 X83.4 Y92.298 E48.84281
G1 X84.057 Y92.03 E48.89237
G1 X84.74 Y91.838 E48.94193
G1 X85.441 Y91.723 E48.99154
G1 X86.105 Y91.688 E49.03799
G1 X143.895 Y91.688 E53.0744
G1 X144.604 Y91.728 E53.124
G1 X145.303 Y91.847 E53.17353
G1 X145.985 Y92.045 E53.22313
G1 X146.64 Y92.317 E53.27267
G1 X147.26 Y92.662 E53.32223
G1 X147.838 Y93.074 E53.3718
G1 X148.365 Y93.549 E53.42136
G1 X148.836 Y94.08 E53.47093
G1 X149.244 Y94.66 E53.52046
G1 X149.585 Y95.283 E53.57007
G1 X149.853 Y95.94 E53.61963
G1 X150.045 Y96.623 E53.66918
G1 X150.16 Y97.324 E53.7188
G1 X150.195 Y97.988 E53.76524
G1 X150.195 Y132.012 E56.14169
G1 X150.155 Y132.721 E56.19129
G1 X150.036 Y133.42 E56.24082
G1 X149.838 Y134.102 E56.29042
G1 X149.566 Y134.757 E56.33996
G1 X149.221 Y135.377 E56.38951
G1 X148.809 Y135.955 E56.43909
G1 X148.334 Y136.482 E56.48865
G1 X147.803 Y136.953 E56.53822
G1 X147.223 Y137.361 E56.58775
G1 X146.6 Y137.702 E56.63736
G1 X145.943 Y137.97 E56.68692
G1 X145.26 Y138.162 E56.73647
G1 X144.559 Y138.277 E56.78609
G1 X143.895 Y138.312 E56.83253
G1 X86.105 Y138.312 E60.86895
G1 X85.396 Y138.272 E60.91855
G1 X84.697 Y138.153 E60.96807
G1 X84.015 Y137.955 E61.01767
G1 X83.36 Y137.683 E61.06721
G1 X82.74 Y137.338 E61.11677
G1 X82.162 Y136.926 E61.16635
G1 X81.635 Y136.451 E61.2159
G1 X81.164 Y135.92 E61.26548
G1 X80.756 Y135.34 E61.31501
G1 X80.415 Y134.717 E61.36461
G1 X80.147 Y134.06 E61.41417
G1 X79.955 Y133.377 E61.46373
G1 X79.84 Y132.676 E61.51334
G1 X79.805 Y132.012 E61.55979
G1 X79.805 Y97.988 E63.93624
G0 F6000 X80.405 Y97.988
G1 F1200 X80.445 Y97.314 E63.9834
G1 X80.564 Y96.65 E64.03051
G1 X80.761 Y96.004 E64.07768
G1 X81.033 Y95.387 E64.12478
G1 X81.376 Y94.805 E64.17197
G1 X81.786 Y94.269 E64.2191
G1 X82.256 Y93.784 E64.26627
G1 X82.78 Y93.359 E64.3134
G1 X83.35 Y92.998 E64.36052
G1 X83.959 Y92.707 E64.40767
G1 X84.599 Y92.491 E64.45484
G1 X85.259 Y92.351 E64.50197
G1 X86.105 Y92.288 E64.56122
G1 X143.895 Y92.288 E68.59764
G1 X144.569 Y92.328 E68.6448
G1 X145.233 Y92.447 E68.69192
G1 X145.879 Y92.644 E68.73909
G1 X146.496 Y92.916 E68.78618
G1 X147.078 Y93.259 E68.83337
G1 X147.614 Y93.669 E68.8805
G1 X148.099 Y94.139 E68.92768
G1 X148.524 Y94.663 E68.9748
G1 X148.885 Y95.233 E69.02193
G1 X149.176 Y95.842 E69.06907
G1 X149.392 Y96.482 E69.11625
G1 X149.532 Y97.142 E69.16337
G1 X149.595 Y97.988 E69.22262
G1 X149.595 Y132.012 E71.59907
G1 X149.555 Y132.686 E71.64623
G1 X149.436 Y133.35 E71.69335
G1 X149.239 Y133.996 E71.74052
G1 X148.967 Y134.613 E71.78762
G1 X148.624 Y135.195 E71.83481
G1 X148.214 Y135.731 E71.88194
G1 X147.744 Y136.216 E71.92911
G1 X147.22 Y136.641 E71.97624
G1 X146.65 Y137.002 E72.02336
G1 X146.041 Y137.293 E72.0705
G1 X145.401 Y137.509 E72.11768
G1 X144.741 Y137.649 E72.16481
G1 X143.895 Y137.712 E72.22406
G1 X86.105 Y137.712 E76.26048
G1 X85.431 Y137.672 E76.30764
G1 X84.767 Y137.553 E76.35475
G1 X84.121 Y137.356 E76.40193
G1 X83.504 Y137.084 E76.44902
G1 X82.922 Y136.741 E76.49621
G1 X82.386 Y136.331 E76.54334
G1 X81.901 Y135.861 E76.59051
G1 X81.476 Y135.337 E76.63764
G1 X81.115 Y134.767 E76.68476
G1 X80.824 Y134.158 E76.73191
G1 X80.608 Y133.518 E76.77909
G1 X80.468 Y132.858 E76.82621
G1 X80.405 Y132.012 E76.88546
G1 X80.405 Y97.988 E79.26191
G0 F6000 X81.005 Y97.988
G1 F1200 X81.045 Y97.351 E79.30649
G1 X81.164 Y96.724 E79.35107
G1 X81.361 Y96.116 E79.39571
G1 X81.632 Y95.538 E79.4403
G1 X81.973 Y94.999 E79.48485
G1 X82.379 Y94.506 E79.52945
G1 X82.843 Y94.067 E79.57407
G1 X83.359 Y93.691 E79.61866
G1 X83.917 Y93.381 E79.66325
G1 X84.51 Y93.144 E79.70785
G1 X85.127 Y92.983 E79.75239
G1 X85.76 Y92.9 E79.79698
G1 X86.105 Y92.888 E79.82109
G1 X143.895 Y92.888 E83.85751
G1 X144.532 Y92.928 E83.90209
G1 X145.159 Y93.047 E83.94666
G1 X145.767 Y93.244 E83.9913
G1 X146.345 Y93.515 E84.03589
G1 X146.884 Y93.856 E84.08044
G1 X147.377 Y94.262 E84.12505
G1 X147.816 Y94.726 E84.16966
G1 X148.192 Y95.242 E84.21426
G1 X148.502 Y95.8 E84.25884
G1 X148.739 Y96.393 E84.30345
G1 X148.9 Y97.01 E84.34799
G1 X148.983 Y97.643 E84.39258
G1 X148.995 Y97.988 E84.41669
G1 X148.995 Y132.012 E86.79314
G1 X148.955 Y132.649 E86.83772
G1 X148.836 Y133.276 E86.88229
G1 X148.639 Y133.884 E86.92693
G1 X148.368 Y134.462 E86.97152
G1 X148.027 Y135.001 E87.01607
G1 X147.621 Y135.494 E87.06068
G1 X147.157 Y135.933 E87.10529
G1 X146.641 Y136.309 E87.14989
G1 X146.083 Y136.619 E87.19447
G1 X145.49 Y136.856 E87.23908
G1 X144.873 Y137.017 E87.28362
G1 X144.24 Y137.1 E87.32821
G1 X143.895 Y137.112 E87.35232
G1 X86.105 Y137.112 E91.38873
G1 X85.468 Y137.072 E91.43331
G1 X84.841 Y136.953 E91.47789
G1 X84.233 Y136.756 E91.52253
G1 X83.655 Y136.485 E91.56712
G1 X83.116 Y136.144 E91.61167
G1 X82.623 Y135.738 E91.65627
G1 X82.184 Y135.274 E91.70089
G1 X81.808 Y134.758 E91.74548
G1 X81.498 Y134.2 E91.79007
G1 X81.261 Y133.607 E91.83467
G1 X81.1 Y132.99 E91.87921
G1 X81.017 Y132.357 E91.9238
G1 X81.005 Y132.012 E91.94791
G1 X81.005 Y97.988 E94.32436
G0 F6000 X81.605 Y97.988
G1 F1200 X81.645 Y97.39 E94.36623
G1 X81.764 Y96.802 E94.40813
G1 X81.96 Y96.235 E94.45003
G1 X82.23 Y95.7 E94.49189
G1 X82.569 Y95.205 E94.53379
G1 X82.97 Y94.759 E94.57568
G1 X83.427 Y94.371 E94.61756
G1 X83.932 Y94.047 E94.65946
G1 X84.475 Y93.793 E94.70133
G1 X85.048 Y93.614 E94.74326
G1 X85.638 Y93.512 E94.78508
G1 X86.105 Y93.488 E94.81775
G1 X143.895 Y93.488 E98.85416
G1 X144.493 Y93.528 E98.89602
G1 X145.081 Y93.647 E98.93793
G1 X145.648 Y93.843 E98.97983
G1 X146.183 Y94.113 E99.02168
G1 X146.678 Y94.452 E99.06359
G1 X147.124 Y94.853 E99.10548
G1 X147.512 Y95.31 E99.14735
G1 X147.836 Y95.815 E99.18926
G1 X148.09 Y96.358 E99.23113
G1 X148.269 Y96.931 E99.27306
G1 X148.371 Y97.521 E99.31488
G1 X148.395 Y97.988 E99.34754
G1 X148.395 Y132.012 E101.72399
G1 X148.355 Y132.61 E101.76585
G1 X148.236 Y133.198 E101.80776
G1 X148.04 Y133.765 E101.84966
G1 X147.77 Y134.3 E101.89152
G1 X147.431 Y134.795 E101.93342
G1 X147.03 Y135.241 E101.97531
G1 X146.573 Y135.629 E102.01718
G1 X146.068 Y135.953 E102.05909
G1 X145.525 Y136.207 E102.10096
G1 X144.952 Y136.386 E102.14289
G1 X144.362 Y136.488 E102.18471
G1 X143.895 Y136.512 E102.21737
G1 X86.105 Y136.512 E106.25379
G1 X85.507 Y136.472 E106.29565
G1 X84.919 Y136.353 E106.33755
G1 X84.352 Y136.157 E106.37946
G1 X83.817 Y135.887 E106.42131
G1 X83.322 Y135.548 E106.46322
G1 X82.876 Y135.147 E106.50511
G1 X82.488 Y134.69 E106.54698
G1 X82.164 Y134.185 E106.58889
G1 X81.91 Y133.642 E106.63076
G1 X81.731 Y133.069 E106.67269
G1 X81.629 Y132.479 E106.71451
G1 X81.605 Y132.012 E106.74717
G1 X81.605 Y97.988 E109.12362
G0 F6000 X82.205 Y97.988
G1 F1200 X82.245 Y97.431 E109.16263
G1 X82.364 Y96.886 E109.20159
G1 X82.56 Y96.363 E109.2406
G1 X82.828 Y95.874 E109.27955
G1 X83.163 Y95.427 E109.31856
G1 X83.559 Y95.034 E109.35753
G1 X84.007 Y94.7 E109.39656
G1 X84.498 Y94.435 E109.43553
G1 X85.022 Y94.242 E109.47454
G1 X85.568 Y94.125 E109.51354
G1 X86.105 Y94.088 E109.55113
G1 X143.895 Y94.088 E113.58755
G1 X144.452 Y94.128 E113.62655
G1 X144.997 Y94.247 E113.66552
G1 X145.52 Y94.443 E113.70453
G1 X146.009 Y94.711 E113.74348
G1 X146.456 Y95.046 E113.78249
G1 X146.849 Y95.442 E113.82146
G1 X147.183 Y95.89 E113.86049
G1 X147.448 Y96.381 E113.89946
G1 X147.641 Y96.905 E113.93846
G1 X147.758 Y97.451 E113.97747
G1 X147.795 Y97.988 E114.01506
G1 X147.795 Y132.012 E116.39151
G1 X147.755 Y132.569 E116.43052
G1 X147.636 Y133.114 E116.46948
G1 X147.44 Y133.637 E116.50849
G1 X147.172 Y134.126 E116.54744
G1 X146.837 Y134.573 E116.58645
G1 X146.441 Y134.966 E116.62542
G1 X145.993 Y135.3 E116.66445
G1 X145.502 Y135.565 E116.70342
G1 X144.978 Y135.758 E116.74243
G1 X144.432 Y135.875 E116.78143
G1 X143.895 Y135.912 E116.81903
G1 X86.105 Y135.912 E120.85544
G1 X85.548 Y135.872 E120.89445
G1 X85.003 Y135.753 E120.93341
G1 X84.48 Y135.557 E120.97242
G1 X83.991 Y135.289 E121.01137
G1 X83.544 Y134.954 E121.05038
G1 X83.151 Y134.558 E121.08935
G1 X82.817 Y134.11 E121.12838
G1 X82.552 Y133.619 E121.16735
G1 X82.359 Y133.095 E121.20636
G1 X82.242 Y132.549 E121.24536
G1 X82.205 Y132.012 E121.28295
G1 X82.205 Y97.988 E123.6594
G0 F6000 X82.805 Y97.988
G1 F1200 X82.845 Y97.476 E123.69527
G1 X82.964 Y96.977 E123.73111
G1 X83.159 Y96.502 E123.76697
G1 X83.425 Y96.063 E123.80282
G1 X83.756 Y95.67 E123.83871
G1 X84.144 Y95.334 E123.87456
G1 X84.579 Y95.062 E123.91039
G1 X85.052 Y94.861 E123.94629
G1 X85.549 Y94.735 E123.9821
G1 X86.105 Y94.688 E124.02107
G1 X143.895 Y94.688 E128.05749
G1 X144.407 Y94.728 E128.09336
G1 X144.906 Y94.847 E128.12919
G1 X145.381 Y95.042 E128.16506
G1 X145.82 Y95.308 E128.20091
G1 X146.213 Y95.639 E128.2368
G1 X146.549 Y96.027 E128.27265
G1 X146.821 Y96.462 E128.30848
G1 X147.022 Y96.935 E128.34438
G1 X147.148 Y97.432 E128.38019
G1 X147.195 Y97.988 E128.41916
G1 X147.195 Y132.012 E130.79561
G1 X147.155 Y132.524 E130.83148
G1 X147.036 Y133.023 E130.86731
G1 X146.841 Y133.498 E130.90318
G1 X146.575 Y133.937 E130.93903
G1 X146.244 Y134.33 E130.97492
G1 X145.856 Y134.666 E131.01077
G1 X145.421 Y134.938 E131.0466
