;FLAVOR:Marlin
;TIME:3007
;Filament used: 0.569023m
;Layer height: 0.12
;MINX:20.113
;MINY:27.498
;MINZ:0.12
;MAXX:213.777
;MAXY:196.478
;MAXZ:16.4
;Generated with Cura_SteamEngine 5.0.0
M140 S50
M105
M190 S50
M104 S200
M105
M109 S200
M82 ;absolute extrusion mode
; Ender 3 Custom Start G-code
G92 E0 ; Reset Extruder
G28 ; Home all axes
; G29  bl touch
G1 Z2.0 F3000 ; Move Z Axis up little to prevent scratching of Heat Bed
G1 X0.1 Y20 Z0.3 F5000.0 ; Move to start position
G1 X0.1 Y200.0 Z0.3 F1500.0 E15 ; Draw the first line
G1 X0.4 Y200.0 Z0.3 F5000.0 ; Move to side a little
G1 X0.4 Y20 Z0.3 F1500.0 E30 ; Draw the second line
G92 E0 ; Reset Extruder
G1 Z2.0 F3000 ; Move Z Axis up little to prevent scratching of Heat Bed
G1 X5 Y20 Z0.3 F5000.0 ; Move over to prevent blob squish
G92 E0
G92 E0
G1 F2700 E-5
;LAYER_COUNT:95
;LAYER:0
M107
G1 F300 Z0.32
G0 F6000 X25.588 Y40.423 Z0.32
G1 F300 Z0.32
G0 F6000 X21.016 Y48.466
;TYPE:SKIRT
G1 F300 Z0.12
G1 F2700 E0
G1 F1200 X21.056 Y47.677 E0.01577
G1 X21.171 Y46.92 E0.03105
G1 X21.246 Y46.549 E0.0386
G1 X21.441 Y45.784 E0.05435
G1 X21.688 Y45.102 E0.06883
G1 X21.833 Y44.753 E0.07637
G1 X22.172 Y44.04 E0.09213
G1 X22.613 Y43.32 E0.10898
G1 X22.828 Y43.008 E0.11654
G1 X23.309 Y42.381 E0.13231
G1 X23.787 Y41.867 E0.14631
G1 X24.057 Y41.602 E0.15386
G1 X24.648 Y41.078 E0.16963
G1 X25.271 Y40.629 E0.18495
G1 X25.588 Y40.423 E0.1925
G1 X26.271 Y40.026 E0.20826
G1 X27.005 Y39.696 E0.22432
G1 X27.359 Y39.558 E0.2319
G1 X28.108 Y39.308 E0.24766
G1 X28.836 Y39.144 E0.26255
G1 X29.21 Y39.078 E0.27013
G1 X29.994 Y38.98 E0.2859
G1 X30.538 Y38.959 E0.29676
G1 X30.817 Y38.958 E0.30233
G1 X31.606 Y38.995 E0.31809
G1 X32.217 Y39.08 E0.3304
G1 X32.592 Y39.147 E0.33801
G1 X33.361 Y39.325 E0.35376
G1 X34.049 Y39.556 E0.36824
G1 X34.401 Y39.693 E0.37578
G1 X35.122 Y40.016 E0.39155
G1 X35.813 Y40.416 E0.40748
G1 X36.131 Y40.622 E0.41504
G1 X36.771 Y41.084 E0.43079
G1 X37.344 Y41.591 E0.44606
G1 X37.616 Y41.857 E0.45365
G1 X38.151 Y42.437 E0.4694
G1 X38.591 Y43.017 E0.48393
G1 X38.804 Y43.327 E0.49143
G1 X39.217 Y43.999 E0.50717
G1 X39.57 Y44.731 E0.52339
G1 X39.717 Y45.082 E0.53099
G1 X39.984 Y45.825 E0.54674
G1 X40.165 Y46.537 E0.5614
G1 X40.24 Y46.905 E0.5689
G1 X40.358 Y47.686 E0.58466
G1 X40.395 Y48.271 E0.59636
G1 X40.402 Y48.556 E0.60205
G1 X40.381 Y49.346 E0.61782
G1 X40.313 Y49.937 E0.62969
G1 X40.255 Y50.313 E0.63728
G1 X40.095 Y51.086 E0.65303
G1 X39.888 Y51.758 E0.66707
G1 X39.761 Y52.112 E0.67457
G1 X39.457 Y52.841 E0.69033
G1 X39.065 Y53.56 E0.70668
G1 X38.866 Y53.884 E0.71427
G1 X38.42 Y54.535 E0.73001
G1 X37.939 Y55.106 E0.74491
G1 X37.683 Y55.382 E0.75242
G1 X37.117 Y55.933 E0.76819
G1 X36.521 Y56.408 E0.7834
G1 X36.214 Y56.629 E0.79095
G1 X35.551 Y57.058 E0.8067
G1 X34.855 Y57.413 E0.8223
G1 X34.508 Y57.569 E0.82989
G1 X33.773 Y57.856 E0.84564
G1 X33.046 Y58.059 E0.8607
G1 X32.678 Y58.143 E0.86823
G1 X31.9 Y58.28 E0.884
G1 X31.149 Y58.336 E0.89902
G1 X30.772 Y58.346 E0.90655
G1 X29.982 Y58.327 E0.92232
G1 X29.206 Y58.23 E0.93793
G1 X28.833 Y58.164 E0.94549
G1 X28.063 Y57.987 E0.96125
G1 X27.359 Y57.75 E0.97608
G1 X27.005 Y57.612 E0.98366
G1 X26.285 Y57.289 E0.99941
G1 X25.602 Y56.895 E1.01514
G1 X25.285 Y56.69 E1.02268
G1 X24.645 Y56.228 E1.03843
G1 X24.047 Y55.696 E1.0544
G1 X23.777 Y55.43 E1.06196
G1 X23.243 Y54.848 E1.07773
G1 X22.828 Y54.3 E1.09144
G1 X22.613 Y53.988 E1.09901
G1 X22.199 Y53.316 E1.11476
G1 X21.833 Y52.555 E1.13161
G1 X21.688 Y52.206 E1.13915
G1 X21.422 Y51.462 E1.15492
G1 X21.246 Y50.759 E1.16938
G1 X21.171 Y50.388 E1.17693
G1 X21.054 Y49.607 E1.19269
G1 X21.016 Y48.842 E1.20798
G1 X21.016 Y48.466 E1.21548
G0 F6000 X21.416 Y48.466
G1 F1200 X21.456 Y47.698 E1.23083
G1 X21.563 Y47 E1.24492
G1 X21.638 Y46.629 E1.25248
G1 X21.829 Y45.884 E1.26782
G1 X22.057 Y45.256 E1.28116
G1 X22.202 Y44.907 E1.2887
G1 X22.534 Y44.213 E1.30405
G1 X22.943 Y43.547 E1.31965
G1 X23.158 Y43.235 E1.32721
G1 X23.626 Y42.625 E1.34255
G1 X24.068 Y42.153 E1.35546
G1 X24.338 Y41.888 E1.36301
G1 X24.914 Y41.378 E1.37836
G1 X25.489 Y40.964 E1.3925
G1 X25.806 Y40.758 E1.40004
G1 X26.472 Y40.373 E1.4154
G1 X27.15 Y40.068 E1.43023
G1 X27.504 Y39.93 E1.43781
G1 X28.234 Y39.689 E1.45315
G1 X28.906 Y39.538 E1.4669
G1 X29.28 Y39.472 E1.47448
G1 X30.043 Y39.377 E1.48982
G1 X30.539 Y39.359 E1.49973
G1 X30.818 Y39.358 E1.5053
G1 X31.587 Y39.395 E1.52066
G1 X32.147 Y39.473 E1.53194
G1 X32.522 Y39.54 E1.53954
G1 X33.271 Y39.715 E1.55489
G1 X33.904 Y39.929 E1.56823
G1 X34.256 Y40.066 E1.57577
G1 X34.957 Y40.382 E1.59111
G1 X35.595 Y40.751 E1.60582
G1 X35.913 Y40.957 E1.61338
G1 X36.536 Y41.408 E1.62873
G1 X37.064 Y41.877 E1.64282
G1 X37.336 Y42.143 E1.65041
G1 X37.857 Y42.709 E1.66577
G1 X38.261 Y43.243 E1.67913
G1 X38.474 Y43.553 E1.68664
G1 X38.876 Y44.209 E1.70199
G1 X39.201 Y44.885 E1.71696
G1 X39.348 Y45.236 E1.72455
G1 X39.607 Y45.96 E1.7399
G1 X39.773 Y46.617 E1.75342
G1 X39.848 Y46.985 E1.76091
G1 X39.962 Y47.746 E1.77627
G1 X39.995 Y48.281 E1.78697
G1 X40.002 Y48.566 E1.79266
G1 X39.981 Y49.335 E1.80801
G1 X39.918 Y49.876 E1.81888
G1 X39.86 Y50.252 E1.82647
G1 X39.703 Y51.005 E1.84182
G1 X39.511 Y51.623 E1.85473
G1 X39.384 Y51.977 E1.86224
G1 X39.087 Y52.686 E1.87758
G1 X38.725 Y53.351 E1.89269
G1 X38.526 Y53.675 E1.90028
G1 X38.09 Y54.308 E1.91562
G1 X37.645 Y54.834 E1.92937
G1 X37.389 Y55.11 E1.93688
G1 X36.838 Y55.646 E1.95222
G1 X36.287 Y56.084 E1.96626
G1 X35.98 Y56.305 E1.97381
G1 X35.334 Y56.721 E1.98915
G1 X34.691 Y57.048 E2.00354
G1 X34.344 Y57.204 E2.01114
G1 X33.627 Y57.483 E2.02649
G1 X32.957 Y57.669 E2.04036
G1 X32.589 Y57.753 E2.0479
G1 X31.831 Y57.885 E2.06325
G1 X31.138 Y57.936 E2.07712
G1 X30.761 Y57.946 E2.08465
G1 X29.992 Y57.927 E2.1
G1 X29.276 Y57.836 E2.1144
G1 X28.903 Y57.77 E2.12196
G1 X28.153 Y57.597 E2.13732
G1 X27.504 Y57.378 E2.15099
G1 X27.15 Y57.24 E2.15857
G1 X26.449 Y56.923 E2.17392
G1 X25.82 Y56.559 E2.18843
G1 X25.503 Y56.354 E2.19596
G1 X24.879 Y55.903 E2.21132
G1 X24.328 Y55.411 E2.22607
G1 X24.058 Y55.145 E2.23363
G1 X23.538 Y54.578 E2.24898
G1 X23.158 Y54.073 E2.26159
G1 X22.943 Y53.761 E2.26916
G1 X22.54 Y53.106 E2.2845
G1 X22.202 Y52.401 E2.30011
G1 X22.057 Y52.052 E2.30765
G1 X21.8 Y51.328 E2.32298
G1 X21.638 Y50.679 E2.33633
G1 X21.563 Y50.308 E2.34388
G1 X21.45 Y49.547 E2.35923
G1 X21.416 Y48.842 E2.37332
G1 X21.416 Y48.466 E2.38082
G0 F6000 X21.816 Y48.466
G1 F1200 X21.856 Y47.719 E2.39575
G1 X21.955 Y47.079 E2.40868
G1 X22.03 Y46.708 E2.41623
G1 X22.217 Y45.984 E2.43115
G1 X22.427 Y45.409 E2.44337
G1 X22.572 Y45.06 E2.45091
G1 X22.895 Y44.386 E2.46582
G1 X23.272 Y43.774 E2.48017
G1 X23.487 Y43.462 E2.48773
G1 X23.944 Y42.87 E2.50265
G1 X24.348 Y42.438 E2.51446
G1 X24.618 Y42.173 E2.52201
G1 X25.179 Y41.678 E2.53694
G1 X25.707 Y41.299 E2.54991
G1 X26.024 Y41.093 E2.55745
G1 X26.672 Y40.72 E2.57237
G1 X27.296 Y40.441 E2.58601
G1 X27.65 Y40.303 E2.5936
G1 X28.36 Y40.069 E2.60852
G1 X28.976 Y39.932 E2.62111
G1 X29.35 Y39.866 E2.62869
G1 X30.092 Y39.775 E2.64361
G1 X30.541 Y39.759 E2.65257
G1 X30.82 Y39.758 E2.65814
G1 X31.567 Y39.795 E2.67307
G1 X32.076 Y39.867 E2.68332
G1 X32.451 Y39.934 E2.69093
G1 X33.179 Y40.105 E2.70585
G1 X33.759 Y40.302 E2.71807
G1 X34.111 Y40.439 E2.72561
G1 X34.793 Y40.747 E2.74055
G1 X35.378 Y41.087 E2.75405
G1 X35.696 Y41.293 E2.76161
G1 X36.301 Y41.733 E2.77654
G1 X36.784 Y42.163 E2.78944
G1 X37.056 Y42.429 E2.79704
G1 X37.562 Y42.98 E2.81196
G1 X37.931 Y43.47 E2.82421
G1 X38.144 Y43.78 E2.83171
G1 X38.534 Y44.418 E2.84663
G1 X38.832 Y45.04 E2.8604
G1 X38.979 Y45.391 E2.86799
G1 X39.23 Y46.095 E2.88291
G1 X39.381 Y46.697 E2.89529
G1 X39.456 Y47.065 E2.90279
G1 X39.566 Y47.805 E2.91772
G1 X39.595 Y48.291 E2.92743
G1 X39.602 Y48.576 E2.93312
G1 X39.58 Y49.324 E2.94806
G1 X39.522 Y49.815 E2.95792
G1 X39.464 Y50.191 E2.96551
G1 X39.311 Y50.923 E2.98044
G1 X39.135 Y51.488 E2.99225
G1 X39.008 Y51.842 E2.99975
G1 X38.718 Y52.531 E3.01467
G1 X38.384 Y53.142 E3.02857
G1 X38.185 Y53.466 E3.03615
G1 X37.76 Y54.081 E3.05107
G1 X37.352 Y54.562 E3.06366
G1 X37.096 Y54.838 E3.07117
G1 X36.559 Y55.359 E3.0861
G1 X36.054 Y55.759 E3.09896
G1 X35.747 Y55.98 E3.10651
G1 X35.117 Y56.384 E3.12144
G1 X34.527 Y56.683 E3.13464
G1 X34.18 Y56.839 E3.14224
G1 X33.483 Y57.109 E3.15715
G1 X32.868 Y57.279 E3.16989
G1 X32.5 Y57.363 E3.17742
G1 X31.763 Y57.491 E3.19235
G1 X31.128 Y57.537 E3.20505
G1 X30.751 Y57.547 E3.21258
G1 X30.003 Y57.526 E3.22751
G1 X29.345 Y57.442 E3.24075
G1 X28.972 Y57.376 E3.24831
G1 X28.244 Y57.206 E3.26323
G1 X27.65 Y57.005 E3.27574
G1 X27.296 Y56.867 E3.28332
G1 X26.614 Y56.558 E3.29827
G1 X26.037 Y56.223 E3.31158
G1 X25.72 Y56.018 E3.31911
G1 X25.114 Y55.579 E3.33405
G1 X24.608 Y55.127 E3.34759
G1 X24.338 Y54.861 E3.35515
G1 X23.834 Y54.308 E3.37008
G1 X23.487 Y53.846 E3.38161
G1 X23.272 Y53.534 E3.38917
G1 X22.881 Y52.896 E3.40411
G1 X22.572 Y52.248 E3.41843
G1 X22.427 Y51.899 E3.42597
G1 X22.177 Y51.194 E3.4409
G1 X22.03 Y50.6 E3.45311
G1 X21.955 Y50.229 E3.46067
G1 X21.846 Y49.489 E3.47559
G1 X21.816 Y48.842 E3.48852
G1 X21.816 Y48.466 E3.49602
G0 F6000 X22.216 Y48.466
G1 F1200 X22.256 Y47.741 E3.51051
G1 X22.347 Y47.158 E3.52229
G1 X22.422 Y46.787 E3.52984
G1 X22.605 Y46.084 E3.54434
G1 X22.796 Y45.563 E3.55541
G1 X22.941 Y45.214 E3.56295
G1 X23.256 Y44.559 E3.57746
G1 X23.601 Y44.001 E3.59055
G1 X23.816 Y43.689 E3.59811
G1 X24.261 Y43.114 E3.61262
G1 X24.628 Y42.724 E3.62331
G1 X24.898 Y42.459 E3.63086
G1 X25.444 Y41.979 E3.64537
G1 X25.925 Y41.635 E3.65717
G1 X26.242 Y41.429 E3.66471
G1 X26.872 Y41.067 E3.67921
G1 X27.441 Y40.814 E3.69164
G1 X27.795 Y40.676 E3.69922
G1 X28.485 Y40.45 E3.71371
G1 X29.045 Y40.325 E3.72516
G1 X29.419 Y40.259 E3.73274
G1 X30.14 Y40.173 E3.74723
G1 X30.542 Y40.159 E3.75526
G1 X30.821 Y40.158 E3.76083
G1 X31.547 Y40.195 E3.77533
G1 X32.006 Y40.261 E3.78459
G1 X32.381 Y40.328 E3.79219
G1 X33.088 Y40.495 E3.80669
G1 X33.614 Y40.674 E3.81777
G1 X33.966 Y40.811 E3.82531
G1 X34.627 Y41.112 E3.83981
G1 X35.16 Y41.423 E3.85212
G1 X35.478 Y41.629 E3.85968
G1 X36.065 Y42.057 E3.87418
G1 X36.505 Y42.449 E3.88594
G1 X36.777 Y42.715 E3.89353
G1 X37.267 Y43.251 E3.90802
G1 X37.602 Y43.696 E3.91914
G1 X37.815 Y44.006 E3.92665
G1 X38.192 Y44.627 E3.94114
G1 X38.463 Y45.194 E3.95368
G1 X38.61 Y45.545 E3.96128
G1 X38.853 Y46.23 E3.97578
G1 X38.989 Y46.777 E3.98703
G1 X39.064 Y47.145 E3.99453
G1 X39.17 Y47.864 E4.00903
G1 X39.195 Y48.301 E4.01776
G1 X39.202 Y48.586 E4.02345
G1 X39.18 Y49.312 E4.03795
G1 X39.127 Y49.754 E4.04683
G1 X39.069 Y50.13 E4.05442
G1 X38.919 Y50.841 E4.06893
G1 X38.758 Y51.353 E4.07964
G1 X38.631 Y51.707 E4.08714
G1 X38.349 Y52.376 E4.10163
G1 X38.043 Y52.932 E4.11429
G1 X37.844 Y53.256 E4.12188
G1 X37.43 Y53.853 E4.13638
G1 X37.059 Y54.29 E4.14782
G1 X36.803 Y54.566 E4.15533
G1 X36.28 Y55.071 E4.16984
G1 X35.82 Y55.434 E4.18154
G1 X35.513 Y55.655 E4.18908
G1 X34.901 Y56.047 E4.20359
G1 X34.363 Y56.319 E4.21562
G1 X34.016 Y56.475 E4.22321
G1 X33.338 Y56.736 E4.23771
G1 X32.779 Y56.889 E4.24927
G1 X32.411 Y56.973 E4.25681
G1 X31.695 Y57.096 E4.27131
G1 X31.117 Y57.137 E4.28287
G1 X30.74 Y57.147 E4.29039
G1 X30.014 Y57.126 E4.30489
G1 X29.415 Y57.048 E4.31694
G1 X29.042 Y56.982 E4.3245
G1 X28.335 Y56.816 E4.339
G1 X27.795 Y56.632 E4.35038
G1 X27.441 Y56.494 E4.35796
G1 X26.78 Y56.194 E4.37245
G1 X26.254 Y55.887 E4.3846
G1 X25.937 Y55.682 E4.39214
G1 X25.35 Y55.255 E4.40662
G1 X24.889 Y54.842 E4.41897
G1 X24.619 Y54.576 E4.42654
G1 X24.13 Y54.038 E4.44105
G1 X23.816 Y53.619 E4.45149
G1 X23.601 Y53.307 E4.45906
G1 X23.223 Y52.687 E4.47355
G1 X22.941 Y52.094 E4.48665
G1 X22.796 Y51.745 E4.49419
G1 X22.555 Y51.06 E4.50868
G1 X22.422 Y50.521 E4.51976
G1 X22.347 Y50.15 E4.52732
G1 X22.242 Y49.431 E4.54182
G1 X22.216 Y48.842 E4.55358
G1 X22.216 Y48.466 E4.56109
G0 F6000 X22.616 Y48.466
G1 F1200 X22.656 Y47.763 E4.57514
G1 X22.739 Y47.237 E4.58576
G1 X22.814 Y46.866 E4.59332
G1 X22.992 Y46.185 E4.60736
G1 X23.165 Y45.716 E4.61734
G1 X23.31 Y45.367 E4.62488
G1 X23.617 Y44.733 E4.63894
G1 X23.931 Y44.228 E4.65081
G1 X24.146 Y43.916 E4.65837
G1 X24.577 Y43.36 E4.67241
G1 X24.908 Y43.009 E4.68204
G1 X25.178 Y42.744 E4.68959
G1 X25.708 Y42.28 E4.70364
G1 X26.143 Y41.97 E4.7143
G1 X26.46 Y41.764 E4.72185
G1 X27.071 Y41.415 E4.73589
G1 X27.586 Y41.186 E4.74714
G1 X27.94 Y41.048 E4.75472
G1 X28.609 Y40.83 E4.76876
G1 X29.115 Y40.719 E4.7791
G1 X29.489 Y40.653 E4.78668
G1 X30.188 Y40.571 E4.80072
G1 X30.823 Y40.558 E4.8134
G1 X31.526 Y40.595 E4.82745
G1 X31.935 Y40.655 E4.83569
G1 X32.31 Y40.722 E4.8433
G1 X32.995 Y40.885 E4.85735
G1 X33.469 Y41.047 E4.86734
G1 X33.821 Y41.184 E4.87488
G1 X34.461 Y41.476 E4.88892
G1 X34.943 Y41.758 E4.90006
G1 X35.261 Y41.964 E4.90763
G1 X35.829 Y42.38 E4.92168
G1 X36.225 Y42.735 E4.93229
G1 X36.497 Y43.001 E4.93988
G1 X36.971 Y43.521 E4.95392
G1 X37.272 Y43.923 E4.96395
G1 X37.485 Y44.233 E4.97145
G1 X37.85 Y44.835 E4.9855
G1 X38.094 Y45.349 E4.99685
G1 X38.241 Y45.7 E5.00445
G1 X38.475 Y46.364 E5.0185
G1 X38.597 Y46.857 E5.02863
G1 X38.672 Y47.225 E5.03613
G1 X38.773 Y47.922 E5.05018
G1 X38.795 Y48.311 E5.05796
G1 X38.802 Y48.596 E5.06365
G1 X38.779 Y49.299 E5.07768
G1 X38.732 Y49.693 E5.0856
G1 X38.674 Y50.069 E5.09319
G1 X38.527 Y50.758 E5.10725
G1 X38.382 Y51.218 E5.11688
G1 X38.255 Y51.572 E5.12438
G1 X37.98 Y52.22 E5.13843
G1 X37.702 Y52.723 E5.1499
G1 X37.503 Y53.047 E5.15749
G1 X37.101 Y53.625 E5.17154
G1 X36.766 Y54.018 E5.18184
G1 X36.51 Y54.294 E5.18936
G1 X36.002 Y54.782 E5.20341
G1 X35.586 Y55.11 E5.21399
G1 X35.279 Y55.331 E5.22154
G1 X34.685 Y55.709 E5.23559
G1 X34.199 Y55.954 E5.24645
G1 X33.852 Y56.11 E5.25404
G1 X33.195 Y56.362 E5.26808
G1 X32.69 Y56.5 E5.27853
G1 X32.322 Y56.584 E5.28606
G1 X31.628 Y56.701 E5.30011
G1 X31.106 Y56.737 E5.31055
G1 X30.729 Y56.747 E5.31807
G1 X30.026 Y56.726 E5.33211
G1 X29.485 Y56.654 E5.343
G1 X29.112 Y56.588 E5.35056
G1 X28.427 Y56.426 E5.36461
G1 X27.94 Y56.26 E5.37488
G1 X27.586 Y56.122 E5.38246
G1 X26.946 Y55.829 E5.3965
G1 X26.471 Y55.551 E5.40749
G1 X26.154 Y55.346 E5.41502
G1 X25.586 Y54.931 E5.42906
G1 X25.17 Y54.557 E5.44022
G1 X24.9 Y54.291 E5.44779
G1 X24.427 Y53.769 E5.46184
G1 X24.146 Y53.392 E5.47123
G1 X23.931 Y53.08 E5.47879
G1 X23.565 Y52.479 E5.49283
G1 X23.31 Y51.941 E5.50471
G1 X23.165 Y51.592 E5.51226
G1 X22.933 Y50.927 E5.52631
G1 X22.814 Y50.442 E5.53628
G1 X22.739 Y50.071 E5.54383
G1 X22.639 Y49.374 E5.55788
G1 X22.616 Y48.842 E5.56851
G1 X22.616 Y48.466 E5.57601
G0 F6000 X23.016 Y48.466
G1 F1200 X23.056 Y47.786 E5.58961
G1 X23.131 Y47.317 E5.59908
G1 X23.206 Y46.946 E5.60664
G1 X23.38 Y46.287 E5.62024
G1 X23.535 Y45.87 E5.62912
G1 X23.68 Y45.521 E5.63666
G1 X23.978 Y44.908 E5.65026
G1 X24.26 Y44.455 E5.66091
G1 X24.475 Y44.143 E5.66847
G1 X24.894 Y43.606 E5.68206
G1 X25.188 Y43.295 E5.6906
G1 X25.458 Y43.03 E5.69815
G1 X25.971 Y42.582 E5.71175
G1 X26.361 Y42.306 E5.72128
G1 X26.678 Y42.1 E5.72882
G1 X27.269 Y41.763 E5.7424
G1 X27.731 Y41.559 E5.75248
G1 X28.085 Y41.421 E5.76006
G1 X28.733 Y41.211 E5.77366
G1 X29.184 Y41.113 E5.78287
G1 X29.558 Y41.047 E5.79044
G1 X30.545 Y40.959 E5.81022
G1 X30.824 Y40.958 E5.81579
G1 X31.504 Y40.996 E5.82938
G1 X31.865 Y41.048 E5.83666
G1 X32.24 Y41.115 E5.84426
G1 X32.902 Y41.274 E5.85785
G1 X33.324 Y41.42 E5.86676
G1 X33.676 Y41.557 E5.87429
G1 X34.295 Y41.841 E5.88789
G1 X34.725 Y42.094 E5.89784
G1 X35.043 Y42.3 E5.9054
G1 X35.592 Y42.703 E5.91899
G1 X35.945 Y43.021 E5.92848
G1 X36.217 Y43.287 E5.93607
G1 X36.675 Y43.791 E5.94966
G1 X36.942 Y44.149 E5.95857
G1 X37.155 Y44.459 E5.96608
G1 X37.507 Y45.042 E5.97967
G1 X37.725 Y45.503 E5.98984
G1 X37.872 Y45.854 E5.99744
G1 X38.097 Y46.497 E6.01103
G1 X38.205 Y46.937 E6.02007
G1 X38.28 Y47.305 E6.02757
G1 X38.377 Y47.979 E6.04116
G1 X38.402 Y48.606 E6.05368
G1 X38.379 Y49.286 E6.06726
G1 X38.336 Y49.632 E6.07422
G1 X38.278 Y50.008 E6.08181
G1 X38.135 Y50.674 E6.0954
G1 X38.005 Y51.083 E6.10397
G1 X37.878 Y51.437 E6.11147
G1 X37.611 Y52.063 E6.12505
G1 X37.361 Y52.514 E6.13534
G1 X37.162 Y52.838 E6.14293
G1 X36.772 Y53.396 E6.15652
G1 X36.472 Y53.746 E6.16572
G1 X36.216 Y54.022 E6.17323
