;FLAVOR:Marlin
;TIME:1156
;Filament used: 0.354934m
;Layer height: 0.12
;MINX:94.516
;MINY:106.187
;MINZ:0.12
;MAXX:140.484
;MAXY:128.816
;MAXZ:7.56
;Generated with Cura_SteamEngine 5.0.0
M140 S50
M105
M190 S50
M104 S200
M105
M109 S200
M82 ;absolute extrusion mode
; Ender 3 Custom Start G-code
G92 E0 ; Reset Extruder
G28 ; Home all axes
; G29  bl touch
G1 Z2.0 F3000 ; Move Z Axis up little to prevent scratching of Heat Bed
G1 X0.1 Y20 Z0.3 F5000.0 ; Move to start position
G1 X0.1 Y200.0 Z0.3 F1500.0 E15 ; Draw the first line
G1 X0.4 Y200.0 Z0.3 F5000.0 ; Move to side a little
G1 X0.4 Y20 Z0.3 F1500.0 E30 ; Draw the second line
G92 E0 ; Reset Extruder
G1 Z2.0 F3000 ; Move Z Axis up little to prevent scratching of Heat Bed
G1 X5 Y20 Z0.3 F5000.0 ; Move over to prevent blob squish
G92 E0
G92 E0
G1 F2700 E-5
;LAYER_COUNT:63
;LAYER:0
M107
G0 F6000 X96.939 Y108.337 Z0.12
G0 X94.516 Y113.988
;TYPE:SKIRT
G1 F2700 E0
G1 F1200 X94.556 Y113.199 E0.01577
G1 X94.675 Y112.419 E0.03151
G1 X94.873 Y111.654 E0.04728
G1 X95.147 Y110.914 E0.06303
G1 X95.494 Y110.205 E0.07878
G1 X95.912 Y109.534 E0.09456
G1 X96.395 Y108.909 E0.11032
G1 X96.939 Y108.337 E0.12607
G1 X97.538 Y107.822 E0.14184
G1 X98.185 Y107.371 E0.15758
G1 X98.876 Y106.987 E0.17335
G1 X99.601 Y106.675 E0.1891
G1 X100.354 Y106.438 E0.20486
G1 X101.128 Y106.278 E0.22063
G1 X101.913 Y106.197 E0.23638
G1 X102.316 Y106.187 E0.24442
G1 X132.684 Y106.187 E0.85045
G1 X133.473 Y106.227 E0.86621
G1 X134.253 Y106.346 E0.88196
G1 X135.018 Y106.544 E0.89773
G1 X135.758 Y106.818 E0.91348
G1 X136.467 Y107.166 E0.92924
G1 X137.138 Y107.584 E0.94501
G1 X137.762 Y108.067 E0.96076
G1 X138.335 Y108.61 E0.97652
G1 X138.85 Y109.209 E0.99228
G1 X139.301 Y109.857 E1.00804
G1 X139.685 Y110.548 E1.02381
G1 X139.997 Y111.273 E1.03956
G1 X140.234 Y112.026 E1.05532
G1 X140.393 Y112.8 E1.07108
G1 X140.474 Y113.585 E1.08683
G1 X140.484 Y113.987 E1.09486
G1 X140.484 Y121.016 E1.23513
G1 X140.444 Y121.805 E1.25089
G1 X140.325 Y122.585 E1.26664
G1 X140.127 Y123.35 E1.28241
G1 X139.853 Y124.09 E1.29816
G1 X139.505 Y124.799 E1.31392
G1 X139.087 Y125.47 E1.32969
G1 X138.604 Y126.094 E1.34544
G1 X138.061 Y126.667 E1.3612
G1 X137.462 Y127.182 E1.37696
G1 X136.814 Y127.633 E1.39272
G1 X136.123 Y128.017 E1.40849
G1 X135.398 Y128.329 E1.42424
G1 X134.645 Y128.566 E1.44
G1 X133.871 Y128.725 E1.45576
G1 X133.086 Y128.806 E1.47151
G1 X132.684 Y128.816 E1.47954
G1 X102.317 Y128.816 E2.08554
G1 X101.528 Y128.776 E2.10131
G1 X100.748 Y128.657 E2.11706
G1 X99.983 Y128.459 E2.13283
G1 X99.243 Y128.185 E2.14857
G1 X98.534 Y127.837 E2.16433
G1 X97.863 Y127.419 E2.18011
G1 X97.239 Y126.936 E2.19586
G1 X96.666 Y126.393 E2.21161
G1 X96.151 Y125.794 E2.22738
G1 X95.7 Y125.146 E2.24313
G1 X95.316 Y124.455 E2.25891
G1 X95.004 Y123.73 E2.27466
G1 X94.767 Y122.977 E2.29041
G1 X94.608 Y122.203 E2.30618
G1 X94.527 Y121.418 E2.32193
G1 X94.517 Y121.017 E2.32993
G1 X94.516 Y113.988 E2.4702
G0 F6000 X94.916 Y113.988
G1 F1200 X94.956 Y113.22 E2.48555
G1 X95.075 Y112.46 E2.5009
G1 X95.273 Y111.717 E2.51625
G1 X95.547 Y110.998 E2.5316
G1 X95.893 Y110.311 E2.54695
G1 X96.31 Y109.665 E2.5623
G1 X96.791 Y109.065 E2.57764
G1 X97.331 Y108.518 E2.59298
G1 X97.926 Y108.03 E2.60834
G1 X98.568 Y107.606 E2.62369
G1 X99.251 Y107.252 E2.63904
G1 X99.966 Y106.97 E2.65438
G1 X100.708 Y106.764 E2.66975
G1 X101.466 Y106.636 E2.68509
G1 X102.316 Y106.587 E2.70208
G1 X132.684 Y106.587 E3.30811
G1 X133.452 Y106.627 E3.32346
G1 X134.212 Y106.746 E3.33881
G1 X134.955 Y106.944 E3.35415
G1 X135.674 Y107.218 E3.36951
G1 X136.36 Y107.565 E3.38485
G1 X137.007 Y107.981 E3.4002
G1 X137.607 Y108.462 E3.41554
G1 X138.154 Y109.003 E3.4309
G1 X138.642 Y109.598 E3.44625
G1 X139.065 Y110.24 E3.4616
G1 X139.42 Y110.923 E3.47696
G1 X139.701 Y111.638 E3.49229
G1 X139.907 Y112.38 E3.50766
G1 X140.035 Y113.138 E3.523
G1 X140.084 Y113.987 E3.53997
G1 X140.084 Y121.016 E3.68024
G1 X140.044 Y121.784 E3.69559
G1 X139.925 Y122.544 E3.71094
G1 X139.727 Y123.287 E3.72628
G1 X139.453 Y124.006 E3.74164
G1 X139.106 Y124.692 E3.75698
G1 X138.69 Y125.339 E3.77233
G1 X138.209 Y125.939 E3.78768
G1 X137.668 Y126.486 E3.80303
G1 X137.073 Y126.974 E3.81839
G1 X136.431 Y127.397 E3.83373
G1 X135.748 Y127.752 E3.84909
G1 X135.033 Y128.033 E3.86442
G1 X134.291 Y128.239 E3.87979
G1 X133.533 Y128.367 E3.89513
G1 X132.684 Y128.416 E3.9121
G1 X102.317 Y128.416 E4.51811
G1 X101.549 Y128.376 E4.53345
G1 X100.789 Y128.257 E4.54881
G1 X100.046 Y128.059 E4.56415
G1 X99.327 Y127.785 E4.57951
G1 X98.641 Y127.438 E4.59485
G1 X97.994 Y127.022 E4.6102
G1 X97.394 Y126.541 E4.62554
G1 X96.847 Y126 E4.6409
G1 X96.359 Y125.405 E4.65625
G1 X95.936 Y124.763 E4.6716
G1 X95.581 Y124.08 E4.68696
G1 X95.3 Y123.365 E4.70229
G1 X95.094 Y122.623 E4.71766
G1 X94.966 Y121.865 E4.733
G1 X94.917 Y121.017 E4.74995
G1 X94.916 Y113.988 E4.89022
G0 F6000 X95.316 Y113.988
G1 F1200 X95.356 Y113.241 E4.90515
G1 X95.475 Y112.503 E4.92006
G1 X95.673 Y111.781 E4.935
G1 X95.946 Y111.085 E4.94992
G1 X96.292 Y110.421 E4.96487
G1 X96.707 Y109.799 E4.97979
G1 X97.186 Y109.224 E4.99472
G1 X97.724 Y108.704 E5.00965
G1 X98.313 Y108.244 E5.02457
G1 X98.949 Y107.85 E5.0395
G1 X99.623 Y107.526 E5.05442
G1 X100.328 Y107.275 E5.06936
G1 X101.056 Y107.101 E5.08429
G1 X101.798 Y107.006 E5.09922
G1 X102.316 Y106.987 E5.10957
G1 X132.684 Y106.987 E5.71559
G1 X133.431 Y107.027 E5.73052
G1 X134.169 Y107.146 E5.74544
G1 X134.891 Y107.344 E5.76038
G1 X135.587 Y107.617 E5.7753
G1 X136.25 Y107.964 E5.79023
G1 X136.873 Y108.379 E5.80517
G1 X137.447 Y108.858 E5.82009
G1 X137.968 Y109.395 E5.83502
G1 X138.427 Y109.985 E5.84994
G1 X138.822 Y110.621 E5.86488
G1 X139.146 Y111.295 E5.8798
G1 X139.396 Y112 E5.89473
G1 X139.57 Y112.728 E5.90967
G1 X139.665 Y113.47 E5.9246
G1 X139.684 Y113.987 E5.93492
G1 X139.684 Y121.016 E6.07519
G1 X139.644 Y121.763 E6.09012
G1 X139.525 Y122.501 E6.10504
G1 X139.327 Y123.223 E6.11998
G1 X139.054 Y123.919 E6.1349
G1 X138.707 Y124.582 E6.14983
G1 X138.292 Y125.205 E6.16477
G1 X137.813 Y125.779 E6.17969
G1 X137.276 Y126.3 E6.19462
G1 X136.686 Y126.759 E6.20954
G1 X136.05 Y127.154 E6.22448
G1 X135.376 Y127.478 E6.2394
G1 X134.671 Y127.728 E6.25433
G1 X133.943 Y127.902 E6.26927
G1 X133.201 Y127.997 E6.2842
G1 X132.684 Y128.016 E6.29452
G1 X102.317 Y128.016 E6.90053
G1 X101.57 Y127.976 E6.91546
G1 X100.832 Y127.857 E6.93037
G1 X100.11 Y127.659 E6.94531
G1 X99.414 Y127.386 E6.96023
G1 X98.751 Y127.039 E6.97517
G1 X98.128 Y126.624 E6.9901
G1 X97.554 Y126.145 E7.00502
G1 X97.033 Y125.608 E7.01996
G1 X96.574 Y125.018 E7.03487
G1 X96.179 Y124.382 E7.04981
G1 X95.855 Y123.708 E7.06474
G1 X95.605 Y123.003 E7.07966
G1 X95.431 Y122.275 E7.0946
G1 X95.336 Y121.533 E7.10953
G1 X95.317 Y121.017 E7.11983
G1 X95.316 Y113.988 E7.26011
G0 F6000 X95.716 Y113.988
G1 F1200 X95.756 Y113.263 E7.2746
G1 X95.875 Y112.546 E7.2891
G1 X96.073 Y111.847 E7.3036
G1 X96.345 Y111.174 E7.31808
G1 X96.691 Y110.535 E7.33259
G1 X97.104 Y109.938 E7.34707
G1 X97.581 Y109.39 E7.36157
G1 X98.115 Y108.897 E7.37607
G1 X98.699 Y108.466 E7.39056
G1 X99.328 Y108.102 E7.40506
G1 X99.993 Y107.809 E7.41956
G1 X100.686 Y107.592 E7.43406
G1 X101.398 Y107.451 E7.44854
G1 X102.316 Y107.387 E7.4669
G1 X132.684 Y107.387 E8.07293
G1 X133.409 Y107.427 E8.08742
G1 X134.126 Y107.546 E8.10192
G1 X134.825 Y107.744 E8.11642
G1 X135.498 Y108.017 E8.13092
G1 X136.137 Y108.362 E8.14541
G1 X136.734 Y108.776 E8.15991
G1 X137.282 Y109.252 E8.17439
G1 X137.775 Y109.786 E8.1889
G1 X138.205 Y110.371 E8.20338
G1 X138.569 Y111 E8.21789
G1 X138.862 Y111.665 E8.23239
G1 X139.08 Y112.358 E8.24689
G1 X139.22 Y113.07 E8.26137
G1 X139.284 Y113.987 E8.27971
G1 X139.284 Y121.016 E8.41998
G1 X139.244 Y121.741 E8.43447
G1 X139.125 Y122.458 E8.44898
G1 X138.927 Y123.157 E8.46348
G1 X138.654 Y123.83 E8.47797
G1 X138.309 Y124.469 E8.49246
G1 X137.895 Y125.066 E8.50696
G1 X137.419 Y125.614 E8.52144
G1 X136.885 Y126.107 E8.53595
G1 X136.3 Y126.537 E8.55044
G1 X135.671 Y126.901 E8.56494
G1 X135.006 Y127.194 E8.57944
G1 X134.313 Y127.412 E8.59394
G1 X133.601 Y127.552 E8.60842
G1 X132.684 Y127.616 E8.62676
G1 X102.317 Y127.616 E9.23277
G1 X101.592 Y127.576 E9.24726
G1 X100.875 Y127.457 E9.26176
G1 X100.176 Y127.259 E9.27626
G1 X99.503 Y126.986 E9.29076
G1 X98.864 Y126.641 E9.30525
G1 X98.267 Y126.227 E9.31975
G1 X97.719 Y125.751 E9.33423
G1 X97.226 Y125.217 E9.34873
G1 X96.796 Y124.632 E9.36322
G1 X96.432 Y124.003 E9.37773
G1 X96.139 Y123.338 E9.39223
G1 X95.921 Y122.645 E9.40673
G1 X95.781 Y121.933 E9.42121
G1 X95.717 Y121.017 E9.43953
G1 X95.716 Y113.988 E9.5798
G0 F6000 X96.116 Y113.988
G1 F1200 X96.156 Y113.285 E9.59385
G1 X96.275 Y112.591 E9.60791
G1 X96.472 Y111.915 E9.62196
G1 X96.745 Y111.266 E9.63601
G1 X97.089 Y110.652 E9.65005
G1 X97.501 Y110.081 E9.6641
G1 X97.975 Y109.561 E9.67815
G1 X98.505 Y109.097 E9.6922
G1 X99.083 Y108.696 E9.70624
G1 X99.704 Y108.364 E9.72029
G1 X100.358 Y108.104 E9.73434
G1 X101.038 Y107.92 E9.7484
G1 X101.734 Y107.814 E9.76245
G1 X102.316 Y107.787 E9.77407
G1 X132.684 Y107.787 E10.3801
G1 X133.387 Y107.827 E10.39415
G1 X134.081 Y107.946 E10.4082
G1 X134.756 Y108.144 E10.42224
G1 X135.405 Y108.416 E10.43628
G1 X136.019 Y108.761 E10.45034
G1 X136.59 Y109.172 E10.46438
G1 X137.111 Y109.646 E10.47844
G1 X137.575 Y110.176 E10.49249
G1 X137.975 Y110.755 E10.50654
G1 X138.307 Y111.376 E10.52059
G1 X138.567 Y112.03 E10.53463
G1 X138.751 Y112.71 E10.54869
G1 X138.857 Y113.406 E10.56274
G1 X138.884 Y113.987 E10.57435
G1 X138.884 Y121.016 E10.71462
G1 X138.844 Y121.719 E10.72867
G1 X138.725 Y122.413 E10.74272
G1 X138.527 Y123.088 E10.75676
G1 X138.255 Y123.737 E10.7708
G1 X137.91 Y124.351 E10.78486
G1 X137.499 Y124.922 E10.7989
G1 X137.025 Y125.443 E10.81296
G1 X136.495 Y125.907 E10.82701
G1 X135.916 Y126.307 E10.84106
G1 X135.295 Y126.639 E10.85511
G1 X134.641 Y126.899 E10.86915
G1 X133.961 Y127.083 E10.88321
G1 X133.265 Y127.189 E10.89726
G1 X132.684 Y127.216 E10.90887
G1 X102.317 Y127.216 E11.51487
G1 X101.614 Y127.176 E11.52893
G1 X100.92 Y127.057 E11.54298
G1 X100.245 Y126.859 E11.55702
G1 X99.596 Y126.587 E11.57106
G1 X98.982 Y126.242 E11.58511
G1 X98.411 Y125.831 E11.59915
G1 X97.89 Y125.357 E11.61321
G1 X97.426 Y124.827 E11.62727
G1 X97.026 Y124.248 E11.64131
G1 X96.694 Y123.627 E11.65536
G1 X96.434 Y122.973 E11.66941
G1 X96.25 Y122.293 E11.68347
G1 X96.144 Y121.597 E11.69752
G1 X96.117 Y121.017 E11.7091
G1 X96.116 Y113.988 E11.84937
G0 F6000 X96.516 Y113.988
G1 F1200 X96.556 Y113.308 E11.86297
G1 X96.675 Y112.638 E11.87655
G1 X96.872 Y111.986 E11.89014
G1 X97.144 Y111.362 E11.90372
G1 X97.487 Y110.774 E11.91731
G1 X97.897 Y110.23 E11.9309
G1 X98.368 Y109.738 E11.9445
G1 X98.893 Y109.305 E11.95808
G1 X99.465 Y108.936 E11.97166
G1 X100.077 Y108.637 E11.98525
G1 X100.719 Y108.411 E11.99884
G1 X101.384 Y108.262 E12.01244
G1 X102.316 Y108.187 E12.03109
G1 X132.684 Y108.187 E12.63712
G1 X133.364 Y108.227 E12.65071
G1 X134.034 Y108.346 E12.66429
G1 X134.686 Y108.543 E12.67789
G1 X135.31 Y108.815 E12.69147
G1 X135.898 Y109.159 E12.70507
G1 X136.442 Y109.569 E12.71866
G1 X136.933 Y110.04 E12.73224
G1 X137.367 Y110.565 E12.74583
G1 X137.736 Y111.137 E12.75941
G1 X138.035 Y111.749 E12.77301
G1 X138.26 Y112.391 E12.78658
G1 X138.409 Y113.056 E12.80018
G1 X138.484 Y113.987 E12.81882
G1 X138.484 Y121.016 E12.95909
G1 X138.444 Y121.696 E12.97269
G1 X138.325 Y122.366 E12.98627
G1 X138.128 Y123.018 E12.99986
G1 X137.856 Y123.642 E13.01344
G1 X137.512 Y124.23 E13.02704
G1 X137.102 Y124.774 E13.04063
G1 X136.631 Y125.265 E13.05421
G1 X136.106 Y125.699 E13.0678
G1 X135.534 Y126.068 E13.08139
G1 X134.922 Y126.367 E13.09498
G1 X134.28 Y126.592 E13.10856
G1 X133.615 Y126.741 E13.12216
G1 X132.684 Y126.816 E13.1408
G1 X102.317 Y126.816 E13.7468
G1 X101.637 Y126.776 E13.7604
G1 X100.967 Y126.657 E13.77397
G1 X100.315 Y126.46 E13.78757
G1 X99.691 Y126.188 E13.80115
G1 X99.103 Y125.844 E13.81475
G1 X98.559 Y125.434 E13.82834
G1 X98.068 Y124.963 E13.84192
G1 X97.634 Y124.438 E13.85551
G1 X97.265 Y123.866 E13.8691
G1 X96.966 Y123.254 E13.88269
G1 X96.741 Y122.612 E13.89626
G1 X96.592 Y121.947 E13.90986
G1 X96.517 Y121.017 E13.92848
G1 X96.516 Y113.988 E14.06875
G0 F6000 X96.916 Y113.988
G1 F1200 X96.956 Y113.332 E14.08187
G1 X97.075 Y112.686 E14.09498
G1 X97.272 Y112.059 E14.10809
G1 X97.543 Y111.461 E14.1212
G1 X97.885 Y110.9 E14.13431
G1 X98.293 Y110.385 E14.14742
G1 X98.76 Y109.923 E14.16053
G1 X99.28 Y109.521 E14.17365
G1 X99.845 Y109.186 E14.18675
G1 X100.446 Y108.921 E14.19986
G1 X101.075 Y108.731 E14.21297
G1 X101.723 Y108.62 E14.22609
G1 X102.316 Y108.587 E14.23795
G1 X132.684 Y108.587 E14.84397
G1 X133.34 Y108.627 E14.85709
G1 X133.986 Y108.746 E14.8702
G1 X134.613 Y108.943 E14.88331
G1 X135.211 Y109.215 E14.89642
G1 X135.772 Y109.557 E14.90953
G1 X136.287 Y109.965 E14.92265
G1 X136.749 Y110.432 E14.93575
G1 X137.15 Y110.952 E14.94886
G1 X137.486 Y111.516 E14.96196
G1 X137.75 Y112.118 E14.97508
G1 X137.94 Y112.747 E14.98819
G1 X138.051 Y113.394 E15.00129
G1 X138.084 Y113.987 E15.01314
G1 X138.084 Y121.016 E15.15341
G1 X138.044 Y121.672 E15.16653
G1 X137.925 Y122.318 E15.17964
G1 X137.728 Y122.945 E15.19275
G1 X137.456 Y123.543 E15.20586
G1 X137.114 Y124.104 E15.21898
G1 X136.706 Y124.619 E15.23209
G1 X136.239 Y125.081 E15.2452
G1 X135.719 Y125.482 E15.2583
G1 X135.155 Y125.818 E15.2714
G1 X134.553 Y126.082 E15.28452
G1 X133.924 Y126.272 E15.29763
G1 X133.277 Y126.383 E15.31073
G1 X132.684 Y126.416 E15.32259
G1 X102.317 Y126.416 E15.92859
G1 X101.661 Y126.376 E15.94171
G1 X101.015 Y126.257 E15.95482
G1 X100.388 Y126.06 E15.96793
G1 X99.79 Y125.788 E15.98104
G1 X99.229 Y125.446 E15.99415
G1 X98.714 Y125.038 E16.00727
G1 X98.252 Y124.571 E16.02037
G1 X97.851 Y124.051 E16.03348
G1 X97.515 Y123.487 E16.04658
G1 X97.251 Y122.885 E16.0597
G1 X97.061 Y122.256 E16.07281
G1 X96.95 Y121.609 E16.08591
G1 X96.917 Y121.017 E16.09774
G1 X96.916 Y113.988 E16.23801
G0 F6000 X97.316 Y113.988
G1 F1200 X97.356 Y113.357 E16.25063
G1 X97.475 Y112.736 E16.26325
G1 X97.672 Y112.135 E16.27587
G1 X97.942 Y111.564 E16.28848
G1 X98.283 Y111.032 E16.30109
G1 X98.688 Y110.546 E16.31371
G1 X99.151 Y110.116 E16.32632
G1 X99.665 Y109.748 E16.33894
G1 X100.221 Y109.447 E16.35155
G1 X100.811 Y109.219 E16.36418
G1 X101.424 Y109.067 E16.37678
G1 X102.316 Y108.987 E16.39465
G1 X132.684 Y108.987 E17.00068
G1 X133.315 Y109.027 E17.0133
G1 X133.936 Y109.146 E17.02591
G1 X134.536 Y109.343 E17.03852
G1 X135.108 Y109.614 E17.05115
G1 X135.64 Y109.954 E17.06375
G1 X136.125 Y110.36 E17.07637
G1 X136.555 Y110.823 E17.08898
G1 X136.924 Y111.337 E17.10161
G1 X137.224 Y111.893 E17.11421
G1 X137.452 Y112.482 E17.12682
G1 X137.604 Y113.096 E17.13944
G1 X137.684 Y113.987 E17.15729
G1 X137.684 Y121.016 E17.29757
G1 X137.644 Y121.647 E17.31018
G1 X137.525 Y122.268 E17.3228
G1 X137.328 Y122.868 E17.3354
G1 X137.057 Y123.44 E17.34803
G1 X136.717 Y123.972 E17.36063
G1 X136.311 Y124.457 E17.37326
G1 X135.848 Y124.887 E17.38587
G1 X135.334 Y125.256 E17.39849
G1 X134.778 Y125.556 E17.4111
G1 X134.189 Y125.784 E17.42371
G1 X133.575 Y125.936 E17.43633
G1 X132.684 Y126.016 E17.45418
G1 X102.317 Y126.016 E18.06019
G1 X101.686 Y125.976 E18.0728
G1 X101.065 Y125.857 E18.08542
G1 X100.465 Y125.66 E18.09803
G1 X99.893 Y125.389 E18.11066
G1 X99.361 Y125.049 E18.12326
G1 X98.876 Y124.643 E18.13588
G1 X98.446 Y124.18 E18.14849
G1 X98.077 Y123.666 E18.16112
G1 X97.777 Y123.11 E18.17372
G1 X97.549 Y122.521 E18.18633
G1 X97.397 Y121.907 E18.19895
G1 X97.317 Y121.017 E18.21678
G1 X97.316 Y113.988 E18.35705
G0 F6000 X97.716 Y113.988
G1 F1200 X97.756 Y113.383 E18.36915
G1 X97.875 Y112.788 E18.38126
G1 X98.071 Y112.215 E18.39335
G1 X98.341 Y111.672 E18.40545
G1 X98.68 Y111.169 E18.41755
G1 X99.082 Y110.715 E18.42966
G1 X99.541 Y110.318 E18.44177
G1 X100.047 Y109.985 E18.45385
G1 X100.593 Y109.722 E18.46595
G1 X101.169 Y109.532 E18.47805
G1 X101.765 Y109.42 E18.49015
G1 X102.316 Y109.387 E18.50117
G1 X132.684 Y109.387 E19.1072
G1 X133.289 Y109.427 E19.1193
G1 X133.883 Y109.546 E19.13139
G1 X134.457 Y109.742 E19.14349
G1 X135 Y110.013 E19.1556
