;FLAVOR:Marlin
;TIME:2279
;Filament used: 0.738886m
;Layer height: 0.12
;MINX:94.644
;MINY:94.889
;MINZ:0.12
;MAXX:140.356
;MAXY:140.111
;MAXZ:3
;Generated with Cura_SteamEngine 5.0.0
M140 S70
M105
M190 S70
M104 S200
M105
M109 S200
M82 ;absolute extrusion mode
; Ender 3 Custom Start G-code
G92 E0 ; Reset Extruder
G28 ; Home all axes
; G29  bl touch
G1 Z2.0 F3000 ; Move Z Axis up little to prevent scratching of Heat Bed
G1 X0.1 Y20 Z0.3 F5000.0 ; Move to start position
G1 X0.1 Y200.0 Z0.3 F1500.0 E15 ; Draw the first line
G1 X0.4 Y200.0 Z0.3 F5000.0 ; Move to side a little
G1 X0.4 Y20 Z0.3 F1500.0 E30 ; Draw the second line
G92 E0 ; Reset Extruder
G1 Z2.0 F3000 ; Move Z Axis up little to prevent scratching of Heat Bed
G1 X5 Y20 Z0.3 F5000.0 ; Move over to prevent blob squish
G92 E0
G92 E0
G1 F1800 E-0.5
;LAYER_COUNT:25
;LAYER:0
M107
G0 F6000 X97.067 Y97.038 Z0.12
G0 X94.644 Y102.689
;TYPE:SKIRT
G1 F1800 E0
G1 F1200 X94.684 Y101.9 E0.01577
G1 X94.803 Y101.12 E0.03151
G1 X95.001 Y100.355 E0.04728
G1 X95.275 Y99.615 E0.06303
G1 X95.623 Y98.906 E0.07879
G1 X96.041 Y98.235 E0.09457
G1 X96.524 Y97.611 E0.11031
G1 X97.067 Y97.038 E0.12607
G1 X97.666 Y96.523 E0.14183
G1 X98.314 Y96.072 E0.15759
G1 X99.005 Y95.688 E0.17336
G1 X99.73 Y95.376 E0.18911
G1 X100.483 Y95.139 E0.20487
G1 X101.257 Y94.98 E0.22064
G1 X102.042 Y94.899 E0.23638
G1 X102.444 Y94.889 E0.24441
G1 X132.556 Y94.889 E0.84533
G1 X133.345 Y94.929 E0.86109
G1 X134.125 Y95.048 E0.87684
G1 X134.89 Y95.246 E0.89261
G1 X135.63 Y95.52 E0.90835
G1 X136.339 Y95.868 E0.92412
G1 X137.01 Y96.286 E0.93989
G1 X137.634 Y96.769 E0.95564
G1 X138.207 Y97.312 E0.97139
G1 X138.722 Y97.911 E0.98716
G1 X139.173 Y98.559 E1.00291
G1 X139.557 Y99.25 E1.01869
G1 X139.869 Y99.975 E1.03444
G1 X140.106 Y100.728 E1.05019
G1 X140.265 Y101.502 E1.06596
G1 X140.346 Y102.287 E1.08171
G1 X140.356 Y102.689 E1.08974
G1 X140.356 Y132.311 E1.68087
G1 X140.316 Y133.1 E1.69664
G1 X140.197 Y133.88 E1.71239
G1 X139.999 Y134.645 E1.72816
G1 X139.725 Y135.385 E1.7439
G1 X139.377 Y136.094 E1.75966
G1 X138.959 Y136.765 E1.77544
G1 X138.476 Y137.389 E1.79119
G1 X137.933 Y137.962 E1.80694
G1 X137.334 Y138.477 E1.82271
G1 X136.686 Y138.928 E1.83846
G1 X135.995 Y139.312 E1.85424
G1 X135.27 Y139.624 E1.86999
G1 X134.517 Y139.861 E1.88574
G1 X133.743 Y140.02 E1.90151
G1 X132.958 Y140.101 E1.91726
G1 X132.556 Y140.111 E1.92528
G1 X108.445 Y140.111 E2.40644
G1 X108.018 Y140.099 E2.41497
G1 X107.379 Y140.064 E2.42774
G1 X106.593 Y139.981 E2.44351
G1 X105.983 Y139.885 E2.45584
G1 X105.166 Y139.711 E2.47251
G1 X104.55 Y139.545 E2.48524
G1 X103.771 Y139.291 E2.50159
G1 X103.183 Y139.064 E2.51417
G1 X102.439 Y138.731 E2.53043
G1 X101.88 Y138.445 E2.54296
G1 X101.174 Y138.036 E2.55925
G1 X100.66 Y137.701 E2.57149
G1 X100.018 Y137.234 E2.58733
G1 X99.529 Y136.839 E2.59988
G1 X98.896 Y136.268 E2.61689
G1 X98.444 Y135.813 E2.62969
G1 X97.917 Y135.226 E2.64543
G1 X97.529 Y134.747 E2.65773
G1 X97.051 Y134.089 E2.67396
G1 X96.709 Y133.563 E2.68648
G1 X96.289 Y132.833 E2.70329
G1 X96 Y132.262 E2.71606
G1 X95.678 Y131.538 E2.73187
G1 X95.457 Y130.963 E2.74417
G1 X95.203 Y130.18 E2.76059
G1 X95.038 Y129.563 E2.77334
G1 X94.868 Y128.761 E2.7897
G1 X94.772 Y128.151 E2.80202
G1 X94.688 Y127.349 E2.81812
G1 X94.655 Y126.724 E2.83061
G1 X94.644 Y126.313 E2.83881
G1 X94.644 Y102.689 E3.31025
G0 F6000 X95.044 Y102.689
G1 F1200 X95.084 Y101.921 E3.3256
G1 X95.203 Y101.161 E3.34095
G1 X95.401 Y100.418 E3.3563
G1 X95.675 Y99.699 E3.37165
G1 X96.022 Y99.013 E3.38699
G1 X96.438 Y98.366 E3.40234
G1 X96.919 Y97.766 E3.41769
G1 X97.46 Y97.219 E3.43304
G1 X98.055 Y96.731 E3.4484
G1 X98.697 Y96.308 E3.46374
G1 X99.38 Y95.953 E3.4791
G1 X100.095 Y95.672 E3.49443
G1 X100.837 Y95.466 E3.5098
G1 X101.595 Y95.338 E3.52514
G1 X102.444 Y95.289 E3.54211
G1 X132.556 Y95.289 E4.14303
G1 X133.324 Y95.329 E4.15838
G1 X134.084 Y95.448 E4.17373
G1 X134.827 Y95.646 E4.18907
G1 X135.546 Y95.92 E4.20443
G1 X136.232 Y96.267 E4.21977
G1 X136.879 Y96.683 E4.23512
G1 X137.479 Y97.164 E4.25047
G1 X138.026 Y97.705 E4.26582
G1 X138.514 Y98.3 E4.28118
G1 X138.937 Y98.942 E4.29652
G1 X139.292 Y99.625 E4.31188
G1 X139.573 Y100.34 E4.32721
G1 X139.779 Y101.082 E4.34258
G1 X139.907 Y101.84 E4.35792
G1 X139.956 Y102.689 E4.37489
G1 X139.956 Y132.311 E4.96603
G1 X139.916 Y133.079 E4.98138
G1 X139.797 Y133.839 E4.99673
G1 X139.599 Y134.582 E5.01207
G1 X139.325 Y135.301 E5.02743
G1 X138.978 Y135.987 E5.04277
G1 X138.562 Y136.634 E5.05812
G1 X138.081 Y137.234 E5.07347
G1 X137.54 Y137.781 E5.08882
G1 X136.945 Y138.269 E5.10418
G1 X136.303 Y138.692 E5.11952
G1 X135.62 Y139.047 E5.13488
G1 X134.905 Y139.328 E5.15021
G1 X134.163 Y139.534 E5.16558
G1 X133.405 Y139.662 E5.18092
G1 X132.556 Y139.711 E5.19789
G1 X108.445 Y139.711 E5.67905
G1 X108.04 Y139.7 E5.68714
G1 X107.401 Y139.665 E5.69991
G1 X106.656 Y139.586 E5.71486
G1 X106.046 Y139.49 E5.72718
G1 X105.271 Y139.325 E5.74299
G1 X104.655 Y139.159 E5.75573
G1 X103.915 Y138.917 E5.77126
G1 X103.327 Y138.69 E5.78384
G1 X102.621 Y138.375 E5.79927
G1 X102.062 Y138.089 E5.8118
G1 X101.392 Y137.701 E5.82725
G1 X100.878 Y137.366 E5.83949
G1 X100.269 Y136.923 E5.85452
G1 X99.78 Y136.528 E5.86707
G1 X99.18 Y135.986 E5.8832
G1 X98.728 Y135.531 E5.896
G1 X98.228 Y134.974 E5.91094
G1 X97.84 Y134.495 E5.92324
G1 X97.386 Y133.871 E5.93864
G1 X97.044 Y133.345 E5.95116
G1 X96.646 Y132.653 E5.96709
G1 X96.357 Y132.082 E5.97986
G1 X96.052 Y131.395 E5.99486
G1 X95.831 Y130.82 E6.00716
G1 X95.589 Y130.077 E6.02275
G1 X95.424 Y129.46 E6.03549
G1 X95.263 Y128.698 E6.05104
G1 X95.167 Y128.088 E6.06336
G1 X95.087 Y127.328 E6.07861
G1 X95.054 Y126.703 E6.0911
G1 X95.044 Y126.313 E6.09889
G1 X95.044 Y102.689 E6.57033
G0 F6000 X95.444 Y102.689
G1 F1200 X95.484 Y101.942 E6.58526
G1 X95.603 Y101.204 E6.60017
G1 X95.801 Y100.482 E6.61511
G1 X96.074 Y99.786 E6.63003
G1 X96.421 Y99.123 E6.64497
G1 X96.836 Y98.5 E6.65991
G1 X97.315 Y97.926 E6.67483
G1 X97.852 Y97.405 E6.68976
G1 X98.442 Y96.946 E6.70467
G1 X99.078 Y96.551 E6.71962
G1 X99.752 Y96.227 E6.73454
G1 X100.457 Y95.977 E6.74947
G1 X101.185 Y95.803 E6.7644
G1 X101.927 Y95.708 E6.77933
G1 X102.444 Y95.689 E6.78966
G1 X132.556 Y95.689 E7.39057
G1 X133.303 Y95.729 E7.4055
G1 X134.041 Y95.848 E7.42042
G1 X134.763 Y96.046 E7.43536
G1 X135.459 Y96.319 E7.45028
G1 X136.122 Y96.666 E7.46521
G1 X136.745 Y97.081 E7.48015
G1 X137.319 Y97.56 E7.49507
G1 X137.84 Y98.097 E7.51
G1 X138.299 Y98.687 E7.52492
G1 X138.694 Y99.323 E7.53986
G1 X139.018 Y99.997 E7.55478
G1 X139.268 Y100.702 E7.56971
G1 X139.442 Y101.43 E7.58465
G1 X139.537 Y102.172 E7.59958
G1 X139.556 Y102.689 E7.6099
G1 X139.556 Y132.311 E8.20104
G1 X139.516 Y133.058 E8.21597
G1 X139.397 Y133.796 E8.23089
G1 X139.199 Y134.518 E8.24583
G1 X138.926 Y135.214 E8.26075
G1 X138.579 Y135.877 E8.27568
G1 X138.164 Y136.5 E8.29062
G1 X137.685 Y137.074 E8.30554
G1 X137.148 Y137.595 E8.32047
G1 X136.558 Y138.054 E8.33539
G1 X135.922 Y138.449 E8.35033
G1 X135.248 Y138.773 E8.36525
G1 X134.543 Y139.023 E8.38018
G1 X133.815 Y139.197 E8.39512
G1 X133.073 Y139.292 E8.41004
G1 X132.556 Y139.311 E8.42037
G1 X108.445 Y139.311 E8.90153
G1 X108.062 Y139.301 E8.90918
G1 X107.423 Y139.266 E8.92195
G1 X106.718 Y139.191 E8.9361
G1 X106.108 Y139.095 E8.94842
G1 X105.375 Y138.939 E8.96337
G1 X104.759 Y138.773 E8.97611
G1 X104.059 Y138.544 E8.9908
G1 X103.471 Y138.317 E9.00338
G1 X102.804 Y138.019 E9.01796
G1 X102.245 Y137.733 E9.03049
G1 X101.611 Y137.365 E9.04512
G1 X101.097 Y137.03 E9.05736
G1 X100.52 Y136.611 E9.07159
G1 X100.031 Y136.216 E9.08414
G1 X99.464 Y135.704 E9.09938
G1 X99.012 Y135.249 E9.11218
G1 X98.539 Y134.722 E9.12631
G1 X98.151 Y134.243 E9.13862
G1 X97.721 Y133.653 E9.15319
G1 X97.379 Y133.127 E9.16571
G1 X97.002 Y132.472 E9.18079
G1 X96.713 Y131.901 E9.19356
G1 X96.425 Y131.251 E9.20775
G1 X96.204 Y130.676 E9.22004
G1 X95.976 Y129.973 E9.23479
G1 X95.811 Y129.356 E9.24753
G1 X95.658 Y128.636 E9.26222
G1 X95.562 Y128.026 E9.27455
G1 X95.487 Y127.307 E9.28897
G1 X95.454 Y126.682 E9.30146
G1 X95.444 Y126.313 E9.30883
G1 X95.444 Y102.689 E9.78027
G0 F6000 X95.844 Y102.689
G1 F1200 X95.884 Y101.964 E9.79476
G1 X96.003 Y101.247 E9.80927
G1 X96.201 Y100.548 E9.82376
G1 X96.474 Y99.875 E9.83826
G1 X96.819 Y99.236 E9.85275
G1 X97.233 Y98.639 E9.86725
G1 X97.709 Y98.091 E9.88173
G1 X98.243 Y97.598 E9.89624
G1 X98.828 Y97.168 E9.91072
G1 X99.457 Y96.804 E9.92523
G1 X100.122 Y96.511 E9.93973
G1 X100.815 Y96.293 E9.95423
G1 X101.527 Y96.153 E9.96871
G1 X102.444 Y96.089 E9.98705
G1 X132.556 Y96.089 E10.58797
G1 X133.281 Y96.129 E10.60246
G1 X133.998 Y96.248 E10.61696
G1 X134.697 Y96.446 E10.63146
G1 X135.37 Y96.719 E10.64596
G1 X136.009 Y97.064 E10.66045
G1 X136.606 Y97.478 E10.67495
G1 X137.154 Y97.954 E10.68943
G1 X137.647 Y98.488 E10.70393
G1 X138.077 Y99.073 E10.71842
G1 X138.441 Y99.702 E10.73293
G1 X138.734 Y100.367 E10.74743
G1 X138.952 Y101.06 E10.76193
G1 X139.092 Y101.772 E10.77641
G1 X139.156 Y102.689 E10.79475
G1 X139.156 Y132.311 E11.38589
G1 X139.116 Y133.036 E11.40038
G1 X138.997 Y133.753 E11.41488
G1 X138.799 Y134.452 E11.42938
G1 X138.526 Y135.125 E11.44388
G1 X138.181 Y135.764 E11.45837
G1 X137.767 Y136.361 E11.47287
G1 X137.291 Y136.909 E11.48735
G1 X136.757 Y137.402 E11.50185
G1 X136.172 Y137.832 E11.51634
G1 X135.543 Y138.196 E11.53085
G1 X134.878 Y138.489 E11.54535
G1 X134.185 Y138.707 E11.55985
G1 X133.473 Y138.847 E11.57433
G1 X132.556 Y138.911 E11.59267
G1 X108.445 Y138.911 E12.07383
G1 X108.084 Y138.901 E12.08104
G1 X107.445 Y138.866 E12.09381
G1 X106.78 Y138.796 E12.10715
G1 X106.17 Y138.7 E12.11948
G1 X105.479 Y138.553 E12.13357
G1 X104.863 Y138.387 E12.14631
G1 X104.203 Y138.171 E12.16016
G1 X103.615 Y137.944 E12.17274
G1 X102.986 Y137.663 E12.18649
G1 X102.427 Y137.377 E12.19902
G1 X101.829 Y137.03 E12.21282
G1 X101.315 Y136.695 E12.22506
G1 X100.772 Y136.3 E12.23846
G1 X100.283 Y135.905 E12.25101
G1 X99.748 Y135.422 E12.26539
G1 X99.296 Y134.967 E12.27819
G1 X98.849 Y134.47 E12.29153
G1 X98.461 Y133.991 E12.30383
G1 X98.057 Y133.435 E12.31755
G1 X97.715 Y132.909 E12.33007
G1 X97.359 Y132.291 E12.3443
G1 X97.07 Y131.72 E12.35707
G1 X96.798 Y131.108 E12.37044
G1 X96.577 Y130.533 E12.38273
G1 X96.362 Y129.87 E12.39664
G1 X96.197 Y129.253 E12.40938
G1 X96.053 Y128.574 E12.42324
G1 X95.957 Y127.964 E12.43556
G1 X95.886 Y127.286 E12.44916
G1 X95.853 Y126.661 E12.46165
G1 X95.844 Y126.313 E12.4686
G1 X95.844 Y102.689 E12.94004
G0 F6000 X96.244 Y102.689
G1 F1200 X96.284 Y101.986 E12.95409
G1 X96.403 Y101.292 E12.96815
G1 X96.601 Y100.617 E12.98218
G1 X96.873 Y99.968 E12.99623
G1 X97.218 Y99.354 E13.01028
G1 X97.629 Y98.783 E13.02432
G1 X98.103 Y98.262 E13.03838
G1 X98.633 Y97.798 E13.05243
G1 X99.212 Y97.398 E13.06648
G1 X99.833 Y97.066 E13.08053
G1 X100.487 Y96.806 E13.09458
G1 X101.167 Y96.622 E13.10863
G1 X101.863 Y96.516 E13.12268
G1 X102.444 Y96.489 E13.13429
G1 X132.556 Y96.489 E13.73521
G1 X133.259 Y96.529 E13.74926
G1 X133.953 Y96.648 E13.76331
G1 X134.628 Y96.846 E13.77735
G1 X135.277 Y97.118 E13.79139
G1 X135.891 Y97.463 E13.80545
G1 X136.462 Y97.874 E13.81949
G1 X136.983 Y98.348 E13.83354
G1 X137.447 Y98.878 E13.8476
G1 X137.847 Y99.457 E13.86164
G1 X138.179 Y100.078 E13.8757
G1 X138.439 Y100.732 E13.88974
G1 X138.623 Y101.412 E13.9038
G1 X138.729 Y102.108 E13.91785
G1 X138.756 Y102.689 E13.92946
G1 X138.756 Y132.311 E14.5206
G1 X138.716 Y133.014 E14.53465
G1 X138.597 Y133.708 E14.5487
G1 X138.399 Y134.383 E14.56274
G1 X138.127 Y135.032 E14.57678
G1 X137.782 Y135.646 E14.59083
G1 X137.371 Y136.217 E14.60487
G1 X136.897 Y136.738 E14.61893
G1 X136.367 Y137.202 E14.63299
G1 X135.788 Y137.602 E14.64703
G1 X135.167 Y137.934 E14.66108
G1 X134.513 Y138.194 E14.67513
G1 X133.833 Y138.378 E14.68919
G1 X133.137 Y138.484 E14.70324
G1 X132.556 Y138.511 E14.71484
G1 X108.445 Y138.511 E15.196
G1 X108.106 Y138.502 E15.20277
G1 X107.467 Y138.467 E15.21554
G1 X106.842 Y138.401 E15.22809
G1 X106.232 Y138.305 E15.24041
G1 X105.583 Y138.166 E15.25365
G1 X104.967 Y138 E15.26639
G1 X104.347 Y137.798 E15.2794
G1 X103.759 Y137.571 E15.29198
G1 X103.168 Y137.307 E15.30489
G1 X102.609 Y137.021 E15.31742
G1 X102.048 Y136.695 E15.33037
G1 X101.534 Y136.36 E15.34262
G1 X101.023 Y135.989 E15.35522
G1 X100.534 Y135.594 E15.36776
G1 X100.031 Y135.141 E15.38127
G1 X99.579 Y134.686 E15.39407
G1 X99.16 Y134.218 E15.40661
G1 X98.772 Y133.739 E15.41891
G1 X98.392 Y133.217 E15.43179
G1 X98.05 Y132.691 E15.44431
G1 X97.716 Y132.111 E15.45767
G1 X97.427 Y131.54 E15.47044
G1 X97.172 Y130.964 E15.48301
G1 X96.951 Y130.389 E15.4953
G1 X96.748 Y129.767 E15.50836
G1 X96.583 Y129.15 E15.52111
G1 X96.448 Y128.512 E15.53412
G1 X96.352 Y127.902 E15.54644
G1 X96.286 Y127.265 E15.55922
G1 X96.253 Y126.64 E15.57171
G1 X96.244 Y126.313 E15.57824
G1 X96.244 Y102.689 E16.04968
G0 F6000 X96.644 Y102.689
G1 F1200 X96.684 Y102.009 E16.06328
G1 X96.803 Y101.339 E16.07686
G1 X97 Y100.687 E16.09045
G1 X97.272 Y100.063 E16.10403
G1 X97.616 Y99.475 E16.11763
G1 X98.026 Y98.931 E16.13122
G1 X98.497 Y98.44 E16.1448
G1 X99.022 Y98.006 E16.15839
G1 X99.594 Y97.637 E16.17198
G1 X100.206 Y97.338 E16.18557
G1 X100.848 Y97.113 E16.19915
G1 X101.513 Y96.964 E16.21275
G1 X102.444 Y96.889 E16.23139
G1 X132.556 Y96.889 E16.8323
G1 X133.236 Y96.929 E16.8459
G1 X133.906 Y97.048 E16.85948
G1 X134.558 Y97.245 E16.87307
G1 X135.182 Y97.517 E16.88665
G1 X135.77 Y97.861 E16.90025
G1 X136.314 Y98.271 E16.91384
G1 X136.805 Y98.742 E16.92742
G1 X137.239 Y99.267 E16.94101
G1 X137.608 Y99.839 E16.9546
G1 X137.907 Y100.451 E16.96819
G1 X138.132 Y101.093 E16.98177
G1 X138.281 Y101.758 E16.99537
G1 X138.356 Y102.689 E17.01401
G1 X138.356 Y132.311 E17.60514
G1 X138.316 Y132.991 E17.61874
G1 X138.197 Y133.661 E17.63232
G1 X138 Y134.313 E17.64591
G1 X137.728 Y134.937 E17.65949
G1 X137.384 Y135.525 E17.67309
G1 X136.974 Y136.069 E17.68668
G1 X136.503 Y136.56 E17.70026
G1 X135.978 Y136.994 E17.71385
G1 X135.406 Y137.363 E17.72744
G1 X134.794 Y137.662 E17.74103
G1 X134.152 Y137.887 E17.75461
G1 X133.487 Y138.036 E17.76821
G1 X132.556 Y138.111 E17.78685
G1 X108.445 Y138.111 E18.26801
G1 X108.128 Y138.102 E18.27434
G1 X107.489 Y138.067 E18.28711
G1 X106.904 Y138.005 E18.29885
G1 X106.294 Y137.909 E18.31117
G1 X105.687 Y137.78 E18.32355
G1 X105.071 Y137.614 E18.33628
G1 X104.491 Y137.425 E18.34846
G1 X103.903 Y137.198 E18.36104
G1 X103.35 Y136.95 E18.37313
G1 X102.791 Y136.664 E18.38566
G1 X102.266 Y136.36 E18.39777
G1 X101.752 Y136.025 E18.41001
G1 X101.274 Y135.678 E18.4218
G1 X100.785 Y135.283 E18.43434
G1 X100.315 Y134.859 E18.44698
G1 X99.863 Y134.404 E18.45978
G1 X99.471 Y133.967 E18.47149
G1 X99.083 Y133.488 E18.48379
G1 X98.727 Y132.999 E18.49586
G1 X98.385 Y132.473 E18.50838
G1 X98.073 Y131.93 E18.52088
G1 X97.784 Y131.359 E18.53365
G1 X97.545 Y130.821 E18.5454
G1 X97.324 Y130.246 E18.55769
G1 X97.135 Y129.663 E18.56992
G1 X96.97 Y129.046 E18.58267
G1 X96.844 Y128.45 E18.59483
G1 X96.748 Y127.84 E18.60715
G1 X96.685 Y127.244 E18.61911
G1 X96.652 Y126.619 E18.6316
G1 X96.644 Y126.313 E18.63771
G1 X96.644 Y102.689 E19.10915
G0 F6000 X97.044 Y102.689
G1 F1200 X97.084 Y102.033 E19.12227
G1 X97.203 Y101.387 E19.13537
G1 X97.4 Y100.76 E19.14849
G1 X97.672 Y100.162 E19.1616
G1 X98.014 Y99.601 E19.17471
G1 X98.422 Y99.086 E19.18782
G1 X98.889 Y98.624 E19.20093
G1 X99.409 Y98.223 E19.21404
G1 X99.973 Y97.887 E19.22714
G1 X100.575 Y97.623 E19.24026
G1 X101.204 Y97.433 E19.25337
G1 X101.851 Y97.322 E19.26647
G1 X102.444 Y97.289 E19.27832
G1 X132.556 Y97.289 E19.87924
G1 X133.212 Y97.329 E19.89235
G1 X133.858 Y97.448 E19.90546
G1 X134.485 Y97.645 E19.91858
G1 X135.083 Y97.917 E19.93169
G1 X135.644 Y98.259 E19.9448
G1 X136.159 Y98.667 E19.95791
G1 X136.621 Y99.134 E19.97102
G1 X137.022 Y99.654 E19.98413
G1 X137.358 Y100.218 E19.99723
G1 X137.622 Y100.82 E20.01035
G1 X137.812 Y101.449 E20.02346
G1 X137.923 Y102.096 E20.03656
G1 X137.956 Y102.689 E20.04841
G1 X137.956 Y132.311 E20.63955
G1 X137.916 Y132.967 E20.65266
G1 X137.797 Y133.613 E20.66577
G1 X137.6 Y134.24 E20.67889
G1 X137.328 Y134.838 E20.692
