;FLAVOR:Marlin
;TIME:463
;Filament used: 0.095842m
;Layer height: 0.12
;MINX:109.158
;MINY:103.7
;MINZ:0.12
;MAXX:125.842
;MAXY:131.3
;MAXZ:5.04
;Generated with Cura_SteamEngine 5.0.0
M140 S70
M105
M190 S70
M104 S200
M105
M109 S200
M82 ;absolute extrusion mode
; Ender 3 Custom Start G-code
G92 E0 ; Reset Extruder
G28 ; Home all axes
; G29  bl touch
G1 Z2.0 F3000 ; Move Z Axis up little to prevent scratching of Heat Bed
G1 X0.1 Y20 Z0.3 F5000.0 ; Move to start position
G1 X0.1 Y200.0 Z0.3 F1500.0 E15 ; Draw the first line
G1 X0.4 Y200.0 Z0.3 F5000.0 ; Move to side a little
G1 X0.4 Y20 Z0.3 F1500.0 E30 ; Draw the second line
G92 E0 ; Reset Extruder
G1 Z2.0 F3000 ; Move Z Axis up little to prevent scratching of Heat Bed
G1 X5 Y20 Z0.3 F5000.0 ; Move over to prevent blob squish
G92 E0
G92 E0
G1 F1800 E-0.5
;LAYER_COUNT:42
;LAYER:0
M107
G0 F6000 X111.581 Y105.849 Z0.12
G0 X109.158 Y111.5
;TYPE:SKIRT
G1 F1800 E0
G1 F1200 X109.198 Y110.711 E0.01577
G1 X109.317 Y109.931 E0.03151
G1 X109.515 Y109.166 E0.04728
G1 X109.789 Y108.426 E0.06303
G1 X110.137 Y107.717 E0.07879
G1 X110.555 Y107.046 E0.09457
G1 X111.038 Y106.422 E0.11031
G1 X111.581 Y105.849 E0.12607
G1 X112.18 Y105.334 E0.14183
G1 X112.828 Y104.883 E0.15759
G1 X113.519 Y104.499 E0.17336
G1 X114.244 Y104.187 E0.18911
G1 X114.997 Y103.95 E0.20487
G1 X115.771 Y103.791 E0.22064
G1 X116.556 Y103.71 E0.23638
G1 X116.958 Y103.7 E0.24441
G1 X118.042 Y103.7 E0.26604
G1 X118.831 Y103.74 E0.28181
G1 X119.611 Y103.859 E0.29755
G1 X120.376 Y104.057 E0.31332
G1 X121.116 Y104.331 E0.32907
G1 X121.825 Y104.679 E0.34483
G1 X122.496 Y105.097 E0.36061
G1 X123.12 Y105.58 E0.37635
G1 X123.693 Y106.123 E0.39211
G1 X124.208 Y106.722 E0.40787
G1 X124.659 Y107.37 E0.42363
G1 X125.043 Y108.061 E0.4394
G1 X125.355 Y108.786 E0.45515
G1 X125.592 Y109.539 E0.47091
G1 X125.751 Y110.313 E0.48668
G1 X125.832 Y111.098 E0.50243
G1 X125.842 Y111.5 E0.51045
G1 X125.842 Y123.5 E0.74992
G1 X125.802 Y124.289 E0.76569
G1 X125.683 Y125.069 E0.78143
G1 X125.485 Y125.834 E0.7972
G1 X125.211 Y126.574 E0.81295
G1 X124.863 Y127.283 E0.82871
G1 X124.445 Y127.954 E0.84449
G1 X123.962 Y128.578 E0.86024
G1 X123.419 Y129.151 E0.87599
G1 X122.82 Y129.666 E0.89175
G1 X122.172 Y130.117 E0.90751
G1 X121.481 Y130.501 E0.92329
G1 X120.756 Y130.813 E0.93904
G1 X120.003 Y131.05 E0.95479
G1 X119.229 Y131.209 E0.97056
G1 X118.444 Y131.29 E0.98631
G1 X118.042 Y131.3 E0.99433
G1 X116.958 Y131.3 E1.01596
G1 X116.169 Y131.26 E1.03173
G1 X115.389 Y131.141 E1.04748
G1 X114.624 Y130.943 E1.06325
G1 X113.884 Y130.669 E1.07899
G1 X113.175 Y130.321 E1.09475
G1 X112.504 Y129.903 E1.11053
G1 X111.88 Y129.42 E1.12628
G1 X111.307 Y128.877 E1.14203
G1 X110.792 Y128.278 E1.1578
G1 X110.341 Y127.63 E1.17355
G1 X109.957 Y126.939 E1.18933
G1 X109.645 Y126.214 E1.20508
G1 X109.408 Y125.461 E1.22083
G1 X109.249 Y124.687 E1.2366
G1 X109.168 Y123.902 E1.25235
G1 X109.158 Y123.5 E1.26037
G1 X109.158 Y111.5 E1.49985
G0 F6000 X109.558 Y111.5
G1 F1200 X109.598 Y110.732 E1.51519
G1 X109.717 Y109.972 E1.53054
G1 X109.915 Y109.229 E1.54589
G1 X110.189 Y108.51 E1.56124
G1 X110.536 Y107.824 E1.57659
G1 X110.952 Y107.177 E1.59194
G1 X111.433 Y106.577 E1.60728
G1 X111.974 Y106.03 E1.62264
G1 X112.569 Y105.542 E1.63799
G1 X113.211 Y105.119 E1.65333
G1 X113.894 Y104.764 E1.6687
G1 X114.609 Y104.483 E1.68403
G1 X115.351 Y104.277 E1.69939
G1 X116.109 Y104.149 E1.71474
G1 X116.958 Y104.1 E1.73171
G1 X118.042 Y104.1 E1.75334
G1 X118.81 Y104.14 E1.76869
G1 X119.57 Y104.259 E1.78404
G1 X120.313 Y104.457 E1.79938
G1 X121.032 Y104.731 E1.81474
G1 X121.718 Y105.078 E1.83008
G1 X122.365 Y105.494 E1.84543
G1 X122.965 Y105.975 E1.86077
G1 X123.512 Y106.516 E1.87613
G1 X124 Y107.111 E1.89148
G1 X124.423 Y107.753 E1.90683
G1 X124.778 Y108.436 E1.92219
G1 X125.059 Y109.151 E1.93752
G1 X125.265 Y109.893 E1.95289
G1 X125.393 Y110.651 E1.96823
G1 X125.442 Y111.5 E1.9852
G1 X125.442 Y123.5 E2.22467
G1 X125.402 Y124.268 E2.24002
G1 X125.283 Y125.028 E2.25537
G1 X125.085 Y125.771 E2.27072
G1 X124.811 Y126.49 E2.28607
G1 X124.464 Y127.176 E2.30141
G1 X124.048 Y127.823 E2.31676
G1 X123.567 Y128.423 E2.33211
G1 X123.026 Y128.97 E2.34746
G1 X122.431 Y129.458 E2.36282
G1 X121.789 Y129.881 E2.37816
G1 X121.106 Y130.236 E2.39352
G1 X120.391 Y130.517 E2.40885
G1 X119.649 Y130.723 E2.42422
G1 X118.891 Y130.851 E2.43956
G1 X118.042 Y130.9 E2.45653
G1 X116.958 Y130.9 E2.47816
G1 X116.19 Y130.86 E2.49351
G1 X115.43 Y130.741 E2.50886
G1 X114.687 Y130.543 E2.52421
G1 X113.968 Y130.269 E2.53956
G1 X113.282 Y129.922 E2.5549
G1 X112.635 Y129.506 E2.57025
G1 X112.035 Y129.025 E2.5856
G1 X111.488 Y128.484 E2.60095
G1 X111 Y127.889 E2.61631
G1 X110.577 Y127.247 E2.63165
G1 X110.222 Y126.564 E2.64701
G1 X109.941 Y125.849 E2.66235
G1 X109.735 Y125.107 E2.67771
G1 X109.607 Y124.349 E2.69305
G1 X109.558 Y123.5 E2.71002
G1 X109.558 Y111.5 E2.9495
G0 F6000 X109.958 Y111.5
G1 F1200 X109.998 Y110.753 E2.96443
G1 X110.117 Y110.015 E2.97934
G1 X110.315 Y109.293 E2.99428
G1 X110.588 Y108.597 E3.0092
G1 X110.935 Y107.934 E3.02414
G1 X111.35 Y107.311 E3.03908
G1 X111.829 Y106.737 E3.054
G1 X112.366 Y106.216 E3.06893
G1 X112.956 Y105.757 E3.08384
G1 X113.592 Y105.362 E3.09878
G1 X114.266 Y105.038 E3.11371
G1 X114.971 Y104.788 E3.12864
G1 X115.699 Y104.614 E3.14357
G1 X116.441 Y104.519 E3.1585
G1 X116.958 Y104.5 E3.16883
G1 X118.042 Y104.5 E3.19046
G1 X118.789 Y104.54 E3.20539
G1 X119.527 Y104.659 E3.2203
G1 X120.249 Y104.857 E3.23524
G1 X120.945 Y105.13 E3.25016
G1 X121.608 Y105.477 E3.2651
G1 X122.231 Y105.892 E3.28004
G1 X122.805 Y106.371 E3.29496
G1 X123.326 Y106.908 E3.30989
G1 X123.785 Y107.498 E3.3248
G1 X124.18 Y108.134 E3.33975
G1 X124.504 Y108.808 E3.35467
G1 X124.754 Y109.513 E3.3696
G1 X124.928 Y110.241 E3.38453
G1 X125.023 Y110.983 E3.39946
G1 X125.042 Y111.5 E3.40979
G1 X125.042 Y123.5 E3.64926
G1 X125.002 Y124.247 E3.66419
G1 X124.883 Y124.985 E3.67911
G1 X124.685 Y125.707 E3.69405
G1 X124.412 Y126.403 E3.70897
G1 X124.065 Y127.066 E3.7239
G1 X123.65 Y127.689 E3.73884
G1 X123.171 Y128.263 E3.75376
G1 X122.634 Y128.784 E3.76869
G1 X122.044 Y129.243 E3.78361
G1 X121.408 Y129.638 E3.79855
G1 X120.734 Y129.962 E3.81347
G1 X120.029 Y130.212 E3.8284
G1 X119.301 Y130.386 E3.84333
G1 X118.559 Y130.481 E3.85826
G1 X118.042 Y130.5 E3.86859
G1 X116.958 Y130.5 E3.89022
G1 X116.211 Y130.46 E3.90515
G1 X115.473 Y130.341 E3.92007
G1 X114.751 Y130.143 E3.93501
G1 X114.055 Y129.87 E3.94993
G1 X113.392 Y129.523 E3.96486
G1 X112.769 Y129.108 E3.9798
G1 X112.195 Y128.629 E3.99472
G1 X111.674 Y128.092 E4.00965
G1 X111.215 Y127.502 E4.02457
G1 X110.82 Y126.866 E4.03951
G1 X110.496 Y126.192 E4.05443
G1 X110.246 Y125.487 E4.06936
G1 X110.072 Y124.759 E4.08429
G1 X109.977 Y124.017 E4.09922
G1 X109.958 Y123.5 E4.10955
G1 X109.958 Y111.5 E4.34902
G0 F6000 X110.358 Y111.5
G1 F1200 X110.398 Y110.775 E4.36351
G1 X110.517 Y110.058 E4.37801
G1 X110.715 Y109.359 E4.39251
G1 X110.988 Y108.686 E4.40701
G1 X111.333 Y108.047 E4.4215
G1 X111.747 Y107.45 E4.436
G1 X112.223 Y106.902 E4.45048
G1 X112.757 Y106.409 E4.46499
G1 X113.342 Y105.979 E4.47947
G1 X113.971 Y105.615 E4.49398
G1 X114.636 Y105.322 E4.50848
G1 X115.329 Y105.104 E4.52298
G1 X116.041 Y104.964 E4.53746
G1 X116.958 Y104.9 E4.5558
G1 X118.042 Y104.9 E4.57743
G1 X118.767 Y104.94 E4.59192
G1 X119.484 Y105.059 E4.60643
G1 X120.183 Y105.257 E4.62093
G1 X120.856 Y105.53 E4.63542
G1 X121.495 Y105.875 E4.64991
G1 X122.092 Y106.289 E4.66441
G1 X122.64 Y106.765 E4.6789
G1 X123.133 Y107.299 E4.6934
G1 X123.563 Y107.884 E4.70789
G1 X123.927 Y108.513 E4.72239
G1 X124.22 Y109.178 E4.73689
G1 X124.438 Y109.871 E4.75139
G1 X124.578 Y110.583 E4.76587
G1 X124.642 Y111.5 E4.78421
G1 X124.642 Y123.5 E5.02369
G1 X124.602 Y124.225 E5.03818
G1 X124.483 Y124.942 E5.05268
G1 X124.285 Y125.641 E5.06718
G1 X124.012 Y126.314 E5.08167
G1 X123.667 Y126.953 E5.09617
G1 X123.253 Y127.55 E5.11066
G1 X122.777 Y128.098 E5.12515
G1 X122.243 Y128.591 E5.13965
G1 X121.658 Y129.021 E5.15414
G1 X121.029 Y129.385 E5.16864
G1 X120.364 Y129.678 E5.18315
G1 X119.671 Y129.896 E5.19764
G1 X118.959 Y130.036 E5.21212
G1 X118.042 Y130.1 E5.23047
G1 X116.958 Y130.1 E5.2521
G1 X116.233 Y130.06 E5.26659
G1 X115.516 Y129.941 E5.2811
G1 X114.817 Y129.743 E5.29559
G1 X114.144 Y129.47 E5.31009
G1 X113.505 Y129.125 E5.32458
G1 X112.908 Y128.711 E5.33908
G1 X112.36 Y128.235 E5.35356
G1 X111.867 Y127.701 E5.36807
G1 X111.437 Y127.116 E5.38255
G1 X111.073 Y126.487 E5.39706
G1 X110.78 Y125.822 E5.41156
G1 X110.562 Y125.129 E5.42606
G1 X110.422 Y124.417 E5.44054
G1 X110.358 Y123.5 E5.45888
G1 X110.358 Y111.5 E5.69835
G0 F6000 X110.758 Y111.5
G1 F1200 X110.798 Y110.797 E5.71241
G1 X110.917 Y110.103 E5.72646
G1 X111.115 Y109.428 E5.7405
G1 X111.387 Y108.779 E5.75454
G1 X111.732 Y108.165 E5.76859
G1 X112.143 Y107.594 E5.78263
G1 X112.617 Y107.073 E5.79669
G1 X113.147 Y106.609 E5.81075
G1 X113.726 Y106.209 E5.82479
G1 X114.347 Y105.877 E5.83884
G1 X115.001 Y105.617 E5.85289
G1 X115.681 Y105.433 E5.86695
G1 X116.377 Y105.327 E5.881
G1 X116.958 Y105.3 E5.8926
G1 X118.042 Y105.3 E5.91424
G1 X118.745 Y105.34 E5.92829
G1 X119.439 Y105.459 E5.94234
G1 X120.114 Y105.657 E5.95638
G1 X120.763 Y105.929 E5.97042
G1 X121.377 Y106.274 E5.98447
G1 X121.948 Y106.685 E5.99851
G1 X122.469 Y107.159 E6.01257
G1 X122.933 Y107.689 E6.02663
G1 X123.333 Y108.268 E6.04067
G1 X123.665 Y108.889 E6.05472
G1 X123.925 Y109.543 E6.06877
G1 X124.109 Y110.223 E6.08283
G1 X124.215 Y110.919 E6.09688
G1 X124.242 Y111.5 E6.10848
G1 X124.242 Y123.5 E6.34796
G1 X124.202 Y124.203 E6.36201
G1 X124.083 Y124.897 E6.37606
G1 X123.885 Y125.572 E6.3901
G1 X123.613 Y126.221 E6.40414
G1 X123.268 Y126.835 E6.4182
G1 X122.857 Y127.406 E6.43224
G1 X122.383 Y127.927 E6.44629
G1 X121.853 Y128.391 E6.46035
G1 X121.274 Y128.791 E6.47439
G1 X120.653 Y129.123 E6.48845
G1 X119.999 Y129.383 E6.50249
G1 X119.319 Y129.567 E6.51655
G1 X118.623 Y129.673 E6.5306
G1 X118.042 Y129.7 E6.54221
G1 X116.958 Y129.7 E6.56384
G1 X116.255 Y129.66 E6.57789
G1 X115.561 Y129.541 E6.59194
G1 X114.886 Y129.343 E6.60598
G1 X114.237 Y129.071 E6.62002
G1 X113.623 Y128.726 E6.63408
G1 X113.052 Y128.315 E6.64812
G1 X112.531 Y127.841 E6.66217
G1 X112.067 Y127.311 E6.67623
G1 X111.667 Y126.732 E6.69027
G1 X111.335 Y126.111 E6.70433
G1 X111.075 Y125.457 E6.71837
G1 X110.891 Y124.777 E6.73243
G1 X110.785 Y124.081 E6.74648
G1 X110.758 Y123.5 E6.75809
G1 X110.758 Y111.5 E6.99756
G0 F6000 X111.158 Y111.5
G1 F1200 X111.198 Y110.82 E7.01115
G1 X111.317 Y110.15 E7.02473
G1 X111.514 Y109.498 E7.03832
G1 X111.786 Y108.874 E7.05191
G1 X112.13 Y108.286 E7.0655
G1 X112.54 Y107.742 E7.0791
G1 X113.011 Y107.251 E7.09268
G1 X113.536 Y106.817 E7.10627
G1 X114.108 Y106.448 E7.11985
G1 X114.72 Y106.149 E7.13345
G1 X115.362 Y105.924 E7.14702
G1 X116.027 Y105.775 E7.16062
G1 X116.958 Y105.7 E7.17926
G1 X118.042 Y105.7 E7.20089
G1 X118.722 Y105.74 E7.21449
G1 X119.392 Y105.859 E7.22807
G1 X120.044 Y106.056 E7.24166
G1 X120.668 Y106.328 E7.25524
G1 X121.256 Y106.672 E7.26884
G1 X121.8 Y107.082 E7.28243
G1 X122.291 Y107.553 E7.29601
G1 X122.725 Y108.078 E7.3096
G1 X123.094 Y108.65 E7.32319
G1 X123.393 Y109.262 E7.33678
G1 X123.618 Y109.904 E7.35036
G1 X123.767 Y110.569 E7.36396
G1 X123.842 Y111.5 E7.3826
G1 X123.842 Y123.5 E7.62207
G1 X123.802 Y124.18 E7.63566
G1 X123.683 Y124.85 E7.64924
G1 X123.486 Y125.502 E7.66283
G1 X123.214 Y126.126 E7.67642
G1 X122.87 Y126.714 E7.69001
G1 X122.46 Y127.258 E7.70361
G1 X121.989 Y127.749 E7.71718
G1 X121.464 Y128.183 E7.73078
G1 X120.892 Y128.552 E7.74436
G1 X120.28 Y128.851 E7.75795
G1 X119.638 Y129.076 E7.77153
G1 X118.973 Y129.225 E7.78513
G1 X118.042 Y129.3 E7.80377
G1 X116.958 Y129.3 E7.8254
G1 X116.278 Y129.26 E7.839
G1 X115.608 Y129.141 E7.85258
G1 X114.956 Y128.944 E7.86617
G1 X114.332 Y128.672 E7.87975
G1 X113.744 Y128.328 E7.89335
G1 X113.2 Y127.918 E7.90694
G1 X112.709 Y127.447 E7.92052
G1 X112.275 Y126.922 E7.93411
G1 X111.906 Y126.35 E7.9477
G1 X111.607 Y125.738 E7.96129
G1 X111.382 Y125.096 E7.97486
G1 X111.233 Y124.431 E7.98846
G1 X111.158 Y123.5 E8.0071
G1 X111.158 Y111.5 E8.24658
G0 F6000 X111.558 Y111.5
G1 F1200 X111.598 Y110.844 E8.25969
G1 X111.717 Y110.198 E8.2728
G1 X111.914 Y109.571 E8.28592
G1 X112.186 Y108.973 E8.29903
G1 X112.528 Y108.412 E8.31214
G1 X112.936 Y107.897 E8.32525
G1 X113.403 Y107.435 E8.33836
G1 X113.923 Y107.034 E8.35146
G1 X114.487 Y106.698 E8.36456
G1 X115.089 Y106.434 E8.37768
G1 X115.718 Y106.244 E8.3908
G1 X116.365 Y106.133 E8.4039
G1 X116.958 Y106.1 E8.41575
G1 X118.042 Y106.1 E8.43738
G1 X118.698 Y106.14 E8.4505
G1 X119.344 Y106.259 E8.4636
G1 X119.971 Y106.456 E8.47672
G1 X120.569 Y106.728 E8.48983
G1 X121.13 Y107.07 E8.50294
G1 X121.645 Y107.478 E8.51605
G1 X122.107 Y107.945 E8.52916
G1 X122.508 Y108.465 E8.54227
G1 X122.844 Y109.029 E8.55537
G1 X123.108 Y109.631 E8.56849
G1 X123.298 Y110.26 E8.5816
G1 X123.409 Y110.907 E8.5947
G1 X123.442 Y111.5 E8.60655
G1 X123.442 Y123.5 E8.84602
G1 X123.402 Y124.156 E8.85914
G1 X123.283 Y124.802 E8.87225
G1 X123.086 Y125.429 E8.88536
G1 X122.814 Y126.027 E8.89847
G1 X122.472 Y126.588 E8.91159
G1 X122.064 Y127.103 E8.9247
G1 X121.597 Y127.565 E8.93781
G1 X121.077 Y127.966 E8.95091
G1 X120.513 Y128.302 E8.96401
G1 X119.911 Y128.566 E8.97713
G1 X119.282 Y128.756 E8.99024
G1 X118.635 Y128.867 E9.00334
G1 X118.042 Y128.9 E9.0152
G1 X116.958 Y128.9 E9.03683
G1 X116.302 Y128.86 E9.04994
G1 X115.656 Y128.741 E9.06305
G1 X115.029 Y128.544 E9.07617
G1 X114.431 Y128.272 E9.08928
G1 X113.87 Y127.93 E9.10239
G1 X113.355 Y127.522 E9.1155
G1 X112.893 Y127.055 E9.12861
G1 X112.492 Y126.535 E9.14171
G1 X112.156 Y125.971 E9.15482
G1 X111.892 Y125.369 E9.16793
G1 X111.702 Y124.74 E9.18105
G1 X111.591 Y124.093 E9.19415
G1 X111.558 Y123.5 E9.206
G1 X111.558 Y111.5 E9.44547
G0 F6000 X111.958 Y111.5
G1 F1200 X111.998 Y110.869 E9.45809
G1 X112.117 Y110.248 E9.47071
G1 X112.314 Y109.648 E9.48331
G1 X112.585 Y109.076 E9.49594
G1 X112.925 Y108.544 E9.50854
G1 X113.331 Y108.059 E9.52116
G1 X113.794 Y107.629 E9.53377
G1 X114.308 Y107.26 E9.5464
G1 X114.864 Y106.96 E9.55901
G1 X115.453 Y106.732 E9.57161
G1 X116.067 Y106.58 E9.58423
G1 X116.958 Y106.5 E9.60209
G1 X118.042 Y106.5 E9.62372
G1 X118.673 Y106.54 E9.63634
G1 X119.294 Y106.659 E9.64896
G1 X119.894 Y106.856 E9.66156
G1 X120.466 Y107.127 E9.67419
G1 X120.998 Y107.467 E9.68679
G1 X121.483 Y107.873 E9.69941
G1 X121.913 Y108.336 E9.71202
G1 X122.282 Y108.85 E9.72465
G1 X122.582 Y109.406 E9.73726
G1 X122.81 Y109.995 E9.74986
G1 X122.962 Y110.609 E9.76248
G1 X123.042 Y111.5 E9.78033
G1 X123.042 Y123.5 E10.01981
G1 X123.002 Y124.131 E10.03243
G1 X122.883 Y124.752 E10.04504
G1 X122.686 Y125.352 E10.05765
G1 X122.415 Y125.924 E10.07028
G1 X122.075 Y126.456 E10.08288
G1 X121.669 Y126.941 E10.0955
G1 X121.206 Y127.371 E10.10811
G1 X120.692 Y127.74 E10.12074
G1 X120.136 Y128.04 E10.13334
G1 X119.547 Y128.268 E10.14595
G1 X118.933 Y128.42 E10.15857
G1 X118.042 Y128.5 E10.17642
G1 X116.958 Y128.5 E10.19806
G1 X116.327 Y128.46 E10.21067
G1 X115.706 Y128.341 E10.22329
G1 X115.106 Y128.144 E10.23589
G1 X114.534 Y127.873 E10.24852
G1 X114.002 Y127.533 E10.26112
G1 X113.517 Y127.127 E10.27375
G1 X113.087 Y126.664 E10.28636
G1 X112.718 Y126.15 E10.29898
G1 X112.418 Y125.594 E10.31159
G1 X112.19 Y125.005 E10.3242
G1 X112.038 Y124.391 E10.33682
G1 X111.958 Y123.5 E10.35467
G1 X111.958 Y111.5 E10.59414
G0 F6000 X112.358 Y111.5
G1 F1200 X112.398 Y110.895 E10.60624
G1 X112.517 Y110.301 E10.61833
G1 X112.713 Y109.727 E10.63044
G1 X112.984 Y109.184 E10.64255
G1 X113.323 Y108.681 E10.65465
G1 X113.725 Y108.228 E10.66674
G1 X114.183 Y107.831 E10.67883
G1 X114.69 Y107.498 E10.69094
G1 X115.236 Y107.234 E10.70304
G1 X115.812 Y107.045 E10.71514
G1 X116.408 Y106.933 E10.72724
G1 X116.958 Y106.9 E10.73824
G1 X118.042 Y106.9 E10.75987
G1 X118.647 Y106.94 E10.77197
G1 X119.241 Y107.059 E10.78406
G1 X119.815 Y107.255 E10.79616
G1 X120.358 Y107.526 E10.80827
G1 X120.861 Y107.865 E10.82038
G1 X121.314 Y108.267 E10.83247
G1 X121.711 Y108.725 E10.84456
G1 X122.044 Y109.232 E10.85667
G1 X122.308 Y109.778 E10.86877
