;FLAVOR:Marlin
;TIME:2244
;Filament used: 0.462516m
;Layer height: 0.12
;MINX:22.059
;MINY:19.231
;MINZ:0.12
;MAXX:217.414
;MAXY:201.009
;MAXZ:9.9
;Generated with Cura_SteamEngine 5.0.0
M140 S70
M105
M190 S70
M104 S200
M105
M109 S200
M82 ;absolute extrusion mode
; Ender 3 Custom Start G-code
G92 E0 ; Reset Extruder
G28 ; Home all axes
; G29  bl touch
G1 Z2.0 F3000 ; Move Z Axis up little to prevent scratching of Heat Bed
G1 X0.1 Y20 Z0.3 F5000.0 ; Move to start position
G1 X0.1 Y200.0 Z0.3 F1500.0 E15 ; Draw the first line
G1 X0.4 Y200.0 Z0.3 F5000.0 ; Move to side a little
G1 X0.4 Y20 Z0.3 F1500.0 E30 ; Draw the second line
G92 E0 ; Reset Extruder
G1 Z2.0 F3000 ; Move Z Axis up little to prevent scratching of Heat Bed
G1 X5 Y20 Z0.3 F5000.0 ; Move over to prevent blob squish
G92 E0
G92 E0
G1 F1800 E-0.5
;LAYER_COUNT:40
;LAYER:0
M107
G0 F6000 X33.504 Y34.392 Z0.12
G0 X31.081 Y40.043
;TYPE:SKIRT
G1 F1800 E0
G1 F1200 X31.121 Y39.254 E0.01577
G1 X31.24 Y38.474 E0.03151
G1 X31.438 Y37.709 E0.04728
G1 X31.712 Y36.969 E0.06303
G1 X32.06 Y36.26 E0.07879
G1 X32.478 Y35.589 E0.09457
G1 X32.961 Y34.965 E0.11031
G1 X33.504 Y34.392 E0.12607
G1 X34.103 Y33.877 E0.14183
G1 X34.751 Y33.426 E0.15759
G1 X35.442 Y33.042 E0.17336
G1 X36.167 Y32.73 E0.18911
G1 X36.92 Y32.493 E0.20487
G1 X37.694 Y32.334 E0.22064
G1 X38.479 Y32.253 E0.23638
G1 X38.881 Y32.243 E0.24441
G1 X39.937 Y32.243 E0.26548
G1 X40.726 Y32.283 E0.28125
G1 X41.506 Y32.402 E0.29699
G1 X42.271 Y32.6 E0.31276
G1 X43.011 Y32.874 E0.32851
G1 X43.72 Y33.222 E0.34427
G1 X44.391 Y33.64 E0.36005
G1 X45.015 Y34.123 E0.3758
G1 X45.588 Y34.666 E0.39155
G1 X46.103 Y35.265 E0.40731
G1 X46.554 Y35.913 E0.42307
G1 X46.938 Y36.604 E0.43884
G1 X47.25 Y37.329 E0.4546
G1 X47.487 Y38.082 E0.47035
G1 X47.646 Y38.856 E0.48612
G1 X47.727 Y39.641 E0.50187
G1 X47.737 Y40.043 E0.50989
G1 X47.737 Y52.043 E0.74936
G1 X47.697 Y52.832 E0.76513
G1 X47.578 Y53.612 E0.78088
G1 X47.38 Y54.377 E0.79665
G1 X47.106 Y55.117 E0.81239
G1 X46.758 Y55.826 E0.82815
G1 X46.34 Y56.497 E0.84393
G1 X45.857 Y57.121 E0.85968
G1 X45.314 Y57.694 E0.87543
G1 X44.715 Y58.209 E0.8912
G1 X44.067 Y58.66 E0.90695
G1 X43.376 Y59.044 E0.92273
G1 X42.651 Y59.356 E0.93848
G1 X41.898 Y59.593 E0.95423
G1 X41.124 Y59.752 E0.97
G1 X40.339 Y59.833 E0.98575
G1 X39.937 Y59.843 E0.99377
G1 X38.881 Y59.843 E1.01485
G1 X38.092 Y59.803 E1.03061
G1 X37.312 Y59.684 E1.04636
G1 X36.547 Y59.486 E1.06213
G1 X35.807 Y59.212 E1.07787
G1 X35.098 Y58.864 E1.09364
G1 X34.427 Y58.446 E1.10941
G1 X33.803 Y57.963 E1.12516
G1 X33.23 Y57.42 E1.14091
G1 X32.715 Y56.821 E1.15668
G1 X32.264 Y56.173 E1.17243
G1 X31.88 Y55.482 E1.18821
G1 X31.568 Y54.757 E1.20396
G1 X31.331 Y54.004 E1.21971
G1 X31.172 Y53.23 E1.23548
G1 X31.091 Y52.445 E1.25123
G1 X31.081 Y52.043 E1.25926
G1 X31.081 Y40.043 E1.49873
G0 F6000 X31.481 Y40.043
G1 F1200 X31.521 Y39.275 E1.51408
G1 X31.64 Y38.515 E1.52943
G1 X31.838 Y37.772 E1.54477
G1 X32.112 Y37.053 E1.56013
G1 X32.459 Y36.367 E1.57547
G1 X32.875 Y35.72 E1.59082
G1 X33.356 Y35.12 E1.60616
G1 X33.897 Y34.573 E1.62152
G1 X34.492 Y34.085 E1.63687
G1 X35.134 Y33.662 E1.65222
G1 X35.817 Y33.307 E1.66758
G1 X36.532 Y33.026 E1.68291
G1 X37.274 Y32.82 E1.69828
G1 X38.032 Y32.692 E1.71362
G1 X38.881 Y32.643 E1.73059
G1 X39.937 Y32.643 E1.75166
G1 X40.705 Y32.683 E1.76701
G1 X41.465 Y32.802 E1.78236
G1 X42.208 Y33 E1.79771
G1 X42.927 Y33.274 E1.81306
G1 X43.613 Y33.621 E1.8284
G1 X44.26 Y34.037 E1.84375
G1 X44.86 Y34.518 E1.8591
G1 X45.407 Y35.059 E1.87445
G1 X45.895 Y35.654 E1.88981
G1 X46.318 Y36.296 E1.90515
G1 X46.673 Y36.979 E1.92051
G1 X46.954 Y37.694 E1.93584
G1 X47.16 Y38.436 E1.95121
G1 X47.288 Y39.194 E1.96655
G1 X47.337 Y40.043 E1.98352
G1 X47.337 Y52.043 E2.223
G1 X47.297 Y52.811 E2.23834
G1 X47.178 Y53.571 E2.25369
G1 X46.98 Y54.314 E2.26904
G1 X46.706 Y55.033 E2.28439
G1 X46.359 Y55.719 E2.29974
G1 X45.943 Y56.366 E2.31509
G1 X45.462 Y56.966 E2.33043
G1 X44.921 Y57.513 E2.34578
G1 X44.326 Y58.001 E2.36114
G1 X43.684 Y58.424 E2.37648
G1 X43.001 Y58.779 E2.39185
G1 X42.286 Y59.06 E2.40718
G1 X41.544 Y59.266 E2.42254
G1 X40.786 Y59.394 E2.43788
G1 X39.937 Y59.443 E2.45486
G1 X38.881 Y59.443 E2.47593
G1 X38.113 Y59.403 E2.49128
G1 X37.353 Y59.284 E2.50663
G1 X36.61 Y59.086 E2.52197
G1 X35.891 Y58.812 E2.53733
G1 X35.205 Y58.465 E2.55267
G1 X34.558 Y58.049 E2.56802
G1 X33.958 Y57.568 E2.58337
G1 X33.411 Y57.027 E2.59872
G1 X32.923 Y56.432 E2.61408
G1 X32.5 Y55.79 E2.62942
G1 X32.145 Y55.107 E2.64478
G1 X31.864 Y54.392 E2.66011
G1 X31.658 Y53.65 E2.67548
G1 X31.53 Y52.892 E2.69082
G1 X31.481 Y52.043 E2.70779
G1 X31.481 Y40.043 E2.94726
G0 F6000 X31.881 Y40.043
G1 F1200 X31.921 Y39.296 E2.96219
G1 X32.04 Y38.558 E2.97711
G1 X32.238 Y37.836 E2.99205
G1 X32.511 Y37.14 E3.00697
G1 X32.858 Y36.477 E3.0219
G1 X33.273 Y35.854 E3.03684
G1 X33.752 Y35.28 E3.05176
G1 X34.289 Y34.759 E3.06669
G1 X34.879 Y34.3 E3.08161
G1 X35.515 Y33.905 E3.09655
G1 X36.189 Y33.581 E3.11147
G1 X36.894 Y33.331 E3.1264
G1 X37.622 Y33.157 E3.14134
G1 X38.364 Y33.062 E3.15627
G1 X38.881 Y33.043 E3.16659
G1 X39.937 Y33.043 E3.18766
G1 X40.684 Y33.083 E3.20259
G1 X41.422 Y33.202 E3.21751
G1 X42.144 Y33.4 E3.23245
G1 X42.84 Y33.673 E3.24737
G1 X43.503 Y34.02 E3.2623
G1 X44.126 Y34.435 E3.27724
G1 X44.7 Y34.914 E3.29216
G1 X45.221 Y35.451 E3.30709
G1 X45.68 Y36.041 E3.32201
G1 X46.075 Y36.677 E3.33695
G1 X46.399 Y37.351 E3.35187
G1 X46.649 Y38.056 E3.3668
G1 X46.823 Y38.784 E3.38174
G1 X46.918 Y39.526 E3.39667
G1 X46.937 Y40.043 E3.40699
G1 X46.937 Y52.043 E3.64647
G1 X46.897 Y52.79 E3.66139
G1 X46.778 Y53.528 E3.67631
G1 X46.58 Y54.25 E3.69125
G1 X46.307 Y54.946 E3.70617
G1 X45.96 Y55.609 E3.7211
G1 X45.545 Y56.232 E3.73604
G1 X45.066 Y56.806 E3.75096
G1 X44.529 Y57.327 E3.76589
G1 X43.939 Y57.786 E3.78081
G1 X43.303 Y58.181 E3.79575
G1 X42.629 Y58.505 E3.81068
G1 X41.924 Y58.755 E3.8256
G1 X41.196 Y58.929 E3.84054
G1 X40.454 Y59.024 E3.85547
G1 X39.937 Y59.043 E3.86579
G1 X38.881 Y59.043 E3.88687
G1 X38.134 Y59.003 E3.9018
G1 X37.396 Y58.884 E3.91671
G1 X36.674 Y58.686 E3.93165
G1 X35.978 Y58.413 E3.94657
G1 X35.315 Y58.066 E3.96151
G1 X34.692 Y57.651 E3.97645
G1 X34.118 Y57.172 E3.99136
G1 X33.597 Y56.635 E4.0063
G1 X33.138 Y56.045 E4.02121
G1 X32.743 Y55.409 E4.03615
G1 X32.419 Y54.735 E4.05108
G1 X32.169 Y54.03 E4.06601
G1 X31.995 Y53.302 E4.08094
G1 X31.9 Y52.56 E4.09587
G1 X31.881 Y52.043 E4.10619
G1 X31.881 Y40.043 E4.34567
G0 F6000 X32.281 Y40.043
G1 F1200 X32.321 Y39.318 E4.36016
G1 X32.44 Y38.601 E4.37466
G1 X32.638 Y37.902 E4.38916
G1 X32.911 Y37.229 E4.40365
G1 X33.256 Y36.59 E4.41815
G1 X33.67 Y35.993 E4.43264
G1 X34.146 Y35.445 E4.44713
G1 X34.68 Y34.952 E4.46163
G1 X35.265 Y34.522 E4.47612
G1 X35.894 Y34.158 E4.49062
G1 X36.559 Y33.865 E4.50513
G1 X37.252 Y33.647 E4.51962
G1 X37.964 Y33.507 E4.5341
G1 X38.881 Y33.443 E4.55245
G1 X39.937 Y33.443 E4.57352
G1 X40.662 Y33.483 E4.58801
G1 X41.379 Y33.602 E4.60252
G1 X42.078 Y33.8 E4.61701
G1 X42.751 Y34.073 E4.63151
G1 X43.39 Y34.418 E4.646
G1 X43.987 Y34.832 E4.6605
G1 X44.535 Y35.308 E4.67498
G1 X45.028 Y35.842 E4.68949
G1 X45.458 Y36.427 E4.70398
G1 X45.822 Y37.056 E4.71848
G1 X46.115 Y37.721 E4.73298
G1 X46.333 Y38.414 E4.74748
G1 X46.473 Y39.126 E4.76196
G1 X46.537 Y40.043 E4.7803
G1 X46.537 Y52.043 E5.01978
G1 X46.497 Y52.768 E5.03427
G1 X46.378 Y53.485 E5.04877
G1 X46.18 Y54.184 E5.06327
G1 X45.907 Y54.857 E5.07776
G1 X45.562 Y55.496 E5.09225
G1 X45.148 Y56.093 E5.10675
G1 X44.672 Y56.641 E5.12124
G1 X44.138 Y57.134 E5.13574
G1 X43.553 Y57.564 E5.15023
G1 X42.924 Y57.928 E5.16473
G1 X42.259 Y58.221 E5.17923
G1 X41.566 Y58.439 E5.19373
G1 X40.854 Y58.579 E5.20821
G1 X39.937 Y58.643 E5.22656
G1 X38.881 Y58.643 E5.24763
G1 X38.156 Y58.603 E5.26212
G1 X37.439 Y58.484 E5.27663
G1 X36.74 Y58.286 E5.29112
G1 X36.067 Y58.013 E5.30562
G1 X35.428 Y57.668 E5.32011
G1 X34.831 Y57.254 E5.33461
G1 X34.283 Y56.778 E5.34909
G1 X33.79 Y56.244 E5.3636
G1 X33.36 Y55.659 E5.37808
G1 X32.996 Y55.03 E5.39259
G1 X32.703 Y54.365 E5.40709
G1 X32.485 Y53.672 E5.42159
G1 X32.345 Y52.96 E5.43607
G1 X32.281 Y52.043 E5.45441
G1 X32.281 Y40.043 E5.69388
G0 F6000 X32.681 Y40.043
G1 F1200 X32.721 Y39.34 E5.70794
G1 X32.84 Y38.646 E5.72199
G1 X33.038 Y37.971 E5.73603
G1 X33.31 Y37.322 E5.75007
G1 X33.655 Y36.708 E5.76412
G1 X34.066 Y36.137 E5.77816
G1 X34.54 Y35.616 E5.79222
G1 X35.07 Y35.152 E5.80628
G1 X35.649 Y34.752 E5.82032
G1 X36.27 Y34.42 E5.83437
G1 X36.924 Y34.16 E5.84842
G1 X37.604 Y33.976 E5.86248
G1 X38.3 Y33.87 E5.87653
G1 X38.881 Y33.843 E5.88813
G1 X39.937 Y33.843 E5.90921
G1 X40.64 Y33.883 E5.92326
G1 X41.334 Y34.002 E5.93731
G1 X42.009 Y34.2 E5.95135
G1 X42.658 Y34.472 E5.96539
G1 X43.272 Y34.817 E5.97945
G1 X43.843 Y35.228 E5.99349
G1 X44.364 Y35.702 E6.00754
G1 X44.828 Y36.232 E6.0216
G1 X45.228 Y36.811 E6.03564
G1 X45.56 Y37.432 E6.0497
G1 X45.82 Y38.086 E6.06374
G1 X46.004 Y38.766 E6.0778
G1 X46.11 Y39.462 E6.09185
G1 X46.137 Y40.043 E6.10346
G1 X46.137 Y52.043 E6.34293
G1 X46.097 Y52.746 E6.35698
G1 X45.978 Y53.44 E6.37103
G1 X45.78 Y54.115 E6.38507
G1 X45.508 Y54.764 E6.39911
G1 X45.163 Y55.378 E6.41317
G1 X44.752 Y55.949 E6.42721
G1 X44.278 Y56.47 E6.44126
G1 X43.748 Y56.934 E6.45532
G1 X43.169 Y57.334 E6.46936
G1 X42.548 Y57.666 E6.48342
G1 X41.894 Y57.926 E6.49746
G1 X41.214 Y58.11 E6.51152
G1 X40.518 Y58.216 E6.52557
G1 X39.937 Y58.243 E6.53718
G1 X38.881 Y58.243 E6.55825
G1 X38.178 Y58.203 E6.5723
G1 X37.484 Y58.084 E6.58635
G1 X36.809 Y57.886 E6.60039
G1 X36.16 Y57.614 E6.61443
G1 X35.546 Y57.269 E6.62849
G1 X34.975 Y56.858 E6.64253
G1 X34.454 Y56.384 E6.65659
G1 X33.99 Y55.854 E6.67064
G1 X33.59 Y55.275 E6.68469
G1 X33.258 Y54.654 E6.69874
G1 X32.998 Y54 E6.71278
G1 X32.814 Y53.32 E6.72684
G1 X32.708 Y52.624 E6.74089
G1 X32.681 Y52.043 E6.7525
G1 X32.681 Y40.043 E6.99197
G0 F6000 X33.081 Y40.043
G1 F1200 X33.121 Y39.363 E7.00557
G1 X33.24 Y38.693 E7.01914
G1 X33.437 Y38.041 E7.03274
G1 X33.709 Y37.417 E7.04632
G1 X34.053 Y36.829 E7.05992
G1 X34.463 Y36.285 E7.07351
G1 X34.934 Y35.794 E7.08709
G1 X35.459 Y35.36 E7.10068
G1 X36.031 Y34.991 E7.11427
G1 X36.643 Y34.692 E7.12786
G1 X37.285 Y34.467 E7.14143
G1 X37.95 Y34.318 E7.15503
G1 X38.881 Y34.243 E7.17367
G1 X39.937 Y34.243 E7.19475
G1 X40.617 Y34.283 E7.20834
G1 X41.287 Y34.402 E7.22192
G1 X41.939 Y34.599 E7.23551
G1 X42.563 Y34.871 E7.2491
G1 X43.151 Y35.215 E7.26269
G1 X43.695 Y35.625 E7.27629
G1 X44.186 Y36.096 E7.28986
G1 X44.62 Y36.621 E7.30346
G1 X44.989 Y37.193 E7.31704
G1 X45.288 Y37.805 E7.33063
G1 X45.513 Y38.447 E7.34421
G1 X45.662 Y39.112 E7.35781
G1 X45.737 Y40.043 E7.37645
G1 X45.737 Y52.043 E7.61592
G1 X45.697 Y52.723 E7.62952
G1 X45.578 Y53.393 E7.64309
G1 X45.381 Y54.045 E7.65669
G1 X45.109 Y54.669 E7.67027
G1 X44.765 Y55.257 E7.68387
G1 X44.355 Y55.801 E7.69746
G1 X43.884 Y56.292 E7.71104
G1 X43.359 Y56.726 E7.72463
G1 X42.787 Y57.095 E7.73822
G1 X42.175 Y57.394 E7.75181
G1 X41.533 Y57.619 E7.76538
G1 X40.868 Y57.768 E7.77898
G1 X39.937 Y57.843 E7.79762
G1 X38.881 Y57.843 E7.8187
G1 X38.201 Y57.803 E7.83229
G1 X37.531 Y57.684 E7.84587
G1 X36.879 Y57.487 E7.85946
G1 X36.255 Y57.215 E7.87305
G1 X35.667 Y56.871 E7.88664
G1 X35.123 Y56.461 E7.90024
G1 X34.632 Y55.99 E7.91381
G1 X34.198 Y55.465 E7.92741
G1 X33.829 Y54.893 E7.94099
G1 X33.53 Y54.281 E7.95458
G1 X33.305 Y53.639 E7.96816
G1 X33.156 Y52.974 E7.98176
G1 X33.081 Y52.043 E8.0004
G1 X33.081 Y40.043 E8.23987
G0 F6000 X33.481 Y40.043
G1 F1200 X33.521 Y39.387 E8.25299
G1 X33.64 Y38.741 E8.2661
G1 X33.837 Y38.114 E8.27921
G1 X34.109 Y37.516 E8.29232
G1 X34.451 Y36.955 E8.30543
G1 X34.859 Y36.44 E8.31854
G1 X35.326 Y35.978 E8.33165
G1 X35.846 Y35.577 E8.34476
G1 X36.41 Y35.241 E8.35786
G1 X37.012 Y34.977 E8.37098
G1 X37.641 Y34.787 E8.38409
G1 X38.288 Y34.676 E8.39719
G1 X38.881 Y34.643 E8.40904
G1 X39.937 Y34.643 E8.43012
G1 X40.593 Y34.683 E8.44323
G1 X41.239 Y34.802 E8.45634
G1 X41.866 Y34.999 E8.46946
G1 X42.464 Y35.271 E8.48257
G1 X43.025 Y35.613 E8.49568
G1 X43.54 Y36.021 E8.50879
G1 X44.002 Y36.488 E8.5219
G1 X44.403 Y37.008 E8.535
G1 X44.739 Y37.572 E8.5481
G1 X45.003 Y38.174 E8.56122
G1 X45.193 Y38.803 E8.57433
G1 X45.304 Y39.45 E8.58744
G1 X45.337 Y40.043 E8.59929
G1 X45.337 Y52.043 E8.83876
G1 X45.297 Y52.699 E8.85188
G1 X45.178 Y53.345 E8.86498
G1 X44.981 Y53.972 E8.8781
G1 X44.709 Y54.57 E8.89121
G1 X44.367 Y55.131 E8.90432
G1 X43.959 Y55.646 E8.91743
G1 X43.492 Y56.108 E8.93054
G1 X42.972 Y56.509 E8.94365
G1 X42.408 Y56.845 E8.95675
G1 X41.806 Y57.109 E8.96987
G1 X41.177 Y57.299 E8.98298
G1 X40.53 Y57.41 E8.99608
G1 X39.937 Y57.443 E9.00793
G1 X38.881 Y57.443 E9.02901
G1 X38.225 Y57.403 E9.04212
G1 X37.579 Y57.284 E9.05523
G1 X36.952 Y57.087 E9.06834
G1 X36.354 Y56.815 E9.08145
G1 X35.793 Y56.473 E9.09457
G1 X35.278 Y56.065 E9.10768
G1 X34.816 Y55.598 E9.12079
G1 X34.415 Y55.078 E9.13389
G1 X34.079 Y54.514 E9.14699
G1 X33.815 Y53.912 E9.16011
G1 X33.625 Y53.283 E9.17322
G1 X33.514 Y52.636 E9.18632
G1 X33.481 Y52.043 E9.19818
G1 X33.481 Y40.043 E9.43765
G0 F6000 X33.881 Y40.043
G1 F1200 X33.921 Y39.412 E9.45027
G1 X34.04 Y38.791 E9.46289
G1 X34.237 Y38.191 E9.47549
G1 X34.508 Y37.619 E9.48812
G1 X34.848 Y37.087 E9.50072
G1 X35.254 Y36.602 E9.51334
G1 X35.717 Y36.172 E9.52595
G1 X36.231 Y35.803 E9.53858
G1 X36.787 Y35.503 E9.55119
G1 X37.376 Y35.275 E9.56379
G1 X37.99 Y35.123 E9.57641
G1 X38.881 Y35.043 E9.59426
G1 X39.937 Y35.043 E9.61534
G1 X40.568 Y35.083 E9.62796
G1 X41.189 Y35.202 E9.64057
G1 X41.789 Y35.399 E9.65318
G1 X42.361 Y35.67 E9.66581
G1 X42.893 Y36.01 E9.67841
G1 X43.378 Y36.416 E9.69103
G1 X43.808 Y36.879 E9.70364
G1 X44.177 Y37.393 E9.71627
G1 X44.477 Y37.949 E9.72887
G1 X44.705 Y38.538 E9.74148
G1 X44.857 Y39.152 E9.7541
G1 X44.937 Y40.043 E9.77195
G1 X44.937 Y52.043 E10.01143
G1 X44.897 Y52.674 E10.02404
G1 X44.778 Y53.295 E10.03666
G1 X44.581 Y53.895 E10.04926
G1 X44.31 Y54.467 E10.0619
G1 X43.97 Y54.999 E10.0745
G1 X43.564 Y55.484 E10.08712
G1 X43.101 Y55.914 E10.09973
G1 X42.587 Y56.283 E10.11235
G1 X42.031 Y56.583 E10.12496
G1 X41.442 Y56.811 E10.13757
G1 X40.828 Y56.963 E10.15019
G1 X39.937 Y57.043 E10.16804
G1 X38.881 Y57.043 E10.18912
G1 X38.25 Y57.003 E10.20173
G1 X37.629 Y56.884 E10.21435
G1 X37.029 Y56.687 E10.22695
G1 X36.457 Y56.416 E10.23958
G1 X35.925 Y56.076 E10.25218
G1 X35.44 Y55.67 E10.26481
G1 X35.01 Y55.207 E10.27742
G1 X34.641 Y54.693 E10.29004
G1 X34.341 Y54.137 E10.30265
G1 X34.113 Y53.548 E10.31526
G1 X33.961 Y52.934 E10.32788
G1 X33.881 Y52.043 E10.34573
G1 X33.881 Y40.043 E10.5852
G0 F6000 X34.281 Y40.043
G1 F1200 X34.321 Y39.438 E10.5973
G1 X34.44 Y38.844 E10.60939
G1 X34.636 Y38.27 E10.6215
G1 X34.907 Y37.727 E10.63361
G1 X35.246 Y37.224 E10.64571
G1 X35.648 Y36.771 E10.6578
G1 X36.106 Y36.374 E10.66989
G1 X36.613 Y36.041 E10.682
G1 X37.159 Y35.777 E10.6941
G1 X37.735 Y35.588 E10.7062
G1 X38.331 Y35.476 E10.7183
G1 X38.881 Y35.443 E10.7293
G1 X39.937 Y35.443 E10.75037
G1 X40.542 Y35.483 E10.76247
G1 X41.136 Y35.602 E10.77456
G1 X41.71 Y35.798 E10.78666
G1 X42.253 Y36.069 E10.79878
G1 X42.756 Y36.408 E10.81088
G1 X43.209 Y36.81 E10.82297
G1 X43.606 Y37.268 E10.83506
G1 X43.939 Y37.775 E10.84717
G1 X44.203 Y38.321 E10.85927
G1 X44.392 Y38.897 E10.87137
G1 X44.504 Y39.493 E10.88347
G1 X44.537 Y40.043 E10.89447
G1 X44.537 Y52.043 E11.13394
G1 X44.497 Y52.648 E11.14604
G1 X44.378 Y53.242 E11.15813
G1 X44.182 Y53.816 E11.17023
G1 X43.911 Y54.359 E11.18234
G1 X43.572 Y54.862 E11.19445
G1 X43.17 Y55.315 E11.20653
G1 X42.712 Y55.712 E11.21863
G1 X42.205 Y56.045 E11.23073
G1 X41.659 Y56.309 E11.24284
G1 X41.083 Y56.498 E11.25493
G1 X40.487 Y56.61 E11.26704
G1 X39.937 Y56.643 E11.27803
G1 X38.881 Y56.643 E11.29911
G1 X38.276 Y56.603 E11.31121
G1 X37.682 Y56.484 E11.3233
G1 X37.108 Y56.288 E11.3354
G1 X36.565 Y56.017 E11.34751
G1 X36.062 Y55.678 E11.35961
G1 X35.609 Y55.276 E11.3717
G1 X35.212 Y54.818 E11.3838
G1 X34.879 Y54.311 E11.3959
G1 X34.615 Y53.765 E11.408
G1 X34.426 Y53.189 E11.4201
G1 X34.314 Y52.593 E11.4322
G1 X34.281 Y52.043 E11.4432
G1 X34.281 Y40.043 E11.68267
G0 F6000 X34.681 Y40.043
