;FLAVOR:Marlin
;TIME:1293
;Filament used: 0.43847m
;Layer height: 0.12
;MINX:94.517
;MINY:105.684
;MINZ:0.12
;MAXX:140.484
;MAXY:129.316
;MAXZ:7.56
;Generated with Cura_SteamEngine 5.0.0
M140 S70
M105
M190 S70
M104 S200
M105
M109 S200
M82 ;absolute extrusion mode
; Ender 3 Custom Start G-code
G92 E0 ; Reset Extruder
G28 ; Home all axes
; G29  bl touch
G1 Z2.0 F3000 ; Move Z Axis up little to prevent scratching of Heat Bed
G1 X0.1 Y20 Z0.3 F5000.0 ; Move to start position
G1 X0.1 Y200.0 Z0.3 F1500.0 E15 ; Draw the first line
G1 X0.4 Y200.0 Z0.3 F5000.0 ; Move to side a little
G1 X0.4 Y20 Z0.3 F1500.0 E30 ; Draw the second line
G92 E0 ; Reset Extruder
G1 Z2.0 F3000 ; Move Z Axis up little to prevent scratching of Heat Bed
G1 X5 Y20 Z0.3 F5000.0 ; Move over to prevent blob squish
G92 E0
G92 E0
G1 F1800 E-0.5
;LAYER_COUNT:63
;LAYER:0
M107
G0 F6000 X96.94 Y107.833 Z0.12
G0 X94.517 Y113.484
;TYPE:SKIRT
G1 F1800 E0
G1 F1200 X94.557 Y112.695 E0.01577
G1 X94.676 Y111.915 E0.03151
G1 X94.874 Y111.15 E0.04728
G1 X95.148 Y110.41 E0.06303
G1 X95.496 Y109.701 E0.07879
G1 X95.914 Y109.03 E0.09457
G1 X96.397 Y108.406 E0.11031
G1 X96.94 Y107.833 E0.12607
G1 X97.539 Y107.318 E0.14183
G1 X98.187 Y106.867 E0.15759
G1 X98.878 Y106.483 E0.17336
G1 X99.603 Y106.171 E0.18911
G1 X100.356 Y105.934 E0.20487
G1 X101.13 Y105.775 E0.22064
G1 X101.915 Y105.694 E0.23638
G1 X102.317 Y105.684 E0.24441
G1 X132.684 Y105.684 E0.85042
G1 X133.473 Y105.724 E0.86618
G1 X134.253 Y105.843 E0.88193
G1 X135.018 Y106.041 E0.8977
G1 X135.758 Y106.315 E0.91344
G1 X136.467 Y106.663 E0.9292
G1 X137.138 Y107.081 E0.94498
G1 X137.762 Y107.564 E0.96073
G1 X138.335 Y108.107 E0.97648
G1 X138.85 Y108.706 E0.99225
G1 X139.301 Y109.354 E1.008
G1 X139.685 Y110.045 E1.02378
G1 X139.997 Y110.77 E1.03953
G1 X140.234 Y111.523 E1.05528
G1 X140.393 Y112.297 E1.07105
G1 X140.474 Y113.082 E1.0868
G1 X140.484 Y113.484 E1.09482
G1 X140.484 Y121.516 E1.25511
G1 X140.444 Y122.305 E1.27088
G1 X140.325 Y123.085 E1.28662
G1 X140.127 Y123.85 E1.30239
G1 X139.853 Y124.59 E1.31814
G1 X139.505 Y125.299 E1.3339
G1 X139.087 Y125.97 E1.34968
G1 X138.604 Y126.594 E1.36542
G1 X138.061 Y127.167 E1.38118
G1 X137.462 Y127.682 E1.39694
G1 X136.814 Y128.133 E1.4127
G1 X136.123 Y128.517 E1.42847
G1 X135.398 Y128.829 E1.44422
G1 X134.645 Y129.066 E1.45998
G1 X133.871 Y129.225 E1.47575
G1 X133.086 Y129.306 E1.4915
G1 X132.684 Y129.316 E1.49952
G1 X102.317 Y129.316 E2.10553
G1 X101.528 Y129.276 E2.12129
G1 X100.748 Y129.157 E2.13704
G1 X99.983 Y128.959 E2.15281
G1 X99.243 Y128.685 E2.16855
G1 X98.534 Y128.337 E2.18432
G1 X97.863 Y127.919 E2.20009
G1 X97.239 Y127.436 E2.21584
G1 X96.666 Y126.893 E2.23159
G1 X96.151 Y126.294 E2.24736
G1 X95.7 Y125.646 E2.26311
G1 X95.316 Y124.955 E2.27889
G1 X95.004 Y124.23 E2.29464
G1 X94.767 Y123.477 E2.31039
G1 X94.608 Y122.703 E2.32616
G1 X94.527 Y121.918 E2.34191
G1 X94.517 Y121.516 E2.34994
G1 X94.517 Y113.484 E2.51022
G0 F6000 X94.917 Y113.484
G1 F1200 X94.957 Y112.716 E2.52557
G1 X95.076 Y111.956 E2.54092
G1 X95.274 Y111.213 E2.55627
G1 X95.548 Y110.494 E2.57162
G1 X95.895 Y109.808 E2.58696
G1 X96.311 Y109.161 E2.60231
G1 X96.792 Y108.561 E2.61766
G1 X97.333 Y108.014 E2.63301
G1 X97.928 Y107.526 E2.64837
G1 X98.57 Y107.103 E2.66371
G1 X99.253 Y106.748 E2.67907
G1 X99.968 Y106.467 E2.6944
G1 X100.71 Y106.261 E2.70977
G1 X101.468 Y106.133 E2.72511
G1 X102.317 Y106.084 E2.74208
G1 X132.684 Y106.084 E3.34809
G1 X133.452 Y106.124 E3.36344
G1 X134.212 Y106.243 E3.37879
G1 X134.955 Y106.441 E3.39413
G1 X135.674 Y106.715 E3.40949
G1 X136.36 Y107.062 E3.42483
G1 X137.007 Y107.478 E3.44018
G1 X137.607 Y107.959 E3.45553
G1 X138.154 Y108.5 E3.47088
G1 X138.642 Y109.095 E3.48623
G1 X139.065 Y109.737 E3.50158
G1 X139.42 Y110.42 E3.51694
G1 X139.701 Y111.135 E3.53227
G1 X139.907 Y111.877 E3.54764
G1 X140.035 Y112.635 E3.56298
G1 X140.084 Y113.484 E3.57995
G1 X140.084 Y121.516 E3.74024
G1 X140.044 Y122.284 E3.75558
G1 X139.925 Y123.044 E3.77093
G1 X139.727 Y123.787 E3.78628
G1 X139.453 Y124.506 E3.80163
G1 X139.106 Y125.192 E3.81698
G1 X138.69 Y125.839 E3.83233
G1 X138.209 Y126.439 E3.84767
G1 X137.668 Y126.986 E3.86303
G1 X137.073 Y127.474 E3.87838
G1 X136.431 Y127.897 E3.89373
G1 X135.748 Y128.252 E3.90909
G1 X135.033 Y128.533 E3.92442
G1 X134.291 Y128.739 E3.93978
G1 X133.533 Y128.867 E3.95513
G1 X132.684 Y128.916 E3.9721
G1 X102.317 Y128.916 E4.5781
G1 X101.549 Y128.876 E4.59345
G1 X100.789 Y128.757 E4.6088
G1 X100.046 Y128.559 E4.62415
G1 X99.327 Y128.285 E4.6395
G1 X98.641 Y127.938 E4.65484
G1 X97.994 Y127.522 E4.67019
G1 X97.394 Y127.041 E4.68554
G1 X96.847 Y126.5 E4.70089
G1 X96.359 Y125.905 E4.71625
G1 X95.936 Y125.263 E4.73159
G1 X95.581 Y124.58 E4.74695
G1 X95.3 Y123.865 E4.76228
G1 X95.094 Y123.123 E4.77765
G1 X94.966 Y122.365 E4.79299
G1 X94.917 Y121.516 E4.80996
G1 X94.917 Y113.484 E4.97025
G0 F6000 X95.317 Y113.484
G1 F1200 X95.357 Y112.737 E4.98518
G1 X95.476 Y111.999 E5.0001
G1 X95.674 Y111.277 E5.01504
G1 X95.947 Y110.581 E5.02996
G1 X96.294 Y109.918 E5.04489
G1 X96.709 Y109.295 E5.05983
G1 X97.188 Y108.721 E5.07475
G1 X97.725 Y108.2 E5.08968
G1 X98.315 Y107.741 E5.1046
G1 X98.951 Y107.346 E5.11954
G1 X99.625 Y107.022 E5.13446
G1 X100.33 Y106.772 E5.14939
G1 X101.058 Y106.598 E5.16433
G1 X101.8 Y106.503 E5.17925
G1 X102.317 Y106.484 E5.18958
G1 X132.684 Y106.484 E5.79558
G1 X133.431 Y106.524 E5.81051
G1 X134.169 Y106.643 E5.82543
G1 X134.891 Y106.841 E5.84037
G1 X135.587 Y107.114 E5.85529
G1 X136.25 Y107.461 E5.87022
G1 X136.873 Y107.876 E5.88516
G1 X137.447 Y108.355 E5.90008
G1 X137.968 Y108.892 E5.91501
G1 X138.427 Y109.482 E5.92993
G1 X138.822 Y110.118 E5.94487
G1 X139.146 Y110.792 E5.9598
G1 X139.396 Y111.497 E5.97472
G1 X139.57 Y112.225 E5.98966
G1 X139.665 Y112.967 E6.00459
G1 X139.684 Y113.484 E6.01491
G1 X139.684 Y121.516 E6.1752
G1 X139.644 Y122.263 E6.19013
G1 X139.525 Y123.001 E6.20505
G1 X139.327 Y123.723 E6.21999
G1 X139.054 Y124.419 E6.23491
G1 X138.707 Y125.082 E6.24984
G1 X138.292 Y125.705 E6.26478
G1 X137.813 Y126.279 E6.2797
G1 X137.276 Y126.8 E6.29463
G1 X136.686 Y127.259 E6.30955
G1 X136.05 Y127.654 E6.32449
G1 X135.376 Y127.978 E6.33941
G1 X134.671 Y128.228 E6.35434
G1 X133.943 Y128.402 E6.36928
G1 X133.201 Y128.497 E6.3842
G1 X132.684 Y128.516 E6.39453
G1 X102.317 Y128.516 E7.00053
G1 X101.57 Y128.476 E7.01546
G1 X100.832 Y128.357 E7.03038
G1 X100.11 Y128.159 E7.04532
G1 X99.414 Y127.886 E7.06024
G1 X98.751 Y127.539 E7.07517
G1 X98.128 Y127.124 E7.09011
G1 X97.554 Y126.645 E7.10503
G1 X97.033 Y126.108 E7.11996
G1 X96.574 Y125.518 E7.13488
G1 X96.179 Y124.882 E7.14982
G1 X95.855 Y124.208 E7.16475
G1 X95.605 Y123.503 E7.17967
G1 X95.431 Y122.775 E7.19461
G1 X95.336 Y122.033 E7.20954
G1 X95.317 Y121.516 E7.21986
G1 X95.317 Y113.484 E7.38015
G0 F6000 X95.717 Y113.484
G1 F1200 X95.757 Y112.759 E7.39464
G1 X95.876 Y112.042 E7.40914
G1 X96.074 Y111.343 E7.42364
G1 X96.347 Y110.67 E7.43814
G1 X96.692 Y110.031 E7.45263
G1 X97.106 Y109.434 E7.46713
G1 X97.582 Y108.886 E7.48161
G1 X98.116 Y108.393 E7.49611
G1 X98.701 Y107.963 E7.5106
G1 X99.33 Y107.599 E7.52511
G1 X99.995 Y107.306 E7.53961
G1 X100.688 Y107.088 E7.55411
G1 X101.4 Y106.948 E7.56859
G1 X102.317 Y106.884 E7.58693
G1 X132.684 Y106.884 E8.19294
G1 X133.409 Y106.924 E8.20743
G1 X134.126 Y107.043 E8.22193
G1 X134.825 Y107.241 E8.23643
G1 X135.498 Y107.514 E8.25092
G1 X136.137 Y107.859 E8.26541
G1 X136.734 Y108.273 E8.27991
G1 X137.282 Y108.749 E8.2944
G1 X137.775 Y109.283 E8.3089
G1 X138.205 Y109.868 E8.32339
G1 X138.569 Y110.497 E8.33789
G1 X138.862 Y111.162 E8.3524
G1 X139.08 Y111.855 E8.36689
G1 X139.22 Y112.567 E8.38137
G1 X139.284 Y113.484 E8.39972
G1 X139.284 Y121.516 E8.56001
G1 X139.244 Y122.241 E8.5745
G1 X139.125 Y122.958 E8.589
G1 X138.927 Y123.657 E8.6035
G1 X138.654 Y124.33 E8.61799
G1 X138.309 Y124.969 E8.63248
G1 X137.895 Y125.566 E8.64698
G1 X137.419 Y126.114 E8.66147
G1 X136.885 Y126.607 E8.67597
G1 X136.3 Y127.037 E8.69046
G1 X135.671 Y127.401 E8.70496
G1 X135.006 Y127.694 E8.71946
G1 X134.313 Y127.912 E8.73396
G1 X133.601 Y128.052 E8.74844
G1 X132.684 Y128.116 E8.76679
G1 X102.317 Y128.116 E9.37279
G1 X101.592 Y128.076 E9.38728
G1 X100.875 Y127.957 E9.40179
G1 X100.176 Y127.759 E9.41628
G1 X99.503 Y127.486 E9.43078
G1 X98.864 Y127.141 E9.44527
G1 X98.267 Y126.727 E9.45977
G1 X97.719 Y126.251 E9.47425
G1 X97.226 Y125.717 E9.48876
G1 X96.796 Y125.132 E9.50325
G1 X96.432 Y124.503 E9.51775
G1 X96.139 Y123.838 E9.53225
G1 X95.921 Y123.145 E9.54675
G1 X95.781 Y122.433 E9.56123
G1 X95.717 Y121.516 E9.57957
G1 X95.717 Y113.484 E9.73986
G0 F6000 X96.117 Y113.484
G1 F1200 X96.157 Y112.781 E9.75391
G1 X96.276 Y112.087 E9.76796
G1 X96.474 Y111.412 E9.782
G1 X96.746 Y110.763 E9.79604
G1 X97.091 Y110.149 E9.8101
G1 X97.502 Y109.578 E9.82414
G1 X97.976 Y109.057 E9.8382
G1 X98.506 Y108.593 E9.85225
G1 X99.085 Y108.193 E9.8663
G1 X99.706 Y107.861 E9.88035
G1 X100.36 Y107.601 E9.89439
G1 X101.04 Y107.417 E9.90845
G1 X101.736 Y107.311 E9.9225
G1 X102.317 Y107.284 E9.93411
G1 X132.684 Y107.284 E10.54012
G1 X133.387 Y107.324 E10.55417
G1 X134.081 Y107.443 E10.56822
G1 X134.756 Y107.641 E10.58226
G1 X135.405 Y107.913 E10.5963
G1 X136.019 Y108.258 E10.61035
G1 X136.59 Y108.669 E10.62439
G1 X137.111 Y109.143 E10.63845
G1 X137.575 Y109.673 E10.65251
G1 X137.975 Y110.252 E10.66655
G1 X138.307 Y110.873 E10.6806
G1 X138.567 Y111.527 E10.69465
G1 X138.751 Y112.207 E10.70871
G1 X138.857 Y112.903 E10.72276
G1 X138.884 Y113.484 E10.73436
G1 X138.884 Y121.516 E10.89465
G1 X138.844 Y122.219 E10.9087
G1 X138.725 Y122.913 E10.92275
G1 X138.527 Y123.588 E10.93679
G1 X138.255 Y124.237 E10.95084
G1 X137.91 Y124.851 E10.96489
G1 X137.499 Y125.422 E10.97893
G1 X137.025 Y125.943 E10.99299
G1 X136.495 Y126.407 E11.00704
G1 X135.916 Y126.807 E11.02109
G1 X135.295 Y127.139 E11.03514
G1 X134.641 Y127.399 E11.04918
G1 X133.961 Y127.583 E11.06324
G1 X133.265 Y127.689 E11.07729
G1 X132.684 Y127.716 E11.0889
G1 X102.317 Y127.716 E11.69491
G1 X101.614 Y127.676 E11.70896
G1 X100.92 Y127.557 E11.72301
G1 X100.245 Y127.359 E11.73705
G1 X99.596 Y127.087 E11.75109
G1 X98.982 Y126.742 E11.76514
G1 X98.411 Y126.331 E11.77918
G1 X97.89 Y125.857 E11.79324
G1 X97.426 Y125.327 E11.8073
G1 X97.026 Y124.748 E11.82134
G1 X96.694 Y124.127 E11.83539
G1 X96.434 Y123.473 E11.84944
G1 X96.25 Y122.793 E11.8635
G1 X96.144 Y122.097 E11.87755
G1 X96.117 Y121.516 E11.88915
G1 X96.117 Y113.484 E12.04944
G0 F6000 X96.517 Y113.484
G1 F1200 X96.557 Y112.804 E12.06303
G1 X96.676 Y112.134 E12.07661
G1 X96.873 Y111.482 E12.09021
G1 X97.145 Y110.858 E12.10379
G1 X97.489 Y110.27 E12.11739
G1 X97.899 Y109.726 E12.13098
G1 X98.37 Y109.235 E12.14456
G1 X98.895 Y108.801 E12.15815
G1 X99.467 Y108.432 E12.17174
G1 X100.079 Y108.133 E12.18533
G1 X100.721 Y107.908 E12.1989
G1 X101.386 Y107.759 E12.2125
G1 X102.317 Y107.684 E12.23114
G1 X132.684 Y107.684 E12.83715
G1 X133.364 Y107.724 E12.85074
G1 X134.034 Y107.843 E12.86432
G1 X134.686 Y108.04 E12.87791
G1 X135.31 Y108.312 E12.8915
G1 X135.898 Y108.656 E12.90509
G1 X136.442 Y109.066 E12.91869
G1 X136.933 Y109.537 E12.93227
G1 X137.367 Y110.062 E12.94586
G1 X137.736 Y110.634 E12.95944
G1 X138.035 Y111.246 E12.97304
G1 X138.26 Y111.888 E12.98661
G1 X138.409 Y112.553 E13.00021
G1 X138.484 Y113.484 E13.01885
G1 X138.484 Y121.516 E13.17914
G1 X138.444 Y122.196 E13.19273
G1 X138.325 Y122.866 E13.20631
G1 X138.128 Y123.518 E13.2199
G1 X137.856 Y124.142 E13.23349
G1 X137.512 Y124.73 E13.24708
G1 X137.102 Y125.274 E13.26068
G1 X136.631 Y125.765 E13.27425
G1 X136.106 Y126.199 E13.28785
G1 X135.534 Y126.568 E13.30143
G1 X134.922 Y126.867 E13.31502
G1 X134.28 Y127.092 E13.3286
G1 X133.615 Y127.241 E13.3422
G1 X132.684 Y127.316 E13.36084
G1 X102.317 Y127.316 E13.96685
G1 X101.637 Y127.276 E13.98044
G1 X100.967 Y127.157 E13.99402
G1 X100.315 Y126.96 E14.00761
G1 X99.691 Y126.688 E14.0212
G1 X99.103 Y126.344 E14.03479
G1 X98.559 Y125.934 E14.04838
G1 X98.068 Y125.463 E14.06196
G1 X97.634 Y124.938 E14.07556
G1 X97.265 Y124.366 E14.08914
G1 X96.966 Y123.754 E14.10273
G1 X96.741 Y123.112 E14.11631
G1 X96.592 Y122.447 E14.12991
G1 X96.517 Y121.516 E14.14855
G1 X96.517 Y113.484 E14.30884
G0 F6000 X96.917 Y113.484
G1 F1200 X96.957 Y112.828 E14.32195
G1 X97.076 Y112.182 E14.33506
G1 X97.273 Y111.555 E14.34817
G1 X97.545 Y110.957 E14.36128
G1 X97.887 Y110.396 E14.3744
G1 X98.295 Y109.881 E14.38751
G1 X98.762 Y109.419 E14.40062
G1 X99.282 Y109.018 E14.41372
G1 X99.846 Y108.682 E14.42682
G1 X100.448 Y108.418 E14.43994
G1 X101.077 Y108.228 E14.45305
G1 X101.724 Y108.117 E14.46615
G1 X102.317 Y108.084 E14.47801
G1 X132.684 Y108.084 E15.08401
G1 X133.34 Y108.124 E15.09713
G1 X133.986 Y108.243 E15.11024
G1 X134.613 Y108.44 E15.12335
G1 X135.211 Y108.712 E15.13646
G1 X135.772 Y109.054 E15.14957
G1 X136.287 Y109.462 E15.16269
G1 X136.749 Y109.929 E15.1758
G1 X137.15 Y110.449 E15.1889
G1 X137.486 Y111.013 E15.202
G1 X137.75 Y111.615 E15.21512
G1 X137.94 Y112.244 E15.22823
G1 X138.051 Y112.891 E15.24133
G1 X138.084 Y113.484 E15.25318
G1 X138.084 Y121.516 E15.41347
G1 X138.044 Y122.172 E15.42659
G1 X137.925 Y122.818 E15.43969
G1 X137.728 Y123.445 E15.45281
G1 X137.456 Y124.043 E15.46592
G1 X137.114 Y124.604 E15.47903
G1 X136.706 Y125.119 E15.49214
G1 X136.239 Y125.581 E15.50525
G1 X135.719 Y125.982 E15.51836
G1 X135.155 Y126.318 E15.53146
G1 X134.553 Y126.582 E15.54458
G1 X133.924 Y126.772 E15.55769
G1 X133.277 Y126.883 E15.57079
G1 X132.684 Y126.916 E15.58264
G1 X102.317 Y126.916 E16.18865
G1 X101.661 Y126.876 E16.20176
G1 X101.015 Y126.757 E16.21487
G1 X100.388 Y126.56 E16.22799
G1 X99.79 Y126.288 E16.2411
G1 X99.229 Y125.946 E16.25421
G1 X98.714 Y125.538 E16.26732
G1 X98.252 Y125.071 E16.28043
G1 X97.851 Y124.551 E16.29354
G1 X97.515 Y123.987 E16.30664
G1 X97.251 Y123.385 E16.31975
G1 X97.061 Y122.756 E16.33287
G1 X96.95 Y122.109 E16.34597
G1 X96.917 Y121.516 E16.35782
G1 X96.917 Y113.484 E16.51811
G0 F6000 X97.317 Y113.484
G1 F1200 X97.357 Y112.853 E16.53072
G1 X97.476 Y112.232 E16.54334
G1 X97.673 Y111.632 E16.55595
G1 X97.944 Y111.06 E16.56858
G1 X98.284 Y110.528 E16.58118
G1 X98.69 Y110.043 E16.5938
G1 X99.153 Y109.613 E16.60641
G1 X99.667 Y109.244 E16.61903
G1 X100.223 Y108.944 E16.63164
G1 X100.812 Y108.716 E16.64425
G1 X101.426 Y108.564 E16.65687
G1 X102.317 Y108.484 E16.67472
G1 X132.684 Y108.484 E17.28073
G1 X133.315 Y108.524 E17.29335
G1 X133.936 Y108.643 E17.30596
G1 X134.536 Y108.84 E17.31857
G1 X135.108 Y109.111 E17.3312
G1 X135.64 Y109.451 E17.3438
G1 X136.125 Y109.857 E17.35642
G1 X136.555 Y110.32 E17.36903
G1 X136.924 Y110.834 E17.38166
G1 X137.224 Y111.39 E17.39426
G1 X137.452 Y111.979 E17.40687
G1 X137.604 Y112.593 E17.41949
G1 X137.684 Y113.484 E17.43734
G1 X137.684 Y121.516 E17.59763
G1 X137.644 Y122.147 E17.61025
G1 X137.525 Y122.768 E17.62287
G1 X137.328 Y123.368 E17.63547
G1 X137.057 Y123.94 E17.6481
G1 X136.717 Y124.472 E17.6607
G1 X136.311 Y124.957 E17.67332
G1 X135.848 Y125.387 E17.68593
G1 X135.334 Y125.756 E17.69856
G1 X134.778 Y126.056 E17.71117
G1 X134.189 Y126.284 E17.72377
G1 X133.575 Y126.436 E17.73639
G1 X132.684 Y126.516 E17.75425
G1 X102.317 Y126.516 E18.36025
G1 X101.686 Y126.476 E18.37287
G1 X101.065 Y126.357 E18.38549
G1 X100.465 Y126.16 E18.39809
G1 X99.893 Y125.889 E18.41072
G1 X99.361 Y125.549 E18.42332
G1 X98.876 Y125.143 E18.43594
G1 X98.446 Y124.68 E18.44855
G1 X98.077 Y124.166 E18.46118
G1 X97.777 Y123.61 E18.47379
G1 X97.549 Y123.021 E18.48639
G1 X97.397 Y122.407 E18.49902
G1 X97.317 Y121.516 E18.51687
G1 X97.317 Y113.484 E18.67715
G0 F6000 X97.717 Y113.484
G1 F1200 X97.757 Y112.879 E18.68925
G1 X97.876 Y112.285 E18.70134
G1 X98.072 Y111.711 E18.71345
G1 X98.343 Y111.168 E18.72556
G1 X98.682 Y110.665 E18.73766
G1 X99.084 Y110.212 E18.74975
G1 X99.542 Y109.815 E18.76185
G1 X100.049 Y109.482 E18.77395
G1 X100.595 Y109.218 E18.78605
G1 X101.171 Y109.029 E18.79815
G1 X101.767 Y108.917 E18.81025
G1 X102.317 Y108.884 E18.82125
G1 X132.684 Y108.884 E19.42726
G1 X133.289 Y108.924 E19.43935
G1 X133.883 Y109.043 E19.45144
G1 X134.457 Y109.239 E19.46355
G1 X135 Y109.51 E19.47566
