;FLAVOR:Marlin
;TIME:18785
;Filament used: 8.37749m
;Layer height: 0.12
;MINX:100.132
;MINY:33.7
;MINZ:0.12
;MAXX:134.869
;MAXY:201.3
;MAXZ:14.88
;Generated with Cura_SteamEngine 5.0.0
M140 S70
M105
M190 S70
M104 S200
M105
M109 S200
M82 ;absolute extrusion mode
; Ender 3 Custom Start G-code
G92 E0 ; Reset Extruder
G28 ; Home all axes
; G29  bl touch
G1 Z2.0 F3000 ; Move Z Axis up little to prevent scratching of Heat Bed
G1 X0.1 Y20 Z0.3 F5000.0 ; Move to start position
G1 X0.1 Y200.0 Z0.3 F1500.0 E15 ; Draw the first line
G1 X0.4 Y200.0 Z0.3 F5000.0 ; Move to side a little
G1 X0.4 Y20 Z0.3 F1500.0 E30 ; Draw the second line
G92 E0 ; Reset Extruder
G1 Z2.0 F3000 ; Move Z Axis up little to prevent scratching of Heat Bed
G1 X5 Y20 Z0.3 F5000.0 ; Move over to prevent blob squish
G92 E0
G92 E0
G1 F1800 E-0.5
;LAYER_COUNT:125
;LAYER:0
M107
G0 F6000 X100.763 Y38.426 Z0.12
G0 X100.132 Y41.5
;TYPE:SKIRT
G1 F1800 E0
G1 F1200 X100.172 Y40.711 E0.01577
G1 X100.291 Y39.931 E0.03151
G1 X100.489 Y39.166 E0.04728
G1 X100.763 Y38.426 E0.06303
G1 X101.111 Y37.717 E0.07879
G1 X101.529 Y37.046 E0.09457
G1 X102.012 Y36.422 E0.11031
G1 X102.555 Y35.849 E0.12607
G1 X103.154 Y35.334 E0.14183
G1 X103.802 Y34.883 E0.15759
G1 X104.493 Y34.499 E0.17336
G1 X105.218 Y34.187 E0.18911
G1 X105.971 Y33.95 E0.20487
G1 X106.745 Y33.791 E0.22064
G1 X107.53 Y33.71 E0.23638
G1 X107.932 Y33.7 E0.24441
G1 X112.9 Y33.7 E0.34355
G1 X113.232 Y33.717 E0.35018
G1 X113.7 Y33.7 E0.35953
G1 X121.3 Y33.7 E0.5112
G1 X121.632 Y33.717 E0.51783
G1 X122.1 Y33.7 E0.52718
G1 X127.068 Y33.7 E0.62632
G1 X127.857 Y33.74 E0.64208
G1 X128.637 Y33.859 E0.65783
G1 X129.402 Y34.057 E0.6736
G1 X130.142 Y34.331 E0.68935
G1 X130.851 Y34.679 E0.70511
G1 X131.522 Y35.097 E0.72088
G1 X132.146 Y35.58 E0.73663
G1 X132.719 Y36.123 E0.75238
G1 X133.234 Y36.722 E0.76815
G1 X133.685 Y37.37 E0.7839
G1 X134.069 Y38.061 E0.79968
G1 X134.381 Y38.786 E0.81543
G1 X134.618 Y39.539 E0.83118
G1 X134.777 Y40.313 E0.84695
G1 X134.858 Y41.098 E0.8627
G1 X134.868 Y41.5 E0.87073
G1 X134.869 Y193.5 E3.90405
G1 X134.829 Y194.289 E3.91982
G1 X134.71 Y195.069 E3.93556
G1 X134.512 Y195.834 E3.95133
G1 X134.238 Y196.574 E3.96708
G1 X133.89 Y197.283 E3.98284
G1 X133.473 Y197.954 E3.99861
G1 X132.989 Y198.578 E4.01437
G1 X132.446 Y199.151 E4.03012
G1 X131.847 Y199.666 E4.04588
G1 X131.199 Y200.117 E4.06164
G1 X130.509 Y200.501 E4.0774
G1 X129.783 Y200.813 E4.09317
G1 X129.03 Y201.05 E4.10892
G1 X128.256 Y201.209 E4.12469
G1 X127.471 Y201.29 E4.14044
G1 X127.069 Y201.3 E4.14846
G1 X122.1 Y201.3 E4.24762
G1 X121.768 Y201.283 E4.25426
G1 X121.3 Y201.3 E4.2636
G1 X113.7 Y201.3 E4.41527
G1 X113.368 Y201.283 E4.4219
G1 X112.9 Y201.3 E4.43125
G1 X107.932 Y201.3 E4.53039
G1 X107.143 Y201.26 E4.54616
G1 X106.363 Y201.141 E4.5619
G1 X105.598 Y200.943 E4.57767
G1 X104.858 Y200.669 E4.59342
G1 X104.149 Y200.321 E4.60918
G1 X103.478 Y199.903 E4.62496
G1 X102.854 Y199.42 E4.6407
G1 X102.281 Y198.877 E4.65646
G1 X101.766 Y198.278 E4.67222
G1 X101.315 Y197.63 E4.68798
G1 X100.931 Y196.939 E4.70375
G1 X100.619 Y196.214 E4.7195
G1 X100.382 Y195.461 E4.73526
G1 X100.223 Y194.687 E4.75103
G1 X100.142 Y193.902 E4.76678
G1 X100.132 Y193.5 E4.7748
G1 X100.132 Y41.5 E7.80812
G0 F6000 X100.532 Y41.5
G1 F1200 X100.572 Y40.732 E7.82347
G1 X100.691 Y39.972 E7.83882
G1 X100.889 Y39.229 E7.85417
G1 X101.163 Y38.51 E7.86952
G1 X101.51 Y37.824 E7.88486
G1 X101.926 Y37.177 E7.90021
G1 X102.407 Y36.577 E7.91556
G1 X102.948 Y36.03 E7.93091
G1 X103.543 Y35.542 E7.94627
G1 X104.185 Y35.119 E7.96161
G1 X104.868 Y34.764 E7.97697
G1 X105.583 Y34.483 E7.99231
G1 X106.325 Y34.277 E8.00767
G1 X107.083 Y34.149 E8.02301
G1 X107.932 Y34.1 E8.03999
G1 X112.9 Y34.1 E8.13913
G1 X113.321 Y34.122 E8.14754
G1 X113.7 Y34.1 E8.15512
G1 X121.3 Y34.1 E8.30678
G1 X121.721 Y34.122 E8.3152
G1 X122.1 Y34.1 E8.32277
G1 X127.068 Y34.1 E8.42191
G1 X127.836 Y34.14 E8.43726
G1 X128.596 Y34.259 E8.45261
G1 X129.339 Y34.457 E8.46796
G1 X130.058 Y34.731 E8.48331
G1 X130.744 Y35.078 E8.49865
G1 X131.391 Y35.494 E8.514
G1 X131.991 Y35.975 E8.52935
G1 X132.538 Y36.516 E8.5447
G1 X133.026 Y37.111 E8.56006
G1 X133.449 Y37.753 E8.5754
G1 X133.804 Y38.436 E8.59076
G1 X134.085 Y39.151 E8.60609
G1 X134.291 Y39.893 E8.62146
G1 X134.419 Y40.651 E8.6368
G1 X134.468 Y41.5 E8.65377
G1 X134.469 Y193.5 E11.6871
G1 X134.429 Y194.268 E11.70244
G1 X134.31 Y195.028 E11.7178
G1 X134.112 Y195.771 E11.73314
G1 X133.838 Y196.49 E11.7485
G1 X133.491 Y197.176 E11.76384
G1 X133.075 Y197.823 E11.77919
G1 X132.594 Y198.423 E11.79453
G1 X132.053 Y198.97 E11.80989
G1 X131.458 Y199.458 E11.82524
G1 X130.816 Y199.881 E11.84059
G1 X130.133 Y200.236 E11.85595
G1 X129.418 Y200.517 E11.87128
G1 X128.676 Y200.723 E11.88665
G1 X127.918 Y200.851 E11.90199
G1 X127.069 Y200.9 E11.91896
G1 X122.1 Y200.9 E12.01812
G1 X121.679 Y200.878 E12.02653
G1 X121.3 Y200.9 E12.03411
G1 X113.7 Y200.9 E12.18577
G1 X113.279 Y200.878 E12.19419
G1 X112.9 Y200.9 E12.20176
G1 X107.932 Y200.9 E12.30091
G1 X107.164 Y200.86 E12.31625
G1 X106.404 Y200.741 E12.3316
G1 X105.661 Y200.543 E12.34695
G1 X104.942 Y200.269 E12.3623
G1 X104.256 Y199.922 E12.37765
G1 X103.609 Y199.506 E12.393
G1 X103.009 Y199.025 E12.40834
G1 X102.462 Y198.484 E12.4237
G1 X101.974 Y197.889 E12.43905
G1 X101.551 Y197.247 E12.45439
G1 X101.196 Y196.564 E12.46976
G1 X100.915 Y195.849 E12.48509
G1 X100.709 Y195.107 E12.50045
G1 X100.581 Y194.349 E12.5158
G1 X100.532 Y193.5 E12.53277
G1 X100.532 Y41.5 E15.56609
G0 F6000 X100.932 Y41.5
G1 F1200 X100.972 Y40.753 E15.58102
G1 X101.091 Y40.015 E15.59594
G1 X101.289 Y39.293 E15.61088
G1 X101.562 Y38.597 E15.6258
G1 X101.909 Y37.934 E15.64073
G1 X102.324 Y37.311 E15.65567
G1 X102.803 Y36.737 E15.67059
G1 X103.34 Y36.216 E15.68552
G1 X103.93 Y35.757 E15.70044
G1 X104.566 Y35.362 E15.71538
G1 X105.24 Y35.038 E15.7303
G1 X105.945 Y34.788 E15.74523
G1 X106.673 Y34.614 E15.76017
G1 X107.415 Y34.519 E15.77509
G1 X107.932 Y34.5 E15.78542
G1 X112.9 Y34.5 E15.88456
G1 X113.226 Y34.517 E15.89107
G1 X113.7 Y34.5 E15.90054
G1 X121.3 Y34.5 E16.05221
G1 X121.626 Y34.517 E16.05872
G1 X122.1 Y34.5 E16.06819
G1 X127.068 Y34.5 E16.16733
G1 X127.815 Y34.54 E16.18226
G1 X128.553 Y34.659 E16.19717
G1 X129.275 Y34.857 E16.21211
G1 X129.971 Y35.13 E16.22703
G1 X130.634 Y35.477 E16.24197
G1 X131.257 Y35.892 E16.25691
G1 X131.831 Y36.371 E16.27183
G1 X132.352 Y36.908 E16.28676
G1 X132.811 Y37.498 E16.30167
G1 X133.206 Y38.134 E16.31661
G1 X133.53 Y38.808 E16.33154
G1 X133.78 Y39.513 E16.34647
G1 X133.954 Y40.241 E16.3614
G1 X134.049 Y40.983 E16.37633
G1 X134.068 Y41.5 E16.38666
G1 X134.069 Y193.5 E19.41998
G1 X134.029 Y194.247 E19.43491
G1 X133.91 Y194.985 E19.44983
G1 X133.712 Y195.707 E19.46477
G1 X133.439 Y196.403 E19.47969
G1 X133.092 Y197.066 E19.49462
G1 X132.677 Y197.689 E19.50956
G1 X132.198 Y198.263 E19.52448
G1 X131.661 Y198.784 E19.53941
G1 X131.071 Y199.243 E19.55433
G1 X130.435 Y199.638 E19.56927
G1 X129.761 Y199.962 E19.58419
G1 X129.056 Y200.212 E19.59912
G1 X128.328 Y200.386 E19.61406
G1 X127.586 Y200.481 E19.62898
G1 X127.069 Y200.5 E19.63931
G1 X122.1 Y200.5 E19.73847
G1 X121.774 Y200.483 E19.74498
G1 X121.3 Y200.5 E19.75445
G1 X113.7 Y200.5 E19.90612
G1 X113.374 Y200.483 E19.91263
G1 X112.9 Y200.5 E19.9221
G1 X107.932 Y200.5 E20.02124
G1 X107.185 Y200.46 E20.03617
G1 X106.447 Y200.341 E20.05108
G1 X105.725 Y200.143 E20.06602
G1 X105.029 Y199.87 E20.08094
G1 X104.366 Y199.523 E20.09588
G1 X103.743 Y199.108 E20.11082
G1 X103.169 Y198.629 E20.12574
G1 X102.648 Y198.092 E20.14067
G1 X102.189 Y197.502 E20.15558
G1 X101.794 Y196.866 E20.17052
G1 X101.47 Y196.192 E20.18545
G1 X101.22 Y195.487 E20.20038
G1 X101.046 Y194.759 E20.21531
G1 X100.951 Y194.017 E20.23024
G1 X100.932 Y193.5 E20.24057
G1 X100.932 Y41.5 E23.27389
G0 F6000 X101.332 Y41.5
G1 F1200 X101.372 Y40.775 E23.28838
G1 X101.491 Y40.058 E23.30288
G1 X101.689 Y39.359 E23.31738
G1 X101.962 Y38.686 E23.33188
G1 X102.307 Y38.047 E23.34637
G1 X102.721 Y37.45 E23.36087
G1 X103.197 Y36.902 E23.37535
G1 X103.731 Y36.409 E23.38985
G1 X104.316 Y35.979 E23.40434
G1 X104.945 Y35.615 E23.41885
G1 X105.61 Y35.322 E23.43335
G1 X106.303 Y35.104 E23.44785
G1 X107.015 Y34.964 E23.46233
G1 X107.932 Y34.9 E23.48067
G1 X112.9 Y34.9 E23.57981
G1 X113.347 Y34.925 E23.58875
G1 X113.7 Y34.9 E23.59581
G1 X121.3 Y34.9 E23.74748
G1 X121.747 Y34.925 E23.75641
G1 X122.1 Y34.9 E23.76347
G1 X127.068 Y34.9 E23.86261
G1 X127.793 Y34.94 E23.8771
G1 X128.51 Y35.059 E23.89161
G1 X129.209 Y35.257 E23.90611
G1 X129.882 Y35.53 E23.9206
G1 X130.521 Y35.875 E23.93509
G1 X131.118 Y36.289 E23.94959
G1 X131.666 Y36.765 E23.96407
G1 X132.159 Y37.299 E23.97858
G1 X132.589 Y37.884 E23.99307
G1 X132.953 Y38.513 E24.00757
G1 X133.246 Y39.178 E24.02207
G1 X133.464 Y39.871 E24.03657
G1 X133.604 Y40.583 E24.05105
G1 X133.668 Y41.5 E24.06939
G1 X133.669 Y193.5 E27.10272
G1 X133.629 Y194.225 E27.11721
G1 X133.51 Y194.942 E27.13171
G1 X133.312 Y195.641 E27.14621
G1 X133.039 Y196.314 E27.1607
G1 X132.694 Y196.953 E27.1752
G1 X132.28 Y197.55 E27.18969
G1 X131.804 Y198.098 E27.20418
G1 X131.27 Y198.591 E27.21868
G1 X130.685 Y199.021 E27.23317
G1 X130.056 Y199.385 E27.24768
G1 X129.391 Y199.678 E27.26218
G1 X128.699 Y199.896 E27.27666
G1 X127.986 Y200.036 E27.29116
G1 X127.069 Y200.1 E27.3095
G1 X122.1 Y200.1 E27.40866
G1 X121.653 Y200.075 E27.4176
G1 X121.3 Y200.1 E27.42466
G1 X113.7 Y200.1 E27.57632
G1 X113.253 Y200.075 E27.58526
G1 X112.9 Y200.1 E27.59232
G1 X107.932 Y200.1 E27.69146
G1 X107.207 Y200.06 E27.70595
G1 X106.49 Y199.941 E27.72046
G1 X105.791 Y199.743 E27.73496
G1 X105.118 Y199.47 E27.74945
G1 X104.479 Y199.125 E27.76394
G1 X103.882 Y198.711 E27.77844
G1 X103.334 Y198.235 E27.79292
G1 X102.841 Y197.701 E27.80743
G1 X102.411 Y197.116 E27.82192
G1 X102.047 Y196.487 E27.83642
G1 X101.754 Y195.822 E27.85092
G1 X101.536 Y195.129 E27.86542
G1 X101.396 Y194.417 E27.8799
G1 X101.332 Y193.5 E27.89824
G1 X101.332 Y41.5 E30.93157
G0 F6000 X101.732 Y41.5
G1 F1200 X101.772 Y40.797 E30.94562
G1 X101.891 Y40.103 E30.95967
G1 X102.089 Y39.428 E30.97371
G1 X102.361 Y38.779 E30.98775
G1 X102.706 Y38.165 E31.00181
G1 X103.117 Y37.594 E31.01585
G1 X103.591 Y37.073 E31.0299
G1 X104.121 Y36.609 E31.04396
G1 X104.7 Y36.209 E31.058
G1 X105.321 Y35.877 E31.07206
G1 X105.975 Y35.617 E31.0861
G1 X106.655 Y35.433 E31.10016
G1 X107.351 Y35.327 E31.11421
G1 X107.932 Y35.3 E31.12582
G1 X112.9 Y35.3 E31.22496
G1 X113.26 Y35.32 E31.23215
G1 X113.7 Y35.3 E31.24094
G1 X121.3 Y35.3 E31.39261
G1 X121.66 Y35.32 E31.3998
G1 X122.1 Y35.3 E31.40859
G1 X127.068 Y35.3 E31.50774
G1 X127.771 Y35.34 E31.52179
G1 X128.465 Y35.459 E31.53584
G1 X129.14 Y35.657 E31.54988
G1 X129.789 Y35.929 E31.56392
G1 X130.403 Y36.274 E31.57798
G1 X130.974 Y36.685 E31.59202
G1 X131.495 Y37.159 E31.60607
G1 X131.959 Y37.689 E31.62013
G1 X132.359 Y38.268 E31.63417
G1 X132.691 Y38.889 E31.64823
G1 X132.951 Y39.543 E31.66227
G1 X133.135 Y40.223 E31.67633
G1 X133.241 Y40.919 E31.69038
G1 X133.268 Y41.5 E31.70198
G1 X133.269 Y193.5 E34.73531
G1 X133.229 Y194.203 E34.74936
G1 X133.11 Y194.897 E34.76341
G1 X132.912 Y195.572 E34.77745
G1 X132.64 Y196.221 E34.79149
G1 X132.295 Y196.835 E34.80555
G1 X131.884 Y197.406 E34.81959
G1 X131.41 Y197.927 E34.83364
G1 X130.88 Y198.391 E34.8477
G1 X130.301 Y198.791 E34.86175
G1 X129.68 Y199.123 E34.8758
G1 X129.026 Y199.383 E34.88984
G1 X128.346 Y199.567 E34.9039
G1 X127.65 Y199.673 E34.91795
G1 X127.069 Y199.7 E34.92956
G1 X122.1 Y199.7 E35.02872
G1 X121.74 Y199.68 E35.03591
G1 X121.3 Y199.7 E35.0447
G1 X113.7 Y199.7 E35.19637
G1 X113.34 Y199.68 E35.20357
G1 X112.9 Y199.7 E35.21236
G1 X107.932 Y199.7 E35.3115
G1 X107.229 Y199.66 E35.32555
G1 X106.535 Y199.541 E35.3396
G1 X105.86 Y199.343 E35.35364
G1 X105.211 Y199.071 E35.36768
G1 X104.597 Y198.726 E35.38174
G1 X104.026 Y198.315 E35.39578
G1 X103.505 Y197.841 E35.40983
G1 X103.041 Y197.311 E35.42389
G1 X102.641 Y196.732 E35.43793
G1 X102.309 Y196.111 E35.45199
G1 X102.049 Y195.457 E35.46603
G1 X101.865 Y194.777 E35.48009
G1 X101.759 Y194.081 E35.49414
G1 X101.732 Y193.5 E35.50575
G1 X101.732 Y41.5 E38.53907
G0 F6000 X102.132 Y41.5
G1 F1200 X102.172 Y40.82 E38.55266
G1 X102.291 Y40.15 E38.56624
G1 X102.488 Y39.498 E38.57984
G1 X102.76 Y38.874 E38.59342
G1 X103.104 Y38.286 E38.60701
G1 X103.514 Y37.742 E38.62061
G1 X103.985 Y37.251 E38.63419
G1 X104.51 Y36.817 E38.64778
G1 X105.082 Y36.448 E38.66136
G1 X105.694 Y36.149 E38.67496
G1 X106.336 Y35.924 E38.68853
G1 X107.001 Y35.775 E38.70213
G1 X107.932 Y35.7 E38.72077
G1 X112.9 Y35.7 E38.81991
G1 X113.362 Y35.727 E38.82915
G1 X113.7 Y35.7 E38.83592
G1 X121.3 Y35.7 E38.98758
G1 X121.762 Y35.727 E38.99682
G1 X122.1 Y35.7 E39.00358
G1 X127.068 Y35.7 E39.10273
G1 X127.748 Y35.74 E39.11632
G1 X128.418 Y35.859 E39.1299
G1 X129.07 Y36.056 E39.14349
G1 X129.694 Y36.328 E39.15708
G1 X130.282 Y36.672 E39.17067
G1 X130.826 Y37.082 E39.18426
G1 X131.317 Y37.553 E39.19784
G1 X131.751 Y38.078 E39.21144
G1 X132.12 Y38.65 E39.22502
G1 X132.419 Y39.262 E39.23861
G1 X132.644 Y39.904 E39.25219
G1 X132.793 Y40.569 E39.26579
G1 X132.868 Y41.5 E39.28443
G1 X132.869 Y193.5 E42.31775
G1 X132.829 Y194.18 E42.33135
G1 X132.71 Y194.85 E42.34493
G1 X132.513 Y195.502 E42.35852
G1 X132.241 Y196.126 E42.3721
G1 X131.897 Y196.714 E42.3857
G1 X131.487 Y197.258 E42.39929
G1 X131.016 Y197.749 E42.41287
G1 X130.491 Y198.183 E42.42646
G1 X129.919 Y198.552 E42.44005
G1 X129.307 Y198.851 E42.45364
G1 X128.665 Y199.076 E42.46721
G1 X128 Y199.225 E42.48081
G1 X127.069 Y199.3 E42.49945
G1 X122.1 Y199.3 E42.59862
G1 X121.638 Y199.273 E42.60785
G1 X121.3 Y199.3 E42.61462
G1 X113.7 Y199.3 E42.76628
G1 X113.238 Y199.273 E42.77552
G1 X112.9 Y199.3 E42.78229
G1 X107.932 Y199.3 E42.88143
G1 X107.252 Y199.26 E42.89502
G1 X106.582 Y199.141 E42.9086
G1 X105.93 Y198.944 E42.92219
G1 X105.306 Y198.672 E42.93578
G1 X104.718 Y198.328 E42.94937
G1 X104.174 Y197.918 E42.96297
G1 X103.683 Y197.447 E42.97654
G1 X103.249 Y196.922 E42.99014
G1 X102.88 Y196.35 E43.00372
G1 X102.581 Y195.738 E43.01731
G1 X102.356 Y195.096 E43.03089
G1 X102.207 Y194.431 E43.04449
G1 X102.132 Y193.5 E43.06313
G1 X102.132 Y41.5 E46.09645
G0 F6000 X102.532 Y41.5
G1 F1200 X102.572 Y40.844 E46.10957
G1 X102.691 Y40.198 E46.12268
G1 X102.888 Y39.571 E46.13579
G1 X103.16 Y38.973 E46.1489
G1 X103.502 Y38.412 E46.16201
G1 X103.91 Y37.897 E46.17513
G1 X104.377 Y37.435 E46.18824
G1 X104.897 Y37.034 E46.20134
G1 X105.461 Y36.698 E46.21444
G1 X106.063 Y36.434 E46.22756
G1 X106.692 Y36.244 E46.24067
G1 X107.339 Y36.133 E46.25377
G1 X107.932 Y36.1 E46.26562
G1 X112.9 Y36.1 E46.36477
G1 X113.282 Y36.123 E46.3724
G1 X113.7 Y36.1 E46.38076
G1 X121.3 Y36.1 E46.53242
G1 X121.682 Y36.123 E46.54006
G1 X122.1 Y36.1 E46.54842
G1 X127.068 Y36.1 E46.64756
G1 X127.724 Y36.14 E46.66067
G1 X128.37 Y36.259 E46.67378
G1 X128.997 Y36.456 E46.6869
G1 X129.595 Y36.728 E46.70001
G1 X130.156 Y37.07 E46.71312
G1 X130.671 Y37.478 E46.72623
G1 X131.133 Y37.945 E46.73934
G1 X131.534 Y38.465 E46.75244
G1 X131.87 Y39.029 E46.76555
G1 X132.134 Y39.631 E46.77866
G1 X132.324 Y40.26 E46.79178
G1 X132.435 Y40.907 E46.80488
G1 X132.468 Y41.5 E46.81673
G1 X132.469 Y193.5 E49.85005
G1 X132.429 Y194.156 E49.86317
G1 X132.31 Y194.802 E49.87628
G1 X132.113 Y195.429 E49.88939
G1 X131.841 Y196.027 E49.9025
G1 X131.499 Y196.588 E49.91561
G1 X131.091 Y197.103 E49.92873
G1 X130.624 Y197.565 E49.94184
G1 X130.104 Y197.966 E49.95494
G1 X129.54 Y198.302 E49.96804
G1 X128.938 Y198.566 E49.98116
G1 X128.309 Y198.756 E49.99427
G1 X127.662 Y198.867 E50.00737
G1 X127.069 Y198.9 E50.01922
G1 X122.1 Y198.9 E50.11839
G1 X121.718 Y198.877 E50.12602
G1 X121.3 Y198.9 E50.13438
G1 X113.7 Y198.9 E50.28604
G1 X113.318 Y198.877 E50.29368
G1 X112.9 Y198.9 E50.30203
G1 X107.932 Y198.9 E50.40118
G1 X107.276 Y198.86 E50.41429
G1 X106.63 Y198.741 E50.4274
G1 X106.003 Y198.544 E50.44052
G1 X105.405 Y198.272 E50.45363
G1 X104.844 Y197.93 E50.46674
G1 X104.329 Y197.522 E50.47985
G1 X103.867 Y197.055 E50.49296
G1 X103.466 Y196.535 E50.50606
G1 X103.13 Y195.971 E50.51916
G1 X102.866 Y195.369 E50.53228
