;FLAVOR:Marlin
;TIME:6005
;Filament used: 1.99731m
;Layer height: 0.12
;MINX:83.338
;MINY:28.477
;MINZ:0.12
;MAXX:148.921
;MAXY:212.041
;MAXZ:6.12
;Generated with Cura_SteamEngine 5.0.0
M140 S70
M105
M190 S70
M104 S200
M105
M109 S200
M82 ;absolute extrusion mode
; Ender 3 Custom Start G-code
G92 E0 ; Reset Extruder
G28 ; Home all axes
; G29  bl touch
G1 Z2.0 F3000 ; Move Z Axis up little to prevent scratching of Heat Bed
G1 X0.1 Y20 Z0.3 F5000.0 ; Move to start position
G1 X0.1 Y200.0 Z0.3 F1500.0 E15 ; Draw the first line
G1 X0.4 Y200.0 Z0.3 F5000.0 ; Move to side a little
G1 X0.4 Y20 Z0.3 F1500.0 E30 ; Draw the second line
G92 E0 ; Reset Extruder
G1 Z2.0 F3000 ; Move Z Axis up little to prevent scratching of Heat Bed
G1 X5 Y20 Z0.3 F5000.0 ; Move over to prevent blob squish
G92 E0
G92 E0
G1 F2700 E-5
;LAYER_COUNT:51
;LAYER:0
M107
G0 F6000 X132.412 Y34.866 Z0.12
G0 X132.055 Y37.2
;TYPE:SKIRT
G1 F2700 E0
G1 F1200 X132.095 Y36.411 E0.01577
G1 X132.214 Y35.63 E0.03153
G1 X132.412 Y34.866 E0.04728
G1 X132.686 Y34.125 E0.06305
G1 X133.034 Y33.416 E0.07881
G1 X133.451 Y32.746 E0.09456
G1 X133.934 Y32.121 E0.11032
G1 X134.478 Y31.549 E0.12607
G1 X135.077 Y31.034 E0.14184
G1 X135.725 Y30.582 E0.1576
G1 X136.415 Y30.199 E0.17335
G1 X137.14 Y29.887 E0.1891
G1 X137.894 Y29.65 E0.20488
G1 X138.667 Y29.49 E0.22063
G1 X139.453 Y29.409 E0.2364
G1 X139.855 Y29.399 E0.24442
G1 X140.967 Y29.399 E0.26661
G1 X141.756 Y29.439 E0.28238
G1 X142.536 Y29.558 E0.29813
G1 X143.301 Y29.756 E0.3139
G1 X144.041 Y30.03 E0.32964
G1 X144.75 Y30.378 E0.3454
G1 X145.421 Y30.796 E0.36118
G1 X146.045 Y31.279 E0.37693
G1 X146.618 Y31.822 E0.39268
G1 X147.133 Y32.421 E0.40845
G1 X147.584 Y33.069 E0.4242
G1 X147.968 Y33.76 E0.43998
G1 X148.28 Y34.485 E0.45573
G1 X148.517 Y35.238 E0.47148
G1 X148.676 Y36.012 E0.48725
G1 X148.757 Y36.797 E0.503
G1 X148.767 Y37.201 E0.51106
G1 X148.764 Y48.481 E0.73617
G1 X148.724 Y49.27 E0.75193
G1 X148.604 Y50.05 E0.76768
G1 X148.406 Y50.815 E0.78345
G1 X148.132 Y51.555 E0.7992
G1 X147.784 Y52.264 E0.81496
G1 X147.366 Y52.934 E0.83072
G1 X146.883 Y53.559 E0.84648
G1 X146.339 Y54.131 E0.86224
G1 X145.74 Y54.646 E0.878
G1 X145.607 Y54.738 E0.88123
G1 X145.947 Y55.35 E0.8952
G1 X146.259 Y56.075 E0.91095
G1 X146.496 Y56.828 E0.9267
G1 X146.655 Y57.602 E0.94247
G1 X146.736 Y58.387 E0.95822
G1 X146.746 Y58.789 E0.96625
G1 X146.746 Y70.069 E1.19135
G1 X146.706 Y70.858 E1.20712
G1 X146.587 Y71.638 E1.22286
G1 X146.389 Y72.403 E1.23863
G1 X146.115 Y73.143 E1.25438
G1 X145.767 Y73.852 E1.27014
G1 X145.349 Y74.523 E1.28592
G1 X144.866 Y75.147 E1.30166
G1 X144.323 Y75.72 E1.31742
G1 X143.724 Y76.235 E1.33318
G1 X143.076 Y76.686 E1.34894
G1 X142.385 Y77.07 E1.36471
G1 X141.66 Y77.382 E1.38046
G1 X140.907 Y77.619 E1.39622
G1 X140.133 Y77.778 E1.41198
G1 X139.348 Y77.859 E1.42773
G1 X138.946 Y77.869 E1.43576
G1 X137.75 Y77.869 E1.45963
G1 X136.961 Y77.829 E1.47539
G1 X136.181 Y77.71 E1.49114
G1 X135.416 Y77.512 E1.50691
G1 X134.676 Y77.238 E1.52265
G1 X133.967 Y76.89 E1.53842
G1 X133.296 Y76.472 E1.55419
G1 X132.672 Y75.989 E1.56994
G1 X132.099 Y75.446 E1.58569
G1 X131.584 Y74.847 E1.60146
G1 X131.133 Y74.199 E1.61721
G1 X130.749 Y73.508 E1.63299
G1 X130.437 Y72.783 E1.64874
G1 X130.2 Y72.03 E1.66449
G1 X130.041 Y71.256 E1.68026
G1 X129.96 Y70.471 E1.69601
G1 X129.95 Y70.069 E1.70403
G1 X129.95 Y58.789 E1.92914
G1 X129.99 Y58 E1.9449
G1 X130.109 Y57.22 E1.96065
G1 X130.307 Y56.455 E1.97642
G1 X130.581 Y55.715 E1.99217
G1 X130.929 Y55.006 E2.00793
G1 X131.347 Y54.335 E2.02371
G1 X131.83 Y53.711 E2.03945
G1 X132.373 Y53.138 E2.05521
G1 X132.972 Y52.623 E2.07097
G1 X133.17 Y52.485 E2.07579
G1 X132.855 Y51.918 E2.08873
G1 X132.543 Y51.193 E2.10448
G1 X132.306 Y50.44 E2.12024
G1 X132.147 Y49.666 E2.136
G1 X132.066 Y48.881 E2.15175
G1 X132.056 Y48.48 E2.15976
G1 X132.055 Y37.2 E2.38486
G0 F6000 X132.455 Y37.2
G1 F1200 X132.495 Y36.432 E2.40021
G1 X132.614 Y35.672 E2.41556
G1 X132.812 Y34.928 E2.43092
G1 X133.086 Y34.21 E2.44626
G1 X133.433 Y33.523 E2.46162
G1 X133.849 Y32.876 E2.47697
G1 X134.33 Y32.276 E2.49232
G1 X134.871 Y31.729 E2.50767
G1 X135.465 Y31.241 E2.52301
G1 X136.108 Y30.818 E2.53837
G1 X136.79 Y30.464 E2.5537
G1 X137.506 Y30.182 E2.56906
G1 X138.247 Y29.976 E2.58441
G1 X139.005 Y29.848 E2.59975
G1 X139.855 Y29.799 E2.61674
G1 X140.967 Y29.799 E2.63893
G1 X141.735 Y29.839 E2.65428
G1 X142.495 Y29.958 E2.66963
G1 X143.238 Y30.156 E2.68498
G1 X143.957 Y30.43 E2.70033
G1 X144.643 Y30.777 E2.71567
G1 X145.29 Y31.193 E2.73102
G1 X145.89 Y31.674 E2.74637
G1 X146.437 Y32.215 E2.76172
G1 X146.925 Y32.81 E2.77708
G1 X147.348 Y33.452 E2.79242
G1 X147.703 Y34.135 E2.80778
G1 X147.984 Y34.85 E2.82311
G1 X148.19 Y35.592 E2.83848
G1 X148.318 Y36.35 E2.85382
G1 X148.367 Y37.201 E2.87083
G1 X148.364 Y48.481 E3.09594
G1 X148.324 Y49.249 E3.11128
G1 X148.204 Y50.009 E3.12664
G1 X148.006 Y50.752 E3.14198
G1 X147.732 Y51.471 E3.15734
G1 X147.385 Y52.157 E3.17268
G1 X146.969 Y52.804 E3.18803
G1 X146.487 Y53.404 E3.20339
G1 X145.946 Y53.95 E3.21873
G1 X145.351 Y54.438 E3.23408
G1 X145.057 Y54.632 E3.24111
G1 X145.327 Y55.042 E3.25091
G1 X145.682 Y55.725 E3.26627
G1 X145.963 Y56.44 E3.2816
G1 X146.169 Y57.182 E3.29697
G1 X146.297 Y57.94 E3.31231
G1 X146.346 Y58.789 E3.32928
G1 X146.346 Y70.069 E3.55439
G1 X146.306 Y70.837 E3.56973
G1 X146.187 Y71.597 E3.58509
G1 X145.989 Y72.34 E3.60043
G1 X145.715 Y73.059 E3.61579
G1 X145.368 Y73.745 E3.63113
G1 X144.952 Y74.392 E3.64648
G1 X144.471 Y74.992 E3.66182
G1 X143.93 Y75.539 E3.67718
G1 X143.335 Y76.027 E3.69253
G1 X142.693 Y76.45 E3.70788
G1 X142.01 Y76.805 E3.72324
G1 X141.295 Y77.086 E3.73857
G1 X140.553 Y77.292 E3.75394
G1 X139.795 Y77.42 E3.76928
G1 X138.946 Y77.469 E3.78625
G1 X137.75 Y77.469 E3.81011
G1 X136.982 Y77.429 E3.82546
G1 X136.222 Y77.31 E3.84081
G1 X135.479 Y77.112 E3.85616
G1 X134.76 Y76.838 E3.87151
G1 X134.074 Y76.491 E3.88685
G1 X133.427 Y76.075 E3.9022
G1 X132.827 Y75.594 E3.91755
G1 X132.28 Y75.053 E3.9329
G1 X131.792 Y74.458 E3.94826
G1 X131.369 Y73.816 E3.9636
G1 X131.014 Y73.133 E3.97896
G1 X130.733 Y72.418 E3.9943
G1 X130.527 Y71.676 E4.00966
G1 X130.399 Y70.918 E4.025
G1 X130.35 Y70.069 E4.04197
G1 X130.35 Y58.789 E4.26708
G1 X130.39 Y58.021 E4.28243
G1 X130.509 Y57.261 E4.29778
G1 X130.707 Y56.518 E4.31312
G1 X130.981 Y55.799 E4.32848
G1 X131.328 Y55.113 E4.34382
G1 X131.744 Y54.466 E4.35917
G1 X132.225 Y53.866 E4.37452
G1 X132.766 Y53.319 E4.38987
G1 X133.361 Y52.831 E4.40523
G1 X133.718 Y52.595 E4.41377
G1 X133.475 Y52.226 E4.42258
G1 X133.12 Y51.543 E4.43794
G1 X132.839 Y50.828 E4.45328
G1 X132.633 Y50.086 E4.46864
G1 X132.505 Y49.328 E4.48398
G1 X132.456 Y48.48 E4.50093
G1 X132.455 Y37.2 E4.72604
G0 F6000 X132.855 Y37.2
G1 F1200 X132.895 Y36.453 E4.74097
G1 X133.014 Y35.714 E4.75591
G1 X133.212 Y34.993 E4.77083
G1 X133.485 Y34.296 E4.78576
G1 X133.831 Y33.633 E4.80069
G1 X134.246 Y33.011 E4.81561
G1 X134.725 Y32.436 E4.83055
G1 X135.263 Y31.916 E4.84548
G1 X135.853 Y31.456 E4.86041
G1 X136.489 Y31.062 E4.87534
G1 X137.163 Y30.737 E4.89027
G1 X137.868 Y30.487 E4.9052
G1 X138.595 Y30.313 E4.92011
G1 X139.337 Y30.218 E4.93504
G1 X139.855 Y30.199 E4.94539
G1 X140.967 Y30.199 E4.96758
G1 X141.714 Y30.239 E4.98251
G1 X142.452 Y30.358 E4.99742
G1 X143.174 Y30.556 E5.01236
G1 X143.87 Y30.829 E5.02728
G1 X144.533 Y31.176 E5.04222
G1 X145.156 Y31.591 E5.05716
G1 X145.73 Y32.07 E5.07208
G1 X146.251 Y32.607 E5.08701
G1 X146.71 Y33.197 E5.10192
G1 X147.105 Y33.833 E5.11687
G1 X147.429 Y34.507 E5.13179
G1 X147.679 Y35.212 E5.14672
G1 X147.853 Y35.94 E5.16165
G1 X147.948 Y36.682 E5.17658
G1 X147.967 Y37.201 E5.18695
G1 X147.964 Y48.481 E5.41205
G1 X147.924 Y49.228 E5.42698
G1 X147.804 Y49.966 E5.4419
G1 X147.606 Y50.688 E5.45684
G1 X147.333 Y51.384 E5.47176
G1 X146.986 Y52.047 E5.48669
G1 X146.571 Y52.669 E5.50162
G1 X146.092 Y53.244 E5.51655
G1 X145.554 Y53.764 E5.53148
G1 X144.964 Y54.223 E5.5464
G1 X144.483 Y54.522 E5.5577
G1 X144.689 Y54.787 E5.5644
G1 X145.084 Y55.423 E5.57934
G1 X145.408 Y56.097 E5.59426
G1 X145.658 Y56.802 E5.60919
G1 X145.832 Y57.53 E5.62413
G1 X145.927 Y58.272 E5.63906
G1 X145.946 Y58.789 E5.64938
G1 X145.946 Y70.069 E5.87449
G1 X145.906 Y70.816 E5.88941
G1 X145.787 Y71.554 E5.90433
G1 X145.589 Y72.276 E5.91927
G1 X145.316 Y72.972 E5.93419
G1 X144.969 Y73.635 E5.94913
G1 X144.554 Y74.258 E5.96406
G1 X144.075 Y74.832 E5.97898
G1 X143.538 Y75.353 E5.99392
G1 X142.948 Y75.812 E6.00883
G1 X142.312 Y76.207 E6.02377
G1 X141.638 Y76.531 E6.0387
G1 X140.933 Y76.781 E6.05362
G1 X140.205 Y76.955 E6.06856
G1 X139.463 Y77.05 E6.08349
G1 X138.946 Y77.069 E6.09381
G1 X137.75 Y77.069 E6.11768
G1 X137.003 Y77.029 E6.13261
G1 X136.265 Y76.91 E6.14753
G1 X135.543 Y76.712 E6.16247
G1 X134.847 Y76.439 E6.17739
G1 X134.184 Y76.092 E6.19232
G1 X133.561 Y75.677 E6.20726
G1 X132.987 Y75.198 E6.22218
G1 X132.466 Y74.661 E6.23711
G1 X132.007 Y74.071 E6.25203
G1 X131.612 Y73.435 E6.26697
G1 X131.288 Y72.761 E6.28189
G1 X131.038 Y72.056 E6.29682
G1 X130.864 Y71.328 E6.31176
G1 X130.769 Y70.586 E6.32669
G1 X130.75 Y70.069 E6.33701
G1 X130.75 Y58.789 E6.56211
G1 X130.79 Y58.042 E6.57704
G1 X130.909 Y57.304 E6.59196
G1 X131.107 Y56.582 E6.6069
G1 X131.38 Y55.886 E6.62182
G1 X131.727 Y55.223 E6.63675
G1 X132.142 Y54.6 E6.65169
G1 X132.621 Y54.026 E6.66661
G1 X133.158 Y53.505 E6.68154
G1 X133.748 Y53.046 E6.69646
G1 X134.29 Y52.709 E6.7092
G1 X134.113 Y52.481 E6.71496
G1 X133.718 Y51.845 E6.7299
G1 X133.394 Y51.171 E6.74482
G1 X133.144 Y50.466 E6.75975
G1 X132.97 Y49.738 E6.77469
G1 X132.875 Y48.996 E6.78961
G1 X132.856 Y48.48 E6.79992
G1 X132.855 Y37.2 E7.02502
G0 F6000 X133.255 Y37.2
G1 F1200 X133.295 Y36.474 E7.03953
G1 X133.414 Y35.758 E7.05402
G1 X133.612 Y35.059 E7.06852
G1 X133.885 Y34.386 E7.08301
G1 X134.23 Y33.747 E7.0975
G1 X134.643 Y33.149 E7.112
G1 X135.12 Y32.601 E7.1265
G1 X135.654 Y32.109 E7.14099
G1 X136.239 Y31.678 E7.15549
G1 X136.867 Y31.314 E7.16998
G1 X137.532 Y31.021 E7.18448
G1 X138.225 Y30.803 E7.19898
G1 X138.938 Y30.663 E7.21348
G1 X139.855 Y30.599 E7.23182
G1 X140.967 Y30.599 E7.25401
G1 X141.692 Y30.639 E7.2685
G1 X142.409 Y30.758 E7.28301
G1 X143.108 Y30.956 E7.29751
G1 X143.781 Y31.229 E7.312
G1 X144.42 Y31.574 E7.32649
G1 X145.017 Y31.988 E7.34099
G1 X145.565 Y32.464 E7.35548
G1 X146.058 Y32.998 E7.36998
G1 X146.488 Y33.583 E7.38447
G1 X146.852 Y34.212 E7.39897
G1 X147.145 Y34.877 E7.41347
G1 X147.363 Y35.57 E7.42797
G1 X147.503 Y36.282 E7.44245
G1 X147.567 Y37.201 E7.46084
G1 X147.564 Y48.481 E7.68594
G1 X147.524 Y49.206 E7.70043
G1 X147.404 Y49.922 E7.71492
G1 X147.207 Y50.621 E7.72941
G1 X146.933 Y51.294 E7.74391
G1 X146.588 Y51.933 E7.7584
G1 X146.174 Y52.53 E7.7729
G1 X145.697 Y53.078 E7.7874
G1 X145.163 Y53.571 E7.8019
G1 X144.578 Y54.001 E7.81639
G1 X143.95 Y54.365 E7.83088
G1 X143.865 Y54.402 E7.83273
G1 X144.037 Y54.588 E7.83778
G1 X144.467 Y55.173 E7.85227
G1 X144.831 Y55.802 E7.86678
G1 X145.124 Y56.467 E7.88128
G1 X145.342 Y57.16 E7.89577
G1 X145.482 Y57.872 E7.91026
G1 X145.546 Y58.789 E7.9286
G1 X145.546 Y70.069 E8.1537
G1 X145.506 Y70.794 E8.16819
G1 X145.387 Y71.511 E8.1827
G1 X145.189 Y72.21 E8.1972
G1 X144.916 Y72.883 E8.21169
G1 X144.571 Y73.522 E8.22618
G1 X144.157 Y74.119 E8.24068
G1 X143.681 Y74.667 E8.25517
G1 X143.147 Y75.16 E8.26967
G1 X142.562 Y75.59 E8.28416
G1 X141.933 Y75.954 E8.29866
G1 X141.268 Y76.247 E8.31316
G1 X140.575 Y76.465 E8.32766
G1 X139.863 Y76.605 E8.34214
G1 X138.946 Y76.669 E8.36049
G1 X137.75 Y76.669 E8.38435
G1 X137.025 Y76.629 E8.39884
G1 X136.308 Y76.51 E8.41335
G1 X135.609 Y76.312 E8.42785
G1 X134.936 Y76.039 E8.44234
G1 X134.297 Y75.694 E8.45683
G1 X133.7 Y75.28 E8.47133
G1 X133.152 Y74.804 E8.48581
G1 X132.659 Y74.27 E8.50032
G1 X132.229 Y73.685 E8.51481
G1 X131.865 Y73.056 E8.52931
G1 X131.572 Y72.391 E8.54381
G1 X131.354 Y71.698 E8.55831
G1 X131.214 Y70.986 E8.57279
G1 X131.15 Y70.069 E8.59113
G1 X131.15 Y58.789 E8.81624
G1 X131.19 Y58.064 E8.83073
G1 X131.309 Y57.347 E8.84523
G1 X131.507 Y56.648 E8.85973
G1 X131.78 Y55.975 E8.87422
G1 X132.125 Y55.336 E8.88872
G1 X132.539 Y54.739 E8.90321
G1 X133.015 Y54.191 E8.9177
G1 X133.549 Y53.698 E8.9322
G1 X134.134 Y53.268 E8.94669
G1 X134.763 Y52.904 E8.96119
G1 X134.911 Y52.839 E8.96442
G1 X134.765 Y52.68 E8.96873
G1 X134.335 Y52.095 E8.98322
G1 X133.971 Y51.466 E8.99772
G1 X133.678 Y50.801 E9.01222
G1 X133.46 Y50.108 E9.02672
G1 X133.32 Y49.396 E9.0412
G1 X133.256 Y48.48 E9.05952
G1 X133.255 Y37.2 E9.28463
G0 F6000 X133.655 Y37.2
G1 F1200 X133.695 Y36.497 E9.29868
G1 X133.814 Y35.803 E9.31273
G1 X134.011 Y35.127 E9.32678
G1 X134.284 Y34.478 E9.34083
G1 X134.628 Y33.864 E9.35488
G1 X135.04 Y33.293 E9.36893
G1 X135.514 Y32.772 E9.38299
G1 X136.044 Y32.309 E9.39703
G1 X136.623 Y31.908 E9.41109
G1 X137.243 Y31.576 E9.42512
G1 X137.898 Y31.316 E9.43918
G1 X138.577 Y31.132 E9.45322
G1 X139.273 Y31.026 E9.46727
G1 X139.855 Y30.999 E9.4789
G1 X140.967 Y30.999 E9.50109
G1 X141.67 Y31.039 E9.51514
G1 X142.364 Y31.158 E9.52919
G1 X143.039 Y31.356 E9.54323
G1 X143.688 Y31.628 E9.55728
G1 X144.302 Y31.973 E9.57133
G1 X144.873 Y32.384 E9.58537
G1 X145.394 Y32.858 E9.59943
G1 X145.858 Y33.388 E9.61348
G1 X146.258 Y33.967 E9.62753
G1 X146.59 Y34.588 E9.64158
G1 X146.85 Y35.242 E9.65563
G1 X147.034 Y35.922 E9.66968
G1 X147.14 Y36.618 E9.68373
G1 X147.167 Y37.201 E9.69538
G1 X147.164 Y48.481 E9.92048
G1 X147.124 Y49.183 E9.93452
G1 X147.004 Y49.877 E9.94857
G1 X146.807 Y50.553 E9.96262
G1 X146.534 Y51.202 E9.97667
G1 X146.189 Y51.816 E9.99073
G1 X145.777 Y52.387 E10.00478
G1 X145.303 Y52.907 E10.01882
G1 X144.773 Y53.371 E10.03288
G1 X144.194 Y53.771 E10.04692
G1 X143.574 Y54.103 E10.06096
G1 X143.17 Y54.263 E10.06963
G1 X143.373 Y54.448 E10.07511
G1 X143.837 Y54.978 E10.08917
G1 X144.237 Y55.557 E10.10321
G1 X144.569 Y56.178 E10.11726
G1 X144.829 Y56.832 E10.13131
G1 X145.013 Y57.512 E10.14537
G1 X145.119 Y58.208 E10.15942
G1 X145.146 Y58.789 E10.17102
G1 X145.146 Y70.069 E10.39613
G1 X145.106 Y70.772 E10.41018
G1 X144.987 Y71.466 E10.42423
G1 X144.789 Y72.141 E10.43827
G1 X144.517 Y72.79 E10.45231
G1 X144.172 Y73.404 E10.46637
G1 X143.761 Y73.975 E10.48041
G1 X143.287 Y74.496 E10.49446
G1 X142.757 Y74.96 E10.50852
G1 X142.178 Y75.36 E10.52256
G1 X141.557 Y75.692 E10.53662
G1 X140.903 Y75.952 E10.55066
G1 X140.223 Y76.136 E10.56472
G1 X139.527 Y76.242 E10.57877
G1 X138.946 Y76.269 E10.59038
G1 X137.75 Y76.269 E10.61424
G1 X137.047 Y76.229 E10.6283
G1 X136.353 Y76.11 E10.64235
G1 X135.678 Y75.912 E10.65638
G1 X135.029 Y75.64 E10.67043
G1 X134.415 Y75.295 E10.68448
G1 X133.844 Y74.884 E10.69852
G1 X133.323 Y74.41 E10.71258
G1 X132.859 Y73.88 E10.72664
G1 X132.459 Y73.301 E10.74068
G1 X132.127 Y72.68 E10.75473
G1 X131.867 Y72.026 E10.76878
G1 X131.683 Y71.346 E10.78284
G1 X131.577 Y70.65 E10.79688
G1 X131.55 Y70.069 E10.80849
G1 X131.55 Y58.789 E11.0336
G1 X131.59 Y58.086 E11.04765
G1 X131.709 Y57.392 E11.0617
G1 X131.907 Y56.717 E11.07574
G1 X132.179 Y56.068 E11.08978
G1 X132.524 Y55.454 E11.10384
G1 X132.935 Y54.883 E11.11788
G1 X133.409 Y54.362 E11.13193
G1 X133.939 Y53.898 E11.14599
G1 X134.518 Y53.498 E11.16003
G1 X135.139 Y53.166 E11.17409
G1 X135.605 Y52.981 E11.18409
G1 X135.429 Y52.82 E11.18885
G1 X134.965 Y52.29 E11.20291
G1 X134.565 Y51.711 E11.21695
G1 X134.233 Y51.09 E11.231
G1 X133.973 Y50.436 E11.24505
G1 X133.789 Y49.756 E11.25911
G1 X133.683 Y49.06 E11.27316
G1 X133.656 Y48.48 E11.28474
G1 X133.655 Y37.2 E11.50985
G0 F6000 X134.055 Y37.2
G1 F1200 X134.095 Y36.52 E11.52344
G1 X134.214 Y35.849 E11.53704
G1 X134.411 Y35.198 E11.55062
G1 X134.683 Y34.574 E11.5642
G1 X135.027 Y33.986 E11.57779
G1 X135.436 Y33.442 E11.59138
G1 X135.907 Y32.95 E11.60497
G1 X136.432 Y32.517 E11.61855
G1 X137.005 Y32.148 E11.63215
G1 X137.616 Y31.848 E11.64573
G1 X138.259 Y31.623 E11.65933
G1 X138.923 Y31.474 E11.67291
G1 X139.855 Y31.399 E11.69157
G1 X140.967 Y31.399 E11.71376
G1 X141.647 Y31.439 E11.72735
G1 X142.317 Y31.558 E11.74093
G1 X142.969 Y31.755 E11.75452
G1 X143.593 Y32.027 E11.76811
G1 X144.181 Y32.371 E11.7817
G1 X144.725 Y32.781 E11.7953
