;FLAVOR:Marlin
;TIME:639
;Filament used: 0.125887m
;Layer height: 0.12
;MINX:109.213
;MINY:103.7
;MINZ:0.12
;MAXX:125.787
;MAXY:131.3
;MAXZ:8.04
;Generated with Cura_SteamEngine 5.0.0
M140 S70
M105
M190 S70
M104 S200
M105
M109 S200
M82 ;absolute extrusion mode
; Ender 3 Custom Start G-code
G92 E0 ; Reset Extruder
G28 ; Home all axes
; G29  bl touch
G1 Z2.0 F3000 ; Move Z Axis up little to prevent scratching of Heat Bed
G1 X0.1 Y20 Z0.3 F5000.0 ; Move to start position
G1 X0.1 Y200.0 Z0.3 F1500.0 E15 ; Draw the first line
G1 X0.4 Y200.0 Z0.3 F5000.0 ; Move to side a little
G1 X0.4 Y20 Z0.3 F1500.0 E30 ; Draw the second line
G92 E0 ; Reset Extruder
G1 Z2.0 F3000 ; Move Z Axis up little to prevent scratching of Heat Bed
G1 X5 Y20 Z0.3 F5000.0 ; Move over to prevent blob squish
G92 E0
G92 E0
G1 F2700 E-5
;LAYER_COUNT:67
;LAYER:0
M107
G0 F6000 X111.636 Y105.85 Z0.12
G0 X109.213 Y111.501
;TYPE:SKIRT
G1 F2700 E0
G1 F1200 X109.253 Y110.712 E0.01577
G1 X109.372 Y109.931 E0.03153
G1 X109.57 Y109.167 E0.04728
G1 X109.844 Y108.426 E0.06305
G1 X110.192 Y107.717 E0.07881
G1 X110.609 Y107.047 E0.09456
G1 X111.092 Y106.422 E0.11032
G1 X111.636 Y105.85 E0.12607
G1 X112.235 Y105.335 E0.14184
G1 X112.883 Y104.883 E0.1576
G1 X113.573 Y104.5 E0.17335
G1 X114.298 Y104.188 E0.1891
G1 X115.052 Y103.951 E0.20488
G1 X115.825 Y103.791 E0.22063
G1 X116.611 Y103.71 E0.2364
G1 X117.013 Y103.7 E0.24442
G1 X117.987 Y103.7 E0.26386
G1 X118.776 Y103.74 E0.27963
G1 X119.556 Y103.859 E0.29537
G1 X120.321 Y104.057 E0.31114
G1 X121.061 Y104.331 E0.32689
G1 X121.77 Y104.679 E0.34265
G1 X122.441 Y105.097 E0.35843
G1 X123.065 Y105.58 E0.37417
G1 X123.638 Y106.123 E0.38993
G1 X124.153 Y106.722 E0.40569
G1 X124.604 Y107.37 E0.42145
G1 X124.988 Y108.061 E0.43722
G1 X125.3 Y108.786 E0.45297
G1 X125.537 Y109.539 E0.46873
G1 X125.696 Y110.313 E0.4845
G1 X125.777 Y111.098 E0.50024
G1 X125.787 Y111.5 E0.50827
G1 X125.787 Y123.5 E0.74774
G1 X125.747 Y124.289 E0.76351
G1 X125.628 Y125.069 E0.77925
G1 X125.43 Y125.834 E0.79502
G1 X125.156 Y126.574 E0.81077
G1 X124.808 Y127.283 E0.82653
G1 X124.39 Y127.954 E0.84231
G1 X123.907 Y128.578 E0.85806
G1 X123.364 Y129.151 E0.87381
G1 X122.765 Y129.666 E0.88957
G1 X122.117 Y130.117 E0.90533
G1 X121.426 Y130.501 E0.9211
G1 X120.701 Y130.813 E0.93686
G1 X119.948 Y131.05 E0.95261
G1 X119.174 Y131.209 E0.96838
G1 X118.389 Y131.29 E0.98413
G1 X117.987 Y131.3 E0.99215
G1 X117.014 Y131.3 E1.01157
G1 X116.225 Y131.26 E1.02733
G1 X115.445 Y131.141 E1.04308
G1 X114.68 Y130.943 E1.05885
G1 X113.94 Y130.669 E1.0746
G1 X113.231 Y130.321 E1.09036
G1 X112.56 Y129.903 E1.10613
G1 X111.936 Y129.42 E1.12188
G1 X111.363 Y128.877 E1.13763
G1 X110.848 Y128.278 E1.1534
G1 X110.397 Y127.63 E1.16915
G1 X110.013 Y126.939 E1.18493
G1 X109.701 Y126.214 E1.20068
G1 X109.464 Y125.461 E1.21643
G1 X109.305 Y124.687 E1.2322
G1 X109.224 Y123.902 E1.24795
G1 X109.214 Y123.501 E1.25596
G1 X109.213 Y111.501 E1.49543
G0 F6000 X109.613 Y111.501
G1 F1200 X109.653 Y110.732 E1.5108
G1 X109.772 Y109.973 E1.52613
G1 X109.97 Y109.229 E1.54149
G1 X110.244 Y108.511 E1.55683
G1 X110.591 Y107.824 E1.57219
G1 X111.007 Y107.177 E1.58754
G1 X111.488 Y106.577 E1.60288
G1 X112.029 Y106.03 E1.61824
G1 X112.623 Y105.542 E1.63358
G1 X113.266 Y105.119 E1.64894
G1 X113.948 Y104.765 E1.66427
G1 X114.664 Y104.483 E1.67963
G1 X115.405 Y104.277 E1.69498
G1 X116.163 Y104.149 E1.71032
G1 X117.013 Y104.1 E1.72731
G1 X117.987 Y104.1 E1.74675
G1 X118.755 Y104.14 E1.76209
G1 X119.515 Y104.259 E1.77745
G1 X120.258 Y104.457 E1.79279
G1 X120.977 Y104.731 E1.80815
G1 X121.663 Y105.078 E1.82349
G1 X122.31 Y105.494 E1.83884
G1 X122.91 Y105.975 E1.85418
G1 X123.457 Y106.516 E1.86954
G1 X123.945 Y107.111 E1.88489
G1 X124.368 Y107.753 E1.90024
G1 X124.723 Y108.436 E1.9156
G1 X125.004 Y109.151 E1.93093
G1 X125.21 Y109.893 E1.9463
G1 X125.338 Y110.651 E1.96164
G1 X125.387 Y111.5 E1.97861
G1 X125.387 Y123.5 E2.21808
G1 X125.347 Y124.268 E2.23343
G1 X125.228 Y125.028 E2.24878
G1 X125.03 Y125.771 E2.26412
G1 X124.756 Y126.49 E2.27948
G1 X124.409 Y127.176 E2.29482
G1 X123.993 Y127.823 E2.31017
G1 X123.512 Y128.423 E2.32552
G1 X122.971 Y128.97 E2.34087
G1 X122.376 Y129.458 E2.35623
G1 X121.734 Y129.881 E2.37157
G1 X121.051 Y130.236 E2.38693
G1 X120.336 Y130.517 E2.40226
G1 X119.594 Y130.723 E2.41763
G1 X118.836 Y130.851 E2.43297
G1 X117.987 Y130.9 E2.44994
G1 X117.014 Y130.9 E2.46936
G1 X116.246 Y130.86 E2.4847
G1 X115.486 Y130.741 E2.50006
G1 X114.743 Y130.543 E2.5154
G1 X114.024 Y130.269 E2.53076
G1 X113.338 Y129.922 E2.5461
G1 X112.691 Y129.506 E2.56145
G1 X112.091 Y129.025 E2.57679
G1 X111.544 Y128.484 E2.59215
G1 X111.056 Y127.889 E2.6075
G1 X110.633 Y127.247 E2.62285
G1 X110.278 Y126.564 E2.63821
G1 X109.997 Y125.849 E2.65354
G1 X109.791 Y125.107 E2.66891
G1 X109.663 Y124.349 E2.68425
G1 X109.614 Y123.501 E2.7012
G1 X109.613 Y111.501 E2.94067
G0 F6000 X110.013 Y111.501
G1 F1200 X110.053 Y110.754 E2.9556
G1 X110.172 Y110.015 E2.97054
G1 X110.37 Y109.294 E2.98546
G1 X110.643 Y108.597 E3.0004
G1 X110.989 Y107.934 E3.01532
G1 X111.404 Y107.312 E3.03024
G1 X111.883 Y106.737 E3.04518
G1 X112.421 Y106.217 E3.06011
G1 X113.011 Y105.757 E3.07504
G1 X113.647 Y105.363 E3.08997
G1 X114.321 Y105.038 E3.1049
G1 X115.026 Y104.788 E3.11983
G1 X115.753 Y104.614 E3.13475
G1 X116.495 Y104.519 E3.14967
G1 X117.013 Y104.5 E3.16002
G1 X117.987 Y104.5 E3.17946
G1 X118.734 Y104.54 E3.19438
G1 X119.472 Y104.659 E3.2093
G1 X120.194 Y104.857 E3.22424
G1 X120.89 Y105.13 E3.23916
G1 X121.553 Y105.477 E3.2541
G1 X122.176 Y105.892 E3.26903
G1 X122.75 Y106.371 E3.28395
G1 X123.271 Y106.908 E3.29889
G1 X123.73 Y107.498 E3.3138
G1 X124.125 Y108.134 E3.32874
G1 X124.449 Y108.808 E3.34367
G1 X124.699 Y109.513 E3.35859
G1 X124.873 Y110.241 E3.37353
G1 X124.968 Y110.983 E3.38846
G1 X124.987 Y111.5 E3.39878
G1 X124.987 Y123.5 E3.63826
G1 X124.947 Y124.247 E3.65319
G1 X124.828 Y124.985 E3.6681
G1 X124.63 Y125.707 E3.68304
G1 X124.357 Y126.403 E3.69796
G1 X124.01 Y127.066 E3.7129
G1 X123.595 Y127.689 E3.72784
G1 X123.116 Y128.263 E3.74275
G1 X122.579 Y128.784 E3.75769
G1 X121.989 Y129.243 E3.7726
G1 X121.353 Y129.638 E3.78754
G1 X120.679 Y129.962 E3.80247
G1 X119.974 Y130.212 E3.8174
G1 X119.246 Y130.386 E3.83233
G1 X118.504 Y130.481 E3.84726
G1 X117.987 Y130.5 E3.85759
G1 X117.014 Y130.5 E3.877
G1 X116.267 Y130.46 E3.89193
G1 X115.529 Y130.341 E3.90685
G1 X114.807 Y130.143 E3.92179
G1 X114.111 Y129.87 E3.93671
G1 X113.448 Y129.523 E3.95164
G1 X112.825 Y129.108 E3.96658
G1 X112.251 Y128.629 E3.9815
G1 X111.73 Y128.092 E3.99643
G1 X111.271 Y127.502 E4.01135
G1 X110.876 Y126.866 E4.02629
G1 X110.552 Y126.192 E4.04121
G1 X110.302 Y125.487 E4.05614
G1 X110.128 Y124.759 E4.07108
G1 X110.033 Y124.017 E4.08601
G1 X110.014 Y123.501 E4.09631
G1 X110.013 Y111.501 E4.33578
G0 F6000 X110.413 Y111.501
G1 F1200 X110.453 Y110.775 E4.35029
G1 X110.572 Y110.059 E4.36478
G1 X110.77 Y109.36 E4.37928
G1 X111.043 Y108.687 E4.39377
G1 X111.388 Y108.048 E4.40826
G1 X111.801 Y107.45 E4.42276
G1 X112.278 Y106.902 E4.43726
G1 X112.812 Y106.41 E4.45175
G1 X113.397 Y105.979 E4.46625
G1 X114.025 Y105.615 E4.48074
G1 X114.69 Y105.322 E4.49524
G1 X115.383 Y105.104 E4.50974
G1 X116.096 Y104.964 E4.52424
G1 X117.013 Y104.9 E4.54258
G1 X117.987 Y104.9 E4.56202
G1 X118.712 Y104.94 E4.57651
G1 X119.429 Y105.059 E4.59102
G1 X120.128 Y105.257 E4.60551
G1 X120.801 Y105.53 E4.62001
G1 X121.44 Y105.875 E4.6345
G1 X122.037 Y106.289 E4.649
G1 X122.585 Y106.765 E4.66348
G1 X123.078 Y107.299 E4.67799
G1 X123.508 Y107.884 E4.69247
G1 X123.872 Y108.513 E4.70698
G1 X124.165 Y109.178 E4.72148
G1 X124.383 Y109.871 E4.73598
G1 X124.523 Y110.583 E4.75046
G1 X124.587 Y111.5 E4.7688
G1 X124.587 Y123.5 E5.00827
G1 X124.547 Y124.225 E5.02276
G1 X124.428 Y124.942 E5.03727
G1 X124.23 Y125.641 E5.05177
G1 X123.957 Y126.314 E5.06626
G1 X123.612 Y126.953 E5.08075
G1 X123.198 Y127.55 E5.09525
G1 X122.722 Y128.098 E5.10974
G1 X122.188 Y128.591 E5.12424
G1 X121.603 Y129.021 E5.13873
G1 X120.974 Y129.385 E5.15323
G1 X120.309 Y129.678 E5.16773
G1 X119.616 Y129.896 E5.18223
G1 X118.904 Y130.036 E5.19671
G1 X117.987 Y130.1 E5.21506
G1 X117.014 Y130.1 E5.23447
G1 X116.289 Y130.06 E5.24896
G1 X115.572 Y129.941 E5.26347
G1 X114.873 Y129.743 E5.27797
G1 X114.2 Y129.47 E5.29246
G1 X113.561 Y129.125 E5.30695
G1 X112.964 Y128.711 E5.32145
G1 X112.416 Y128.235 E5.33593
G1 X111.923 Y127.701 E5.35044
G1 X111.493 Y127.116 E5.36493
G1 X111.129 Y126.487 E5.37943
G1 X110.836 Y125.822 E5.39393
G1 X110.618 Y125.129 E5.40843
G1 X110.478 Y124.417 E5.42291
G1 X110.414 Y123.501 E5.44123
G1 X110.413 Y111.501 E5.68071
G0 F6000 X110.813 Y111.501
G1 F1200 X110.853 Y110.798 E5.69476
G1 X110.972 Y110.104 E5.70881
G1 X111.169 Y109.428 E5.72286
G1 X111.442 Y108.779 E5.73691
G1 X111.786 Y108.165 E5.75096
G1 X112.198 Y107.594 E5.76501
G1 X112.672 Y107.073 E5.77907
G1 X113.202 Y106.61 E5.79311
G1 X113.781 Y106.209 E5.80716
G1 X114.401 Y105.877 E5.8212
G1 X115.056 Y105.617 E5.83526
G1 X115.735 Y105.433 E5.8493
G1 X116.431 Y105.327 E5.86335
G1 X117.013 Y105.3 E5.87498
G1 X117.987 Y105.3 E5.89442
G1 X118.69 Y105.34 E5.90847
G1 X119.384 Y105.459 E5.92252
G1 X120.059 Y105.657 E5.93656
G1 X120.708 Y105.929 E5.9506
G1 X121.322 Y106.274 E5.96465
G1 X121.893 Y106.685 E5.97869
G1 X122.414 Y107.159 E5.99275
G1 X122.878 Y107.689 E6.00681
G1 X123.278 Y108.268 E6.02085
G1 X123.61 Y108.889 E6.0349
G1 X123.87 Y109.543 E6.04895
G1 X124.054 Y110.223 E6.06301
G1 X124.16 Y110.919 E6.07706
G1 X124.187 Y111.5 E6.08866
G1 X124.187 Y123.5 E6.32814
G1 X124.147 Y124.203 E6.34219
G1 X124.028 Y124.897 E6.35624
G1 X123.83 Y125.572 E6.37028
G1 X123.558 Y126.221 E6.38432
G1 X123.213 Y126.835 E6.39838
G1 X122.802 Y127.406 E6.41242
G1 X122.328 Y127.927 E6.42647
G1 X121.798 Y128.391 E6.44053
G1 X121.219 Y128.791 E6.45457
G1 X120.598 Y129.123 E6.46863
G1 X119.944 Y129.383 E6.48267
G1 X119.264 Y129.567 E6.49673
G1 X118.568 Y129.673 E6.51078
G1 X117.987 Y129.7 E6.52239
G1 X117.014 Y129.7 E6.5418
G1 X116.311 Y129.66 E6.55585
G1 X115.617 Y129.541 E6.56991
G1 X114.942 Y129.343 E6.58394
G1 X114.293 Y129.071 E6.59799
G1 X113.679 Y128.726 E6.61204
G1 X113.108 Y128.315 E6.62608
G1 X112.587 Y127.841 E6.64014
G1 X112.123 Y127.311 E6.65419
G1 X111.723 Y126.732 E6.66824
G1 X111.391 Y126.111 E6.68229
G1 X111.131 Y125.457 E6.69634
G1 X110.947 Y124.777 E6.71039
G1 X110.841 Y124.081 E6.72444
G1 X110.814 Y123.501 E6.73603
G1 X110.813 Y111.501 E6.9755
G0 F6000 X111.213 Y111.5
G1 F1200 X111.253 Y110.821 E6.98908
G1 X111.372 Y110.15 E7.00268
G1 X111.569 Y109.499 E7.01625
G1 X111.841 Y108.874 E7.02985
G1 X112.185 Y108.287 E7.04343
G1 X112.594 Y107.743 E7.05701
G1 X113.065 Y107.251 E7.0706
G1 X113.59 Y106.818 E7.08419
G1 X114.163 Y106.449 E7.09779
G1 X114.774 Y106.149 E7.11137
G1 X115.417 Y105.924 E7.12496
G1 X116.081 Y105.775 E7.13854
G1 X117.013 Y105.7 E7.1572
G1 X117.987 Y105.7 E7.17664
G1 X118.667 Y105.74 E7.19023
G1 X119.337 Y105.859 E7.20381
G1 X119.989 Y106.056 E7.21741
G1 X120.613 Y106.328 E7.23099
G1 X121.201 Y106.672 E7.24459
G1 X121.745 Y107.082 E7.25818
G1 X122.236 Y107.553 E7.27176
G1 X122.67 Y108.078 E7.28535
G1 X123.039 Y108.65 E7.29894
G1 X123.338 Y109.262 E7.31253
G1 X123.563 Y109.904 E7.3261
G1 X123.712 Y110.569 E7.3397
G1 X123.787 Y111.5 E7.35834
G1 X123.787 Y123.5 E7.59782
G1 X123.747 Y124.18 E7.61141
G1 X123.628 Y124.85 E7.62499
G1 X123.431 Y125.502 E7.63858
G1 X123.159 Y126.126 E7.65217
G1 X122.815 Y126.714 E7.66576
G1 X122.405 Y127.258 E7.67935
G1 X121.934 Y127.749 E7.69293
G1 X121.409 Y128.183 E7.70653
G1 X120.837 Y128.552 E7.72011
G1 X120.225 Y128.851 E7.7337
G1 X119.583 Y129.076 E7.74728
G1 X118.918 Y129.225 E7.76088
G1 X117.987 Y129.3 E7.77952
G1 X117.014 Y129.3 E7.79893
G1 X116.334 Y129.26 E7.81253
G1 X115.664 Y129.141 E7.82611
G1 X115.012 Y128.944 E7.8397
G1 X114.388 Y128.672 E7.85328
G1 X113.8 Y128.328 E7.86688
G1 X113.256 Y127.918 E7.88047
G1 X112.765 Y127.447 E7.89405
G1 X112.331 Y126.922 E7.90764
G1 X111.962 Y126.35 E7.92123
G1 X111.663 Y125.738 E7.93482
G1 X111.438 Y125.096 E7.9484
G1 X111.289 Y124.431 E7.962
G1 X111.214 Y123.5 E7.98064
G1 X111.213 Y111.5 E8.22011
G0 F6000 X111.613 Y111.5
G1 F1200 X111.653 Y110.845 E8.23321
G1 X111.772 Y110.199 E8.24631
G1 X111.969 Y109.572 E8.25943
G1 X112.24 Y108.974 E8.27253
G1 X112.583 Y108.413 E8.28565
G1 X112.99 Y107.898 E8.29875
G1 X113.457 Y107.436 E8.31186
G1 X113.977 Y107.034 E8.32498
G1 X114.542 Y106.698 E8.3381
G1 X115.143 Y106.434 E8.3512
G1 X115.772 Y106.244 E8.36431
G1 X116.42 Y106.133 E8.37743
G1 X117.013 Y106.1 E8.38928
G1 X117.987 Y106.1 E8.40872
G1 X118.643 Y106.14 E8.42183
G1 X119.289 Y106.259 E8.43494
G1 X119.916 Y106.456 E8.44806
G1 X120.514 Y106.728 E8.46117
G1 X121.075 Y107.07 E8.47428
G1 X121.59 Y107.478 E8.48739
G1 X122.052 Y107.945 E8.5005
G1 X122.453 Y108.465 E8.51361
G1 X122.789 Y109.029 E8.52671
G1 X123.053 Y109.631 E8.53982
G1 X123.243 Y110.26 E8.55294
G1 X123.354 Y110.907 E8.56604
G1 X123.387 Y111.5 E8.57789
G1 X123.387 Y123.5 E8.81736
G1 X123.347 Y124.156 E8.83048
G1 X123.228 Y124.802 E8.84359
G1 X123.031 Y125.429 E8.8567
G1 X122.759 Y126.027 E8.86981
G1 X122.417 Y126.588 E8.88292
G1 X122.009 Y127.103 E8.89604
G1 X121.542 Y127.565 E8.90915
G1 X121.022 Y127.966 E8.92225
G1 X120.458 Y128.302 E8.93535
G1 X119.856 Y128.566 E8.94847
G1 X119.227 Y128.756 E8.96158
G1 X118.58 Y128.867 E8.97468
G1 X117.987 Y128.9 E8.98653
G1 X117.014 Y128.9 E9.00595
G1 X116.358 Y128.86 E9.01907
G1 X115.712 Y128.741 E9.03217
G1 X115.085 Y128.544 E9.04529
G1 X114.487 Y128.272 E9.0584
G1 X113.926 Y127.93 E9.07151
G1 X113.411 Y127.522 E9.08462
G1 X112.949 Y127.055 E9.09773
G1 X112.548 Y126.535 E9.11084
G1 X112.212 Y125.971 E9.12394
G1 X111.948 Y125.369 E9.13706
G1 X111.758 Y124.74 E9.15017
G1 X111.647 Y124.093 E9.16327
G1 X111.614 Y123.5 E9.17512
G1 X111.613 Y111.5 E9.4146
G0 F6000 X112.013 Y111.5
G1 F1200 X112.053 Y110.87 E9.42719
G1 X112.172 Y110.249 E9.43981
G1 X112.369 Y109.648 E9.45243
G1 X112.639 Y109.077 E9.46504
G1 X112.98 Y108.544 E9.47766
G1 X113.385 Y108.059 E9.49027
G1 X113.848 Y107.629 E9.50288
G1 X114.362 Y107.26 E9.51551
G1 X114.918 Y106.96 E9.52812
G1 X115.508 Y106.732 E9.54074
G1 X116.122 Y106.58 E9.55336
G1 X117.013 Y106.5 E9.57122
G1 X117.987 Y106.5 E9.59065
G1 X118.618 Y106.54 E9.60327
G1 X119.239 Y106.659 E9.61589
G1 X119.839 Y106.856 E9.62849
G1 X120.411 Y107.127 E9.64112
G1 X120.943 Y107.467 E9.65372
G1 X121.428 Y107.873 E9.66634
G1 X121.858 Y108.336 E9.67895
G1 X122.227 Y108.85 E9.69158
G1 X122.527 Y109.406 E9.70419
G1 X122.755 Y109.995 E9.71679
G1 X122.907 Y110.609 E9.72942
G1 X122.987 Y111.5 E9.74727
G1 X122.987 Y123.5 E9.98674
G1 X122.947 Y124.131 E9.99936
G1 X122.828 Y124.752 E10.01198
G1 X122.631 Y125.352 E10.02458
G1 X122.36 Y125.924 E10.03721
G1 X122.02 Y126.456 E10.04981
G1 X121.614 Y126.941 E10.06243
G1 X121.151 Y127.371 E10.07504
G1 X120.637 Y127.74 E10.08767
G1 X120.081 Y128.04 E10.10028
G1 X119.492 Y128.268 E10.11288
G1 X118.878 Y128.42 E10.1255
G1 X117.987 Y128.5 E10.14336
G1 X117.014 Y128.5 E10.16277
G1 X116.383 Y128.46 E10.17539
G1 X115.762 Y128.341 E10.18801
G1 X115.162 Y128.144 E10.20061
G1 X114.59 Y127.873 E10.21324
G1 X114.058 Y127.533 E10.22584
G1 X113.573 Y127.127 E10.23847
G1 X113.143 Y126.664 E10.25108
G1 X112.774 Y126.15 E10.2637
G1 X112.474 Y125.594 E10.27631
G1 X112.246 Y125.005 E10.28891
G1 X112.094 Y124.391 E10.30154
G1 X112.014 Y123.5 E10.31939
G1 X112.013 Y111.5 E10.55886
G0 F6000 X112.413 Y111.5
G1 F1200 X112.453 Y110.895 E10.57096
G1 X112.572 Y110.301 E10.58305
G1 X112.768 Y109.727 E10.59516
G1 X113.038 Y109.184 E10.60726
G1 X113.377 Y108.682 E10.61935
G1 X113.78 Y108.228 E10.63146
G1 X114.238 Y107.831 E10.64356
G1 X114.745 Y107.498 E10.65566
G1 X115.291 Y107.235 E10.66776
G1 X115.867 Y107.045 E10.67986
G1 X116.462 Y106.933 E10.69194
G1 X117.013 Y106.9 E10.70296
G1 X117.987 Y106.9 E10.72239
G1 X118.592 Y106.94 E10.73449
G1 X119.186 Y107.059 E10.74658
G1 X119.76 Y107.255 E10.75869
G1 X120.303 Y107.526 E10.7708
G1 X120.806 Y107.865 E10.7829
G1 X121.259 Y108.267 E10.79499
G1 X121.656 Y108.725 E10.80709
G1 X121.989 Y109.232 E10.81919
