;FLAVOR:Marlin
;TIME:11016
;Filament used: 4.60123m
;Layer height: 0.12
;MINX:105.9
;MINY:33.7
;MINZ:0.12
;MAXX:129.1
;MAXY:201.3
;MAXZ:23.52
;Generated with Cura_SteamEngine 5.0.0
M140 S70
M105
M190 S70
M104 S200
M105
M109 S200
M82 ;absolute extrusion mode
; Ender 3 Custom Start G-code
G92 E0 ; Reset Extruder
G28 ; Home all axes
; G29  bl touch
G1 Z2.0 F3000 ; Move Z Axis up little to prevent scratching of Heat Bed
G1 X0.1 Y20 Z0.3 F5000.0 ; Move to start position
G1 X0.1 Y200.0 Z0.3 F1500.0 E15 ; Draw the first line
G1 X0.4 Y200.0 Z0.3 F5000.0 ; Move to side a little
G1 X0.4 Y20 Z0.3 F1500.0 E30 ; Draw the second line
G92 E0 ; Reset Extruder
G1 Z2.0 F3000 ; Move Z Axis up little to prevent scratching of Heat Bed
G1 X5 Y20 Z0.3 F5000.0 ; Move over to prevent blob squish
G92 E0
G92 E0
G1 F2700 E-5
;LAYER_COUNT:200
;LAYER:0
M107
G0 F6000 X106.257 Y39.166 Z0.12
G0 X105.9 Y41.5
;TYPE:SKIRT
G1 F2700 E0
G1 F1200 X105.94 Y40.711 E0.01577
G1 X106.059 Y39.931 E0.03151
G1 X106.257 Y39.166 E0.04728
G1 X106.531 Y38.426 E0.06303
G1 X106.879 Y37.717 E0.07879
G1 X107.297 Y37.046 E0.09457
G1 X107.78 Y36.422 E0.11031
G1 X108.323 Y35.849 E0.12607
G1 X108.922 Y35.334 E0.14183
G1 X109.57 Y34.883 E0.15759
G1 X110.261 Y34.499 E0.17336
G1 X110.986 Y34.187 E0.18911
G1 X111.739 Y33.95 E0.20487
G1 X112.513 Y33.791 E0.22064
G1 X113.298 Y33.71 E0.23638
G1 X113.7 Y33.7 E0.24441
G1 X121.3 Y33.7 E0.39608
G1 X122.089 Y33.74 E0.41184
G1 X122.869 Y33.859 E0.42759
G1 X123.634 Y34.057 E0.44336
G1 X124.374 Y34.331 E0.4591
G1 X125.083 Y34.679 E0.47486
G1 X125.754 Y35.097 E0.49064
G1 X126.378 Y35.58 E0.50639
G1 X126.951 Y36.123 E0.52214
G1 X127.466 Y36.722 E0.53791
G1 X127.917 Y37.37 E0.55366
G1 X128.301 Y38.061 E0.56944
G1 X128.613 Y38.786 E0.58519
G1 X128.85 Y39.539 E0.60094
G1 X129.009 Y40.313 E0.61671
G1 X129.09 Y41.098 E0.63246
G1 X129.1 Y41.5 E0.64048
G1 X129.095 Y193.5 E3.67381
G1 X129.055 Y194.289 E3.68957
G1 X128.935 Y195.07 E3.70534
G1 X128.738 Y195.834 E3.72109
G1 X128.463 Y196.575 E3.73686
G1 X128.116 Y197.284 E3.75261
G1 X127.698 Y197.954 E3.76837
G1 X127.215 Y198.579 E3.78414
G1 X126.671 Y199.151 E3.79989
G1 X126.072 Y199.666 E3.81565
G1 X125.424 Y200.117 E3.83141
G1 X124.734 Y200.501 E3.84717
G1 X124.009 Y200.813 E3.86292
G1 X123.255 Y201.05 E3.87869
G1 X122.482 Y201.209 E3.89444
G1 X121.696 Y201.29 E3.91021
G1 X121.295 Y201.3 E3.91821
G1 X113.7 Y201.3 E4.06978
G1 X112.911 Y201.26 E4.08554
G1 X112.131 Y201.141 E4.10129
G1 X111.366 Y200.943 E4.11706
G1 X110.626 Y200.669 E4.13281
G1 X109.917 Y200.321 E4.14857
G1 X109.246 Y199.903 E4.16434
G1 X108.622 Y199.42 E4.18009
G1 X108.049 Y198.877 E4.19585
G1 X107.534 Y198.278 E4.21161
G1 X107.083 Y197.63 E4.22736
G1 X106.699 Y196.939 E4.24314
G1 X106.387 Y196.214 E4.25889
G1 X106.15 Y195.461 E4.27465
G1 X105.991 Y194.687 E4.29041
G1 X105.91 Y193.902 E4.30616
G1 X105.9 Y193.5 E4.31419
G1 X105.9 Y41.5 E7.34751
G0 F6000 X106.3 Y41.5
G1 F1200 X106.34 Y40.732 E7.36286
G1 X106.459 Y39.972 E7.37821
G1 X106.657 Y39.229 E7.39356
G1 X106.931 Y38.51 E7.40891
G1 X107.278 Y37.824 E7.42425
G1 X107.694 Y37.177 E7.4396
G1 X108.175 Y36.577 E7.45495
G1 X108.716 Y36.03 E7.4703
G1 X109.311 Y35.542 E7.48566
G1 X109.953 Y35.119 E7.501
G1 X110.636 Y34.764 E7.51636
G1 X111.351 Y34.483 E7.53169
G1 X112.093 Y34.277 E7.54706
G1 X112.851 Y34.149 E7.5624
G1 X113.7 Y34.1 E7.57937
G1 X121.3 Y34.1 E7.73104
G1 X122.068 Y34.14 E7.74639
G1 X122.828 Y34.259 E7.76174
G1 X123.571 Y34.457 E7.77708
G1 X124.29 Y34.731 E7.79244
G1 X124.976 Y35.078 E7.80778
G1 X125.623 Y35.494 E7.82313
G1 X126.223 Y35.975 E7.83847
G1 X126.77 Y36.516 E7.85383
G1 X127.258 Y37.111 E7.86918
G1 X127.681 Y37.753 E7.88453
G1 X128.036 Y38.436 E7.89989
G1 X128.317 Y39.151 E7.91522
G1 X128.523 Y39.893 E7.93059
G1 X128.651 Y40.651 E7.94593
G1 X128.7 Y41.5 E7.9629
G1 X128.695 Y193.5 E10.99622
G1 X128.655 Y194.268 E11.01157
G1 X128.535 Y195.028 E11.02692
G1 X128.338 Y195.771 E11.04226
G1 X128.064 Y196.49 E11.05762
G1 X127.717 Y197.177 E11.07298
G1 X127.301 Y197.823 E11.08831
G1 X126.819 Y198.423 E11.10367
G1 X126.279 Y198.97 E11.11901
G1 X125.684 Y199.458 E11.13437
G1 X125.042 Y199.881 E11.14971
G1 X124.359 Y200.236 E11.16507
G1 X123.643 Y200.518 E11.18043
G1 X122.902 Y200.723 E11.19577
G1 X122.144 Y200.851 E11.21111
G1 X121.295 Y200.9 E11.22808
G1 X113.7 Y200.9 E11.37965
G1 X112.932 Y200.86 E11.395
G1 X112.172 Y200.741 E11.41035
G1 X111.429 Y200.543 E11.42569
G1 X110.71 Y200.269 E11.44105
G1 X110.024 Y199.922 E11.45639
G1 X109.377 Y199.506 E11.47174
G1 X108.777 Y199.025 E11.48708
G1 X108.23 Y198.484 E11.50244
G1 X107.742 Y197.889 E11.51779
G1 X107.319 Y197.247 E11.53314
G1 X106.964 Y196.564 E11.5485
G1 X106.683 Y195.849 E11.56383
G1 X106.477 Y195.107 E11.5792
G1 X106.349 Y194.349 E11.59454
G1 X106.3 Y193.5 E11.61151
G1 X106.3 Y41.5 E14.64483
G0 F6000 X106.7 Y41.5
G1 F1200 X106.74 Y40.753 E14.65976
G1 X106.859 Y40.015 E14.67468
G1 X107.057 Y39.293 E14.68962
G1 X107.33 Y38.597 E14.70454
G1 X107.677 Y37.934 E14.71947
G1 X108.092 Y37.311 E14.73441
G1 X108.571 Y36.737 E14.74933
G1 X109.108 Y36.216 E14.76426
G1 X109.698 Y35.757 E14.77918
G1 X110.334 Y35.362 E14.79412
G1 X111.008 Y35.038 E14.80904
G1 X111.713 Y34.788 E14.82397
G1 X112.441 Y34.614 E14.83891
G1 X113.183 Y34.519 E14.85384
G1 X113.7 Y34.5 E14.86416
G1 X121.3 Y34.5 E15.01583
G1 X122.047 Y34.54 E15.03076
G1 X122.785 Y34.659 E15.04567
G1 X123.507 Y34.857 E15.06061
G1 X124.203 Y35.13 E15.07553
G1 X124.866 Y35.477 E15.09047
G1 X125.489 Y35.892 E15.10541
G1 X126.063 Y36.371 E15.12032
G1 X126.584 Y36.908 E15.13526
G1 X127.043 Y37.498 E15.15017
G1 X127.438 Y38.134 E15.16511
G1 X127.762 Y38.808 E15.18004
G1 X128.012 Y39.513 E15.19497
G1 X128.186 Y40.241 E15.2099
G1 X128.281 Y40.983 E15.22483
G1 X128.3 Y41.5 E15.23516
G1 X128.295 Y193.5 E18.26848
G1 X128.255 Y194.247 E18.28341
G1 X128.136 Y194.986 E18.29835
G1 X127.938 Y195.707 E18.31327
G1 X127.664 Y196.403 E18.32819
G1 X127.318 Y197.067 E18.34314
G1 X126.903 Y197.689 E18.35806
G1 X126.424 Y198.264 E18.37299
G1 X125.887 Y198.784 E18.38791
G1 X125.297 Y199.244 E18.40284
G1 X124.661 Y199.638 E18.41777
G1 X123.987 Y199.962 E18.43269
G1 X123.282 Y200.212 E18.44762
G1 X122.554 Y200.386 E18.46256
G1 X121.812 Y200.481 E18.47749
G1 X121.295 Y200.5 E18.48781
G1 X113.7 Y200.5 E18.63938
G1 X112.953 Y200.46 E18.65431
G1 X112.215 Y200.341 E18.66922
G1 X111.493 Y200.143 E18.68416
G1 X110.797 Y199.87 E18.69908
G1 X110.134 Y199.523 E18.71402
G1 X109.511 Y199.108 E18.72895
G1 X108.937 Y198.629 E18.74387
G1 X108.416 Y198.092 E18.75881
G1 X107.957 Y197.502 E18.77372
G1 X107.562 Y196.866 E18.78866
G1 X107.238 Y196.192 E18.80359
G1 X106.988 Y195.487 E18.81851
G1 X106.814 Y194.759 E18.83345
G1 X106.719 Y194.017 E18.84838
G1 X106.7 Y193.5 E18.8587
G1 X106.7 Y41.5 E21.89203
G0 F6000 X107.1 Y41.5
G1 F1200 X107.14 Y40.775 E21.90652
G1 X107.259 Y40.058 E21.92102
G1 X107.457 Y39.359 E21.93552
G1 X107.73 Y38.686 E21.95001
G1 X108.075 Y38.047 E21.96451
G1 X108.489 Y37.45 E21.979
G1 X108.965 Y36.902 E21.99349
G1 X109.499 Y36.409 E22.00799
G1 X110.084 Y35.979 E22.02248
G1 X110.713 Y35.615 E22.03699
G1 X111.378 Y35.322 E22.05149
G1 X112.071 Y35.104 E22.06598
G1 X112.783 Y34.964 E22.08047
G1 X113.7 Y34.9 E22.09881
G1 X121.3 Y34.9 E22.25048
G1 X122.025 Y34.94 E22.26497
G1 X122.742 Y35.059 E22.27947
G1 X123.441 Y35.257 E22.29397
G1 X124.114 Y35.53 E22.30846
G1 X124.753 Y35.875 E22.32295
G1 X125.35 Y36.289 E22.33745
G1 X125.898 Y36.765 E22.35194
G1 X126.391 Y37.299 E22.36644
G1 X126.821 Y37.884 E22.38093
G1 X127.185 Y38.513 E22.39543
G1 X127.478 Y39.178 E22.40993
G1 X127.696 Y39.871 E22.42443
G1 X127.836 Y40.583 E22.43891
G1 X127.9 Y41.5 E22.45726
G1 X127.895 Y193.5 E25.49058
G1 X127.855 Y194.225 E25.50507
G1 X127.736 Y194.942 E25.51958
G1 X127.538 Y195.641 E25.53407
G1 X127.265 Y196.314 E25.54857
G1 X126.92 Y196.953 E25.56306
G1 X126.506 Y197.55 E25.57756
G1 X126.03 Y198.098 E25.59204
G1 X125.496 Y198.591 E25.60655
G1 X124.911 Y199.021 E25.62104
G1 X124.282 Y199.385 E25.63554
G1 X123.617 Y199.678 E25.65004
G1 X122.924 Y199.896 E25.66454
G1 X122.212 Y200.036 E25.67902
G1 X121.295 Y200.1 E25.69736
G1 X113.7 Y200.1 E25.84893
G1 X112.975 Y200.06 E25.86342
G1 X112.258 Y199.941 E25.87792
G1 X111.559 Y199.743 E25.89242
G1 X110.886 Y199.47 E25.90691
G1 X110.247 Y199.125 E25.92141
G1 X109.65 Y198.711 E25.9359
G1 X109.102 Y198.235 E25.95039
G1 X108.609 Y197.701 E25.96489
G1 X108.179 Y197.116 E25.97938
G1 X107.815 Y196.487 E25.99389
G1 X107.522 Y195.822 E26.00839
G1 X107.304 Y195.129 E26.02288
G1 X107.164 Y194.417 E26.03737
G1 X107.1 Y193.5 E26.05571
G1 X107.1 Y41.5 E29.08903
G0 F6000 X107.5 Y41.5
G1 F1200 X107.54 Y40.797 E29.10309
G1 X107.659 Y40.103 E29.11714
G1 X107.857 Y39.428 E29.13118
G1 X108.129 Y38.779 E29.14522
G1 X108.474 Y38.165 E29.15927
G1 X108.885 Y37.594 E29.17331
G1 X109.359 Y37.073 E29.18737
G1 X109.889 Y36.609 E29.20143
G1 X110.468 Y36.209 E29.21547
G1 X111.089 Y35.877 E29.22952
G1 X111.743 Y35.617 E29.24357
G1 X112.423 Y35.433 E29.25763
G1 X113.119 Y35.327 E29.27168
G1 X113.7 Y35.3 E29.28328
G1 X121.3 Y35.3 E29.43495
G1 X122.003 Y35.34 E29.449
G1 X122.697 Y35.459 E29.46305
G1 X123.372 Y35.657 E29.47709
G1 X124.021 Y35.929 E29.49113
G1 X124.635 Y36.274 E29.50519
G1 X125.206 Y36.685 E29.51923
G1 X125.727 Y37.159 E29.53328
G1 X126.191 Y37.689 E29.54734
G1 X126.591 Y38.268 E29.56138
G1 X126.923 Y38.889 E29.57544
G1 X127.183 Y39.543 E29.58948
G1 X127.367 Y40.223 E29.60354
G1 X127.473 Y40.919 E29.61759
G1 X127.5 Y41.5 E29.6292
G1 X127.495 Y193.5 E32.66252
G1 X127.455 Y194.203 E32.67657
G1 X127.336 Y194.897 E32.69062
G1 X127.138 Y195.573 E32.70468
G1 X126.866 Y196.222 E32.71872
G1 X126.521 Y196.836 E32.73278
G1 X126.109 Y197.407 E32.74683
G1 X125.635 Y197.927 E32.76087
G1 X125.106 Y198.391 E32.77491
G1 X124.527 Y198.791 E32.78896
G1 X123.906 Y199.123 E32.80301
G1 X123.252 Y199.383 E32.81706
G1 X122.572 Y199.567 E32.83111
G1 X121.876 Y199.673 E32.84516
G1 X121.295 Y199.7 E32.85677
G1 X113.7 Y199.7 E33.00834
G1 X112.997 Y199.66 E33.02239
G1 X112.303 Y199.541 E33.03644
G1 X111.628 Y199.343 E33.05048
G1 X110.979 Y199.071 E33.06452
G1 X110.365 Y198.726 E33.07858
G1 X109.794 Y198.315 E33.09262
G1 X109.273 Y197.841 E33.10667
G1 X108.809 Y197.311 E33.12073
G1 X108.409 Y196.732 E33.13477
G1 X108.077 Y196.111 E33.14883
G1 X107.817 Y195.457 E33.16287
G1 X107.633 Y194.777 E33.17693
G1 X107.527 Y194.081 E33.19098
G1 X107.5 Y193.5 E33.20259
G1 X107.5 Y41.5 E36.23591
G0 F6000 X107.9 Y41.5
G1 F1200 X107.94 Y40.82 E36.2495
G1 X108.059 Y40.15 E36.26308
G1 X108.256 Y39.498 E36.27668
G1 X108.528 Y38.874 E36.29026
G1 X108.872 Y38.286 E36.30385
G1 X109.282 Y37.742 E36.31745
G1 X109.753 Y37.251 E36.33103
G1 X110.278 Y36.817 E36.34462
G1 X110.85 Y36.448 E36.3582
G1 X111.462 Y36.149 E36.3718
G1 X112.104 Y35.924 E36.38537
G1 X112.769 Y35.775 E36.39897
G1 X113.7 Y35.7 E36.41761
G1 X121.3 Y35.7 E36.56928
G1 X121.98 Y35.74 E36.58287
G1 X122.65 Y35.859 E36.59645
G1 X123.302 Y36.056 E36.61004
G1 X123.926 Y36.328 E36.62363
G1 X124.514 Y36.672 E36.63722
G1 X125.058 Y37.082 E36.65082
G1 X125.549 Y37.553 E36.66439
G1 X125.983 Y38.078 E36.67799
G1 X126.352 Y38.65 E36.69157
G1 X126.651 Y39.262 E36.70516
G1 X126.876 Y39.904 E36.71874
G1 X127.025 Y40.569 E36.73234
G1 X127.1 Y41.5 E36.75098
G1 X127.095 Y193.5 E39.7843
G1 X127.055 Y194.18 E39.7979
G1 X126.936 Y194.85 E39.81148
G1 X126.739 Y195.502 E39.82507
G1 X126.466 Y196.126 E39.83866
G1 X126.123 Y196.714 E39.85225
G1 X125.713 Y197.258 E39.86584
G1 X125.242 Y197.75 E39.87943
G1 X124.717 Y198.183 E39.89301
G1 X124.145 Y198.552 E39.9066
G1 X123.533 Y198.851 E39.92019
G1 X122.891 Y199.076 E39.93377
G1 X122.226 Y199.225 E39.94737
G1 X121.295 Y199.3 E39.96601
G1 X113.7 Y199.3 E40.11757
G1 X113.02 Y199.26 E40.13117
G1 X112.35 Y199.141 E40.14475
G1 X111.698 Y198.944 E40.15834
G1 X111.074 Y198.672 E40.17192
G1 X110.486 Y198.328 E40.18552
G1 X109.942 Y197.918 E40.19911
G1 X109.451 Y197.447 E40.21269
G1 X109.017 Y196.922 E40.22628
G1 X108.648 Y196.35 E40.23987
G1 X108.349 Y195.738 E40.25346
G1 X108.124 Y195.096 E40.26703
G1 X107.975 Y194.431 E40.28063
G1 X107.9 Y193.5 E40.29927
G1 X107.9 Y41.5 E43.3326
G0 F6000 X108.3 Y41.5
G1 F1200 X108.34 Y40.844 E43.34571
G1 X108.459 Y40.198 E43.35882
G1 X108.656 Y39.571 E43.37194
G1 X108.928 Y38.973 E43.38505
G1 X109.27 Y38.412 E43.39816
G1 X109.678 Y37.897 E43.41127
G1 X110.145 Y37.435 E43.42438
G1 X110.665 Y37.034 E43.43748
G1 X111.229 Y36.698 E43.45059
G1 X111.831 Y36.434 E43.4637
G1 X112.46 Y36.244 E43.47682
G1 X113.107 Y36.133 E43.48992
G1 X113.7 Y36.1 E43.50177
G1 X121.3 Y36.1 E43.65344
G1 X121.956 Y36.14 E43.66655
G1 X122.602 Y36.259 E43.67966
G1 X123.229 Y36.456 E43.69277
G1 X123.827 Y36.728 E43.70588
G1 X124.388 Y37.07 E43.719
G1 X124.903 Y37.478 E43.73211
G1 X125.365 Y37.945 E43.74522
G1 X125.766 Y38.465 E43.75832
G1 X126.102 Y39.029 E43.77142
G1 X126.366 Y39.631 E43.78454
G1 X126.556 Y40.26 E43.79765
G1 X126.667 Y40.907 E43.81075
G1 X126.7 Y41.5 E43.82261
G1 X126.695 Y193.5 E46.85593
G1 X126.655 Y194.156 E46.86905
G1 X126.536 Y194.802 E46.88215
G1 X126.339 Y195.429 E46.89527
G1 X126.067 Y196.027 E46.90838
G1 X125.725 Y196.588 E46.92149
G1 X125.317 Y197.103 E46.9346
G1 X124.85 Y197.565 E46.94771
G1 X124.33 Y197.966 E46.96082
G1 X123.765 Y198.302 E46.97394
G1 X123.164 Y198.566 E46.98704
G1 X122.535 Y198.756 E47.00015
G1 X121.888 Y198.867 E47.01325
G1 X121.295 Y198.9 E47.0251
G1 X113.7 Y198.9 E47.17667
G1 X113.044 Y198.86 E47.18978
G1 X112.398 Y198.741 E47.20289
G1 X111.771 Y198.544 E47.21601
G1 X111.173 Y198.272 E47.22912
G1 X110.612 Y197.93 E47.24223
G1 X110.097 Y197.522 E47.25534
G1 X109.635 Y197.055 E47.26845
G1 X109.234 Y196.535 E47.28155
G1 X108.898 Y195.971 E47.29466
G1 X108.634 Y195.369 E47.30777
G1 X108.444 Y194.74 E47.32089
G1 X108.333 Y194.093 E47.33399
G1 X108.3 Y193.5 E47.34584
G1 X108.3 Y41.5 E50.37916
G0 F6000 X108.7 Y41.5
G1 F1200 X108.74 Y40.869 E50.39178
G1 X108.859 Y40.248 E50.4044
G1 X109.056 Y39.648 E50.417
G1 X109.327 Y39.076 E50.42963
G1 X109.667 Y38.544 E50.44223
G1 X110.073 Y38.059 E50.45485
G1 X110.536 Y37.629 E50.46746
G1 X111.05 Y37.26 E50.48009
G1 X111.606 Y36.96 E50.4927
G1 X112.195 Y36.732 E50.5053
G1 X112.809 Y36.58 E50.51793
G1 X113.7 Y36.5 E50.53578
G1 X121.3 Y36.5 E50.68744
G1 X121.931 Y36.54 E50.70006
G1 X122.552 Y36.659 E50.71268
G1 X123.152 Y36.856 E50.72528
G1 X123.724 Y37.127 E50.73791
G1 X124.256 Y37.467 E50.75051
G1 X124.741 Y37.873 E50.76314
G1 X125.171 Y38.336 E50.77575
G1 X125.54 Y38.85 E50.78837
G1 X125.84 Y39.406 E50.80098
G1 X126.068 Y39.995 E50.81358
G1 X126.22 Y40.609 E50.82621
G1 X126.3 Y41.5 E50.84406
G1 X126.295 Y193.5 E53.87738
G1 X126.255 Y194.131 E53.89
G1 X126.136 Y194.752 E53.90262
G1 X125.939 Y195.353 E53.91524
G1 X125.668 Y195.924 E53.92785
G1 X125.327 Y196.456 E53.94046
G1 X124.922 Y196.941 E53.95307
G1 X124.459 Y197.372 E53.9657
G1 X123.945 Y197.74 E53.97831
G1 X123.389 Y198.04 E53.99092
G1 X122.8 Y198.268 E54.00352
G1 X122.186 Y198.42 E54.01615
G1 X121.295 Y198.5 E54.034
G1 X113.7 Y198.5 E54.18557
G1 X113.069 Y198.46 E54.19818
G1 X112.448 Y198.341 E54.2108
G1 X111.848 Y198.144 E54.2234
G1 X111.276 Y197.873 E54.23604
G1 X110.744 Y197.533 E54.24863
G1 X110.259 Y197.127 E54.26126
G1 X109.829 Y196.664 E54.27387
G1 X109.46 Y196.15 E54.28649
G1 X109.16 Y195.594 E54.2991
G1 X108.932 Y195.005 E54.31171
G1 X108.78 Y194.391 E54.32433
G1 X108.7 Y193.5 E54.34218
G1 X108.7 Y41.5 E57.37551
G0 F6000 X109.1 Y41.5
G1 F1200 X109.14 Y40.895 E57.38761
G1 X109.259 Y40.301 E57.39969
G1 X109.455 Y39.727 E57.4118
G1 X109.726 Y39.184 E57.42391
G1 X110.065 Y38.681 E57.43601
G1 X110.467 Y38.228 E57.4481
G1 X110.925 Y37.831 E57.4602
G1 X111.432 Y37.498 E57.4723
G1 X111.978 Y37.234 E57.4844
G1 X112.554 Y37.045 E57.4965
G1 X113.15 Y36.933 E57.5086
G1 X113.7 Y36.9 E57.5196
G1 X121.3 Y36.9 E57.67127
G1 X121.905 Y36.94 E57.68337
G1 X122.499 Y37.059 E57.69545
G1 X123.073 Y37.255 E57.70756
G1 X123.616 Y37.526 E57.71967
G1 X124.119 Y37.865 E57.73177
G1 X124.572 Y38.267 E57.74386
G1 X124.969 Y38.725 E57.75596
G1 X125.302 Y39.232 E57.76806
G1 X125.566 Y39.778 E57.78016
G1 X125.755 Y40.354 E57.79226
