;FLAVOR:Marlin
;TIME:4471
;Filament used: 4.064m
;Layer height: 0.28
;MINX:33.7
;MINY:105.9
;MINZ:0.28
;MAXX:201.3
;MAXY:129.1
;MAXZ:23.52
;Generated with Cura_SteamEngine 5.0.0
M140 S70
M105
M190 S70
M104 S200
M105
M109 S200
M82 ;absolute extrusion mode
; Ender 3 Custom Start G-code
G92 E0 ; Reset Extruder
G28 ; Home all axes
; G29  bl touch
G1 Z2.0 F3000 ; Move Z Axis up little to prevent scratching of Heat Bed
G1 X0.1 Y20 Z0.3 F5000.0 ; Move to start position
G1 X0.1 Y200.0 Z0.3 F1500.0 E15 ; Draw the first line
G1 X0.4 Y200.0 Z0.3 F5000.0 ; Move to side a little
G1 X0.4 Y20 Z0.3 F1500.0 E30 ; Draw the second line
G92 E0 ; Reset Extruder
G1 Z2.0 F3000 ; Move Z Axis up little to prevent scratching of Heat Bed
G1 X5 Y20 Z0.3 F5000.0 ; Move over to prevent blob squish
G92 E0
G92 E0
G1 F2700 E-5
;LAYER_COUNT:86
;LAYER:0
M107
G0 F6000 X38.786 Y106.387 Z0.28
G0 X33.7 Y113.7
;TYPE:SKIRT
G1 F2700 E0
G1 F1200 X33.74 Y112.911 E0.03679
G1 X33.859 Y112.131 E0.07353
G1 X34.057 Y111.366 E0.11032
G1 X34.331 Y110.626 E0.14707
G1 X34.679 Y109.917 E0.18384
G1 X35.097 Y109.246 E0.22065
G1 X35.58 Y108.622 E0.2574
G1 X36.123 Y108.049 E0.29416
G1 X36.722 Y107.534 E0.33094
G1 X37.37 Y107.083 E0.3677
G1 X38.061 Y106.699 E0.40451
G1 X38.786 Y106.387 E0.44126
G1 X39.539 Y106.15 E0.47802
G1 X40.313 Y105.991 E0.51482
G1 X41.098 Y105.91 E0.55156
G1 X41.5 Y105.9 E0.57029
G1 X193.5 Y105.905 E7.64804
G1 X194.289 Y105.945 E7.68483
G1 X195.07 Y106.065 E7.72162
G1 X195.834 Y106.262 E7.75836
G1 X196.575 Y106.537 E7.79517
G1 X197.284 Y106.884 E7.83192
G1 X197.954 Y107.302 E7.86869
G1 X198.579 Y107.785 E7.90547
G1 X199.151 Y108.329 E7.94223
G1 X199.666 Y108.928 E7.97901
G1 X200.117 Y109.576 E8.01578
G1 X200.501 Y110.266 E8.05255
G1 X200.813 Y110.991 E8.0893
G1 X201.05 Y111.745 E8.1261
G1 X201.209 Y112.518 E8.16285
G1 X201.29 Y113.304 E8.19964
G1 X201.3 Y113.705 E8.21832
G1 X201.3 Y121.3 E8.57198
G1 X201.26 Y122.089 E8.60876
G1 X201.141 Y122.869 E8.6455
G1 X200.943 Y123.634 E8.6823
G1 X200.669 Y124.374 E8.71904
G1 X200.321 Y125.083 E8.75582
G1 X199.903 Y125.754 E8.79263
G1 X199.42 Y126.378 E8.82937
G1 X198.877 Y126.951 E8.86613
G1 X198.278 Y127.466 E8.90291
G1 X197.63 Y127.917 E8.93968
G1 X196.939 Y128.301 E8.97649
G1 X196.214 Y128.613 E9.01324
G1 X195.461 Y128.85 E9.05
G1 X194.687 Y129.009 E9.08679
G1 X193.902 Y129.09 E9.12354
G1 X193.5 Y129.1 E9.14226
G1 X41.5 Y129.1 E16.22002
G1 X40.711 Y129.06 E16.25681
G1 X39.931 Y128.941 E16.29355
G1 X39.166 Y128.743 E16.33034
G1 X38.426 Y128.469 E16.36709
G1 X37.717 Y128.121 E16.40386
G1 X37.046 Y127.703 E16.44067
G1 X36.422 Y127.22 E16.47742
G1 X35.849 Y126.677 E16.51417
G1 X35.334 Y126.078 E16.55096
G1 X34.883 Y125.43 E16.58772
G1 X34.499 Y124.739 E16.62453
G1 X34.187 Y124.014 E16.66128
G1 X33.95 Y123.261 E16.69804
G1 X33.791 Y122.487 E16.73483
G1 X33.71 Y121.702 E16.77158
G1 X33.7 Y121.3 E16.79031
G1 X33.7 Y113.7 E17.14419
G0 F6000 X34.1 Y113.7
G1 F1200 X34.14 Y112.932 E17.18
G1 X34.259 Y112.172 E17.21582
G1 X34.457 Y111.429 E17.25163
G1 X34.731 Y110.71 E17.28746
G1 X35.078 Y110.024 E17.32325
G1 X35.494 Y109.377 E17.35907
G1 X35.975 Y108.777 E17.39488
G1 X36.516 Y108.23 E17.4307
G1 X37.111 Y107.742 E17.46654
G1 X37.753 Y107.319 E17.50233
G1 X38.436 Y106.964 E17.53818
G1 X39.151 Y106.683 E17.57395
G1 X39.893 Y106.477 E17.60981
G1 X40.651 Y106.349 E17.6456
G1 X41.5 Y106.3 E17.6852
G1 X193.5 Y106.305 E24.76296
G1 X194.268 Y106.345 E24.79877
G1 X195.028 Y106.465 E24.8346
G1 X195.771 Y106.662 E24.87039
G1 X196.49 Y106.936 E24.90622
G1 X197.177 Y107.283 E24.94205
G1 X197.823 Y107.699 E24.97783
G1 X198.423 Y108.181 E25.01367
G1 X198.97 Y108.721 E25.04946
G1 X199.458 Y109.316 E25.08529
G1 X199.881 Y109.958 E25.12109
G1 X200.236 Y110.641 E25.15694
G1 X200.518 Y111.357 E25.19277
G1 X200.723 Y112.098 E25.22857
G1 X200.851 Y112.856 E25.26436
G1 X200.9 Y113.705 E25.30396
G1 X200.9 Y121.3 E25.65762
G1 X200.86 Y122.068 E25.69343
G1 X200.741 Y122.828 E25.72925
G1 X200.543 Y123.571 E25.76505
G1 X200.269 Y124.29 E25.80088
G1 X199.922 Y124.976 E25.83668
G1 X199.506 Y125.623 E25.87249
G1 X199.025 Y126.223 E25.9083
G1 X198.484 Y126.77 E25.94413
G1 X197.889 Y127.258 E25.97996
G1 X197.247 Y127.681 E26.01576
G1 X196.564 Y128.036 E26.0516
G1 X195.849 Y128.317 E26.08737
G1 X195.107 Y128.523 E26.12323
G1 X194.349 Y128.651 E26.15903
G1 X193.5 Y128.7 E26.19862
G1 X41.5 Y128.7 E33.27638
G1 X40.732 Y128.66 E33.31219
G1 X39.972 Y128.541 E33.34801
G1 X39.229 Y128.343 E33.38382
G1 X38.51 Y128.069 E33.41964
G1 X37.824 Y127.722 E33.45544
G1 X37.177 Y127.306 E33.49126
G1 X36.577 Y126.825 E33.52707
G1 X36.03 Y126.284 E33.56289
G1 X35.542 Y125.689 E33.59872
G1 X35.119 Y125.047 E33.63452
G1 X34.764 Y124.364 E33.67036
G1 X34.483 Y123.649 E33.70614
G1 X34.277 Y122.907 E33.74199
G1 X34.149 Y122.149 E33.77779
G1 X34.1 Y121.3 E33.81739
G1 X34.1 Y113.7 E34.17128
G0 F6000 X34.5 Y113.7
G1 F1200 X34.54 Y112.953 E34.20611
G1 X34.659 Y112.215 E34.24092
G1 X34.857 Y111.493 E34.27578
G1 X35.13 Y110.797 E34.31059
G1 X35.477 Y110.134 E34.34544
G1 X35.892 Y109.511 E34.38029
G1 X36.371 Y108.937 E34.4151
G1 X36.908 Y108.416 E34.44994
G1 X37.498 Y107.957 E34.48475
G1 X38.134 Y107.562 E34.51961
G1 X38.808 Y107.238 E34.55444
G1 X39.513 Y106.988 E34.58927
G1 X40.241 Y106.814 E34.62412
G1 X40.983 Y106.719 E34.65895
G1 X41.5 Y106.7 E34.68304
G1 X193.5 Y106.705 E41.7608
G1 X194.247 Y106.745 E41.79563
G1 X194.986 Y106.864 E41.83049
G1 X195.707 Y107.062 E41.8653
G1 X196.403 Y107.336 E41.90013
G1 X197.067 Y107.682 E41.935
G1 X197.689 Y108.097 E41.96981
G1 X198.264 Y108.576 E42.00466
G1 X198.784 Y109.113 E42.03947
G1 X199.244 Y109.703 E42.0743
G1 X199.638 Y110.339 E42.10914
G1 X199.962 Y111.013 E42.14396
G1 X200.212 Y111.718 E42.17879
G1 X200.386 Y112.446 E42.21365
G1 X200.481 Y113.188 E42.24848
G1 X200.5 Y113.705 E42.27257
G1 X200.5 Y121.3 E42.62623
G1 X200.46 Y122.047 E42.66106
G1 X200.341 Y122.785 E42.69587
G1 X200.143 Y123.507 E42.73073
G1 X199.87 Y124.203 E42.76554
G1 X199.523 Y124.866 E42.80039
G1 X199.108 Y125.489 E42.83524
G1 X198.629 Y126.063 E42.87005
G1 X198.092 Y126.584 E42.90489
G1 X197.502 Y127.043 E42.9397
G1 X196.866 Y127.438 E42.97456
G1 X196.192 Y127.762 E43.00938
G1 X195.487 Y128.012 E43.04421
G1 X194.759 Y128.186 E43.07907
G1 X194.017 Y128.281 E43.1139
G1 X193.5 Y128.3 E43.13799
G1 X41.5 Y128.3 E50.21575
G1 X40.753 Y128.26 E50.25058
G1 X40.015 Y128.141 E50.28539
G1 X39.293 Y127.943 E50.32025
G1 X38.597 Y127.67 E50.35506
G1 X37.934 Y127.323 E50.38991
G1 X37.311 Y126.908 E50.42476
G1 X36.737 Y126.429 E50.45958
G1 X36.216 Y125.892 E50.49442
G1 X35.757 Y125.302 E50.52922
G1 X35.362 Y124.666 E50.56408
G1 X35.038 Y123.992 E50.59891
G1 X34.788 Y123.287 E50.63374
G1 X34.614 Y122.559 E50.66859
G1 X34.519 Y121.817 E50.70342
G1 X34.5 Y121.3 E50.72751
G1 X34.5 Y113.7 E51.0814
G0 F6000 X34.9 Y113.7
G1 F1200 X34.94 Y112.975 E51.11521
G1 X35.059 Y112.258 E51.14905
G1 X35.257 Y111.559 E51.18288
G1 X35.53 Y110.886 E51.2167
G1 X35.875 Y110.247 E51.25052
G1 X36.289 Y109.65 E51.28434
G1 X36.765 Y109.102 E51.31814
G1 X37.299 Y108.609 E51.35199
G1 X37.884 Y108.179 E51.38579
G1 X38.513 Y107.815 E51.41963
G1 X39.178 Y107.522 E51.45347
G1 X39.871 Y107.304 E51.4873
G1 X40.583 Y107.164 E51.52109
G1 X41.5 Y107.1 E51.56389
G1 X193.5 Y107.105 E58.64165
G1 X194.225 Y107.145 E58.67546
G1 X194.942 Y107.264 E58.7093
G1 X195.641 Y107.462 E58.74313
G1 X196.314 Y107.735 E58.77695
G1 X196.953 Y108.08 E58.81076
G1 X197.55 Y108.494 E58.84459
G1 X198.098 Y108.97 E58.87839
G1 X198.591 Y109.504 E58.91223
G1 X199.021 Y110.089 E58.94604
G1 X199.385 Y110.718 E58.97988
G1 X199.678 Y111.383 E59.01372
G1 X199.896 Y112.076 E59.04754
G1 X200.036 Y112.788 E59.08133
G1 X200.1 Y113.705 E59.12414
G1 X200.1 Y121.3 E59.47779
G1 X200.06 Y122.025 E59.5116
G1 X199.941 Y122.742 E59.54544
G1 X199.743 Y123.441 E59.57927
G1 X199.47 Y124.114 E59.61309
G1 X199.125 Y124.753 E59.64691
G1 X198.711 Y125.35 E59.68073
G1 X198.235 Y125.898 E59.71453
G1 X197.701 Y126.391 E59.74838
G1 X197.116 Y126.821 E59.78218
G1 X196.487 Y127.185 E59.81602
G1 X195.822 Y127.478 E59.84986
G1 X195.129 Y127.696 E59.88369
G1 X194.417 Y127.836 E59.91748
G1 X193.5 Y127.9 E59.96028
G1 X41.5 Y127.9 E67.03804
G1 X40.775 Y127.86 E67.07185
G1 X40.058 Y127.741 E67.10569
G1 X39.359 Y127.543 E67.13952
G1 X38.686 Y127.27 E67.17334
G1 X38.047 Y126.925 E67.20715
G1 X37.45 Y126.511 E67.24098
G1 X36.902 Y126.035 E67.27478
G1 X36.409 Y125.501 E67.30862
G1 X35.979 Y124.916 E67.34243
G1 X35.615 Y124.287 E67.37627
G1 X35.322 Y123.622 E67.41011
G1 X35.104 Y122.929 E67.44393
G1 X34.964 Y122.217 E67.47772
G1 X34.9 Y121.3 E67.52052
G1 X34.9 Y113.7 E67.87441
G0 F6000 X35.3 Y113.7
G1 F1200 X35.34 Y112.997 E67.9072
G1 X35.459 Y112.303 E67.93999
G1 X35.657 Y111.628 E67.97274
G1 X35.929 Y110.979 E68.00551
G1 X36.274 Y110.365 E68.0383
G1 X36.685 Y109.794 E68.07106
G1 X37.159 Y109.273 E68.10386
G1 X37.689 Y108.809 E68.13666
G1 X38.268 Y108.409 E68.16943
G1 X38.889 Y108.077 E68.20222
G1 X39.543 Y107.817 E68.23499
G1 X40.223 Y107.633 E68.26779
G1 X40.919 Y107.527 E68.30058
G1 X41.5 Y107.5 E68.32766
G1 X193.5 Y107.505 E75.40542
G1 X194.203 Y107.545 E75.4382
G1 X194.897 Y107.664 E75.47099
G1 X195.573 Y107.862 E75.50379
G1 X196.222 Y108.134 E75.53656
G1 X196.836 Y108.479 E75.56935
G1 X197.407 Y108.891 E75.60214
G1 X197.927 Y109.365 E75.6349
G1 X198.391 Y109.894 E75.66767
G1 X198.791 Y110.473 E75.70044
G1 X199.123 Y111.094 E75.73323
G1 X199.383 Y111.748 E75.766
G1 X199.567 Y112.428 E75.7988
G1 X199.673 Y113.124 E75.83158
G1 X199.7 Y113.705 E75.85866
G1 X199.7 Y121.3 E76.21232
G1 X199.66 Y122.003 E76.24511
G1 X199.541 Y122.697 E76.27789
G1 X199.343 Y123.372 E76.31065
G1 X199.071 Y124.021 E76.34342
G1 X198.726 Y124.635 E76.37621
G1 X198.315 Y125.206 E76.40897
G1 X197.841 Y125.727 E76.44177
G1 X197.311 Y126.191 E76.47457
G1 X196.732 Y126.591 E76.50734
G1 X196.111 Y126.923 E76.54013
G1 X195.457 Y127.183 E76.5729
G1 X194.777 Y127.367 E76.6057
G1 X194.081 Y127.473 E76.63848
G1 X193.5 Y127.5 E76.66557
G1 X41.5 Y127.5 E83.74332
G1 X40.797 Y127.46 E83.77611
G1 X40.103 Y127.341 E83.8089
G1 X39.428 Y127.143 E83.84165
G1 X38.779 Y126.871 E83.87442
G1 X38.165 Y126.526 E83.90721
G1 X37.594 Y126.115 E83.93997
G1 X37.073 Y125.641 E83.97277
G1 X36.609 Y125.111 E84.00557
G1 X36.209 Y124.532 E84.03834
G1 X35.877 Y123.911 E84.07113
G1 X35.617 Y123.257 E84.1039
G1 X35.433 Y122.577 E84.1367
G1 X35.327 Y121.881 E84.16949
G1 X35.3 Y121.3 E84.19657
G1 X35.3 Y113.7 E84.55046
G0 F6000 X35.7 Y113.7
G1 F1200 X35.74 Y113.02 E84.58218
G1 X35.859 Y112.35 E84.61386
G1 X36.056 Y111.698 E84.64558
G1 X36.328 Y111.074 E84.67727
G1 X36.672 Y110.486 E84.70899
G1 X37.082 Y109.942 E84.74071
G1 X37.553 Y109.451 E84.7724
G1 X38.078 Y109.017 E84.80411
G1 X38.65 Y108.648 E84.83581
G1 X39.262 Y108.349 E84.86753
G1 X39.904 Y108.124 E84.8992
G1 X40.569 Y107.975 E84.93094
G1 X41.5 Y107.9 E84.97443
G1 X193.5 Y107.905 E92.05218
G1 X194.18 Y107.945 E92.0839
G1 X194.85 Y108.064 E92.11559
G1 X195.502 Y108.261 E92.1473
G1 X196.126 Y108.534 E92.17902
G1 X196.714 Y108.877 E92.21072
G1 X197.258 Y109.287 E92.24244
G1 X197.75 Y109.758 E92.27415
G1 X198.183 Y110.283 E92.30584
G1 X198.552 Y110.855 E92.33754
G1 X198.851 Y111.467 E92.36925
G1 X199.076 Y112.109 E92.40093
G1 X199.225 Y112.774 E92.43266
G1 X199.3 Y113.705 E92.47615
G1 X199.3 Y121.3 E92.82981
G1 X199.26 Y121.98 E92.86153
G1 X199.141 Y122.65 E92.89321
G1 X198.944 Y123.302 E92.92493
G1 X198.672 Y123.926 E92.95663
G1 X198.328 Y124.514 E92.98835
G1 X197.918 Y125.058 E93.02007
G1 X197.447 Y125.549 E93.05175
G1 X196.922 Y125.983 E93.08347
G1 X196.35 Y126.352 E93.11516
G1 X195.738 Y126.651 E93.14688
G1 X195.096 Y126.876 E93.17855
G1 X194.431 Y127.025 E93.21029
G1 X193.5 Y127.1 E93.25378
G1 X41.5 Y127.1 E100.33154
G1 X40.82 Y127.06 E100.36325
G1 X40.15 Y126.941 E100.39494
G1 X39.498 Y126.744 E100.42666
G1 X38.874 Y126.472 E100.45835
G1 X38.286 Y126.128 E100.49007
G1 X37.742 Y125.718 E100.52179
G1 X37.251 Y125.247 E100.55348
G1 X36.817 Y124.722 E100.58519
G1 X36.448 Y124.15 E100.61689
G1 X36.149 Y123.538 E100.64861
G1 X35.924 Y122.896 E100.68028
G1 X35.775 Y122.231 E100.71202
G1 X35.7 Y121.3 E100.75551
G1 X35.7 Y113.7 E101.10939
G0 F6000 X36.1 Y113.7
G1 F1200 X36.14 Y113.044 E101.14
G1 X36.259 Y112.398 E101.17058
G1 X36.456 Y111.771 E101.20119
G1 X36.728 Y111.173 E101.23178
G1 X37.07 Y110.612 E101.26237
G1 X37.478 Y110.097 E101.29297
G1 X37.945 Y109.635 E101.32355
G1 X38.465 Y109.234 E101.35413
G1 X39.029 Y108.898 E101.3847
G1 X39.631 Y108.634 E101.41531
G1 X40.26 Y108.444 E101.4459
G1 X40.907 Y108.333 E101.47647
G1 X41.5 Y108.3 E101.50413
G1 X193.5 Y108.305 E108.58188
G1 X194.156 Y108.345 E108.61249
G1 X194.802 Y108.464 E108.64307
G1 X195.429 Y108.661 E108.67368
G1 X196.027 Y108.933 E108.70427
G1 X196.588 Y109.275 E108.73486
G1 X197.103 Y109.683 E108.76545
G1 X197.565 Y110.15 E108.79604
G1 X197.966 Y110.67 E108.82662
G1 X198.302 Y111.235 E108.85723
G1 X198.566 Y111.836 E108.8878
G1 X198.756 Y112.465 E108.91839
G1 X198.867 Y113.112 E108.94896
G1 X198.9 Y113.705 E108.97661
G1 X198.9 Y121.3 E109.33027
G1 X198.86 Y121.956 E109.36087
G1 X198.741 Y122.602 E109.39146
G1 X198.544 Y123.229 E109.42206
G1 X198.272 Y123.827 E109.45265
G1 X197.93 Y124.388 E109.48325
G1 X197.522 Y124.903 E109.51384
G1 X197.055 Y125.365 E109.54443
G1 X196.535 Y125.766 E109.57501
G1 X195.971 Y126.102 E109.60557
G1 X195.369 Y126.366 E109.63618
G1 X194.74 Y126.556 E109.66678
G1 X194.093 Y126.667 E109.69735
G1 X193.5 Y126.7 E109.725
G1 X41.5 Y126.7 E116.80276
G1 X40.844 Y126.66 E116.83336
G1 X40.198 Y126.541 E116.86395
G1 X39.571 Y126.344 E116.89455
G1 X38.973 Y126.072 E116.92514
G1 X38.412 Y125.73 E116.95574
G1 X37.897 Y125.322 E116.98633
G1 X37.435 Y124.855 E117.01692
G1 X37.034 Y124.335 E117.04749
G1 X36.698 Y123.771 E117.07806
G1 X36.434 Y123.169 E117.10867
G1 X36.244 Y122.54 E117.13927
G1 X36.133 Y121.893 E117.16984
G1 X36.1 Y121.3 E117.19749
G1 X36.1 Y113.7 E117.55138
G0 F6000 X36.5 Y113.7
G1 F1200 X36.54 Y113.069 E117.58082
G1 X36.659 Y112.448 E117.61026
G1 X36.856 Y111.848 E117.63967
G1 X37.127 Y111.276 E117.66914
G1 X37.467 Y110.744 E117.69854
G1 X37.873 Y110.259 E117.72799
G1 X38.336 Y109.829 E117.75742
G1 X38.85 Y109.46 E117.78688
G1 X39.406 Y109.16 E117.8163
G1 X39.995 Y108.932 E117.84571
G1 X40.609 Y108.78 E117.87516
G1 X41.5 Y108.7 E117.91681
G1 X193.5 Y108.705 E124.99457
G1 X194.131 Y108.745 E125.02401
G1 X194.752 Y108.864 E125.05345
G1 X195.353 Y109.061 E125.0829
G1 X195.924 Y109.332 E125.11234
G1 X196.456 Y109.673 E125.14176
G1 X196.941 Y110.078 E125.17118
G1 X197.372 Y110.541 E125.20064
G1 X197.74 Y111.055 E125.23007
G1 X198.04 Y111.611 E125.25949
G1 X198.268 Y112.2 E125.2889
G1 X198.42 Y112.814 E125.31835
G1 X198.5 Y113.705 E125.36001
G1 X198.5 Y121.3 E125.71366
G1 X198.46 Y121.931 E125.7431
G1 X198.341 Y122.552 E125.77255
G1 X198.144 Y123.152 E125.80195
G1 X197.873 Y123.724 E125.83143
G1 X197.533 Y124.256 E125.86082
G1 X197.127 Y124.741 E125.89028
G1 X196.664 Y125.171 E125.9197
G1 X196.15 Y125.54 E125.94916
G1 X195.594 Y125.84 E125.97858
G1 X195.005 Y126.068 E126.00799
G1 X194.391 Y126.22 E126.03744
G1 X193.5 Y126.3 E126.0791
G1 X41.5 Y126.3 E133.15686
G1 X40.869 Y126.26 E133.1863
G1 X40.248 Y126.141 E133.21574
G1 X39.648 Y125.944 E133.24515
G1 X39.076 Y125.673 E133.27462
G1 X38.544 Y125.333 E133.30402
G1 X38.059 Y124.927 E133.33347
G1 X37.629 Y124.464 E133.36289
G1 X37.26 Y123.95 E133.39236
G1 X36.96 Y123.394 E133.42177
G1 X36.732 Y122.805 E133.45118
G1 X36.58 Y122.191 E133.48064
G1 X36.5 Y121.3 E133.52229
G1 X36.5 Y113.7 E133.87618
G0 F6000 X36.9 Y113.7
G1 F1200 X36.94 Y113.095 E133.90441
G1 X37.059 Y112.501 E133.93262
G1 X37.255 Y111.927 E133.96086
G1 X37.526 Y111.384 E133.98912
G1 X37.865 Y110.881 E134.01737
G1 X38.267 Y110.428 E134.04557
G1 X38.725 Y110.031 E134.07379
G1 X39.232 Y109.698 E134.10204
G1 X39.778 Y109.434 E134.13028
G1 X40.354 Y109.245 E134.1585
G1 X40.95 Y109.133 E134.18674
G1 X41.5 Y109.1 E134.2124
G1 X193.5 Y109.105 E141.29016
G1 X194.105 Y109.145 E141.31839
G1 X194.7 Y109.264 E141.34664
G1 X195.273 Y109.461 E141.37486
G1 X195.816 Y109.731 E141.40309
