;FLAVOR:Marlin
;TIME:1383
;Filament used: 0.488041m
;Layer height: 0.12
;MINX:97.7
;MINY:105.9
;MINZ:0.12
;MAXX:137.3
;MAXY:129.1
;MAXZ:9.96
;Generated with Cura_SteamEngine 5.0.0
M140 S70
M105
M190 S70
M104 S200
M105
M109 S200
M82 ;absolute extrusion mode
; Ender 3 Custom Start G-code
G92 E0 ; Reset Extruder
G28 ; Home all axes
; G29  bl touch
G1 Z2.0 F3000 ; Move Z Axis up little to prevent scratching of Heat Bed
G1 X0.1 Y20 Z0.3 F5000.0 ; Move to start position
G1 X0.1 Y200.0 Z0.3 F1500.0 E15 ; Draw the first line
G1 X0.4 Y200.0 Z0.3 F5000.0 ; Move to side a little
G1 X0.4 Y20 Z0.3 F1500.0 E30 ; Draw the second line
G92 E0 ; Reset Extruder
G1 Z2.0 F3000 ; Move Z Axis up little to prevent scratching of Heat Bed
G1 X5 Y20 Z0.3 F5000.0 ; Move over to prevent blob squish
G92 E0
G92 E0
G1 F2700 E-5
;LAYER_COUNT:83
;LAYER:0
M107
G0 F6000 X100.123 Y108.049 Z0.12
G0 X97.7 Y113.7
;TYPE:SKIRT
G1 F2700 E0
G1 F1200 X97.74 Y112.911 E0.01577
G1 X97.859 Y112.131 E0.03151
G1 X98.057 Y111.366 E0.04728
G1 X98.331 Y110.626 E0.06303
G1 X98.679 Y109.917 E0.07879
G1 X99.097 Y109.246 E0.09457
G1 X99.58 Y108.622 E0.11031
G1 X100.123 Y108.049 E0.12607
G1 X100.722 Y107.534 E0.14183
G1 X101.37 Y107.083 E0.15759
G1 X102.061 Y106.699 E0.17336
G1 X102.786 Y106.387 E0.18911
G1 X103.539 Y106.15 E0.20487
G1 X104.313 Y105.991 E0.22064
G1 X105.098 Y105.91 E0.23638
G1 X105.5 Y105.9 E0.24441
G1 X129.5 Y105.9 E0.72335
G1 X130.289 Y105.94 E0.73912
G1 X131.069 Y106.059 E0.75487
G1 X131.834 Y106.257 E0.77064
G1 X132.574 Y106.531 E0.78638
G1 X133.283 Y106.879 E0.80214
G1 X133.954 Y107.297 E0.81792
G1 X134.578 Y107.78 E0.83367
G1 X135.151 Y108.323 E0.84942
G1 X135.666 Y108.922 E0.86519
G1 X136.117 Y109.57 E0.88094
G1 X136.501 Y110.261 E0.89672
G1 X136.813 Y110.986 E0.91247
G1 X137.05 Y111.739 E0.92822
G1 X137.209 Y112.513 E0.94399
G1 X137.29 Y113.298 E0.95974
G1 X137.3 Y113.7 E0.96776
G1 X137.3 Y121.3 E1.11943
G1 X137.26 Y122.089 E1.1352
G1 X137.141 Y122.869 E1.15094
G1 X136.943 Y123.634 E1.16671
G1 X136.669 Y124.374 E1.18246
G1 X136.321 Y125.083 E1.19822
G1 X135.903 Y125.754 E1.214
G1 X135.42 Y126.378 E1.22974
G1 X134.877 Y126.951 E1.2455
G1 X134.278 Y127.466 E1.26126
G1 X133.63 Y127.917 E1.27702
G1 X132.939 Y128.301 E1.29279
G1 X132.214 Y128.613 E1.30854
G1 X131.461 Y128.85 E1.3243
G1 X130.687 Y129.009 E1.34007
G1 X129.902 Y129.09 E1.35581
G1 X129.5 Y129.1 E1.36384
G1 X105.5 Y129.1 E1.84278
G1 X104.711 Y129.06 E1.85855
G1 X103.931 Y128.941 E1.8743
G1 X103.166 Y128.743 E1.89007
G1 X102.426 Y128.469 E1.90581
G1 X101.717 Y128.121 E1.92157
G1 X101.046 Y127.703 E1.93735
G1 X100.422 Y127.22 E1.9531
G1 X99.849 Y126.677 E1.96885
G1 X99.334 Y126.078 E1.98462
G1 X98.883 Y125.43 E2.00037
G1 X98.499 Y124.739 E2.01615
G1 X98.187 Y124.014 E2.0319
G1 X97.95 Y123.261 E2.04765
G1 X97.791 Y122.487 E2.06342
G1 X97.71 Y121.702 E2.07917
G1 X97.7 Y121.3 E2.08719
G1 X97.7 Y113.7 E2.23886
G0 F6000 X98.1 Y113.7
G1 F1200 X98.14 Y112.932 E2.25421
G1 X98.259 Y112.172 E2.26956
G1 X98.457 Y111.429 E2.2849
G1 X98.731 Y110.71 E2.30026
G1 X99.078 Y110.024 E2.3156
G1 X99.494 Y109.377 E2.33095
G1 X99.975 Y108.777 E2.3463
G1 X100.516 Y108.23 E2.36165
G1 X101.111 Y107.742 E2.37701
G1 X101.753 Y107.319 E2.39235
G1 X102.436 Y106.964 E2.40771
G1 X103.151 Y106.683 E2.42304
G1 X103.893 Y106.477 E2.43841
G1 X104.651 Y106.349 E2.45375
G1 X105.5 Y106.3 E2.47072
G1 X129.5 Y106.3 E2.94967
G1 X130.268 Y106.34 E2.96501
G1 X131.028 Y106.459 E2.98036
G1 X131.771 Y106.657 E2.99571
G1 X132.49 Y106.931 E3.01106
G1 X133.176 Y107.278 E3.02641
G1 X133.823 Y107.694 E3.04176
G1 X134.423 Y108.175 E3.0571
G1 X134.97 Y108.716 E3.07246
G1 X135.458 Y109.311 E3.08781
G1 X135.881 Y109.953 E3.10315
G1 X136.236 Y110.636 E3.11852
G1 X136.517 Y111.351 E3.13385
G1 X136.723 Y112.093 E3.14921
G1 X136.851 Y112.851 E3.16456
G1 X136.9 Y113.7 E3.18153
G1 X136.9 Y121.3 E3.33319
G1 X136.86 Y122.068 E3.34854
G1 X136.741 Y122.828 E3.36389
G1 X136.543 Y123.571 E3.37924
G1 X136.269 Y124.29 E3.39459
G1 X135.922 Y124.976 E3.40993
G1 X135.506 Y125.623 E3.42528
G1 X135.025 Y126.223 E3.44063
G1 X134.484 Y126.77 E3.45598
G1 X133.889 Y127.258 E3.47134
G1 X133.247 Y127.681 E3.48668
G1 X132.564 Y128.036 E3.50204
G1 X131.849 Y128.317 E3.51737
G1 X131.107 Y128.523 E3.53274
G1 X130.349 Y128.651 E3.54808
G1 X129.5 Y128.7 E3.56505
G1 X105.5 Y128.7 E4.044
G1 X104.732 Y128.66 E4.05935
G1 X103.972 Y128.541 E4.0747
G1 X103.229 Y128.343 E4.09004
G1 X102.51 Y128.069 E4.1054
G1 X101.824 Y127.722 E4.12074
G1 X101.177 Y127.306 E4.13609
G1 X100.577 Y126.825 E4.15143
G1 X100.03 Y126.284 E4.16679
G1 X99.542 Y125.689 E4.18214
G1 X99.119 Y125.047 E4.19749
G1 X98.764 Y124.364 E4.21285
G1 X98.483 Y123.649 E4.22818
G1 X98.277 Y122.907 E4.24355
G1 X98.149 Y122.149 E4.25889
G1 X98.1 Y121.3 E4.27586
G1 X98.1 Y113.7 E4.42752
G0 F6000 X98.5 Y113.7
G1 F1200 X98.54 Y112.953 E4.44245
G1 X98.659 Y112.215 E4.45737
G1 X98.857 Y111.493 E4.47231
G1 X99.13 Y110.797 E4.48723
G1 X99.477 Y110.134 E4.50216
G1 X99.892 Y109.511 E4.5171
G1 X100.371 Y108.937 E4.53202
G1 X100.908 Y108.416 E4.54695
G1 X101.498 Y107.957 E4.56187
G1 X102.134 Y107.562 E4.57681
G1 X102.808 Y107.238 E4.59174
G1 X103.513 Y106.988 E4.60666
G1 X104.241 Y106.814 E4.6216
G1 X104.983 Y106.719 E4.63653
G1 X105.5 Y106.7 E4.64685
G1 X129.5 Y106.7 E5.1258
G1 X130.247 Y106.74 E5.14073
G1 X130.985 Y106.859 E5.15565
G1 X131.707 Y107.057 E5.17059
G1 X132.403 Y107.33 E5.18551
G1 X133.066 Y107.677 E5.20044
G1 X133.689 Y108.092 E5.21538
G1 X134.263 Y108.571 E5.2303
G1 X134.784 Y109.108 E5.24523
G1 X135.243 Y109.698 E5.26015
G1 X135.638 Y110.334 E5.27509
G1 X135.962 Y111.008 E5.29001
G1 X136.212 Y111.713 E5.30494
G1 X136.386 Y112.441 E5.31987
G1 X136.481 Y113.183 E5.3348
G1 X136.5 Y113.7 E5.34513
G1 X136.5 Y121.3 E5.49679
G1 X136.46 Y122.047 E5.51172
G1 X136.341 Y122.785 E5.52664
G1 X136.143 Y123.507 E5.54158
G1 X135.87 Y124.203 E5.5565
G1 X135.523 Y124.866 E5.57143
G1 X135.108 Y125.489 E5.58637
G1 X134.629 Y126.063 E5.60129
G1 X134.092 Y126.584 E5.61622
G1 X133.502 Y127.043 E5.63114
G1 X132.866 Y127.438 E5.64608
G1 X132.192 Y127.762 E5.661
G1 X131.487 Y128.012 E5.67593
G1 X130.759 Y128.186 E5.69087
G1 X130.017 Y128.281 E5.7058
G1 X129.5 Y128.3 E5.71612
G1 X105.5 Y128.3 E6.19507
G1 X104.753 Y128.26 E6.21
G1 X104.015 Y128.141 E6.22491
G1 X103.293 Y127.943 E6.23985
G1 X102.597 Y127.67 E6.25477
G1 X101.934 Y127.323 E6.26971
G1 X101.311 Y126.908 E6.28465
G1 X100.737 Y126.429 E6.29956
G1 X100.216 Y125.892 E6.3145
G1 X99.757 Y125.302 E6.32941
G1 X99.362 Y124.666 E6.34435
G1 X99.038 Y123.992 E6.35928
G1 X98.788 Y123.287 E6.37421
G1 X98.614 Y122.559 E6.38914
G1 X98.519 Y121.817 E6.40407
G1 X98.5 Y121.3 E6.41439
G1 X98.5 Y113.7 E6.56606
G0 F6000 X98.9 Y113.7
G1 F1200 X98.94 Y112.975 E6.58055
G1 X99.059 Y112.258 E6.59506
G1 X99.257 Y111.559 E6.60955
G1 X99.53 Y110.886 E6.62405
G1 X99.875 Y110.247 E6.63854
G1 X100.289 Y109.65 E6.65304
G1 X100.765 Y109.102 E6.66752
G1 X101.299 Y108.609 E6.68203
G1 X101.884 Y108.179 E6.69651
G1 X102.513 Y107.815 E6.71102
G1 X103.178 Y107.522 E6.72552
G1 X103.871 Y107.304 E6.74002
G1 X104.583 Y107.164 E6.7545
G1 X105.5 Y107.1 E6.77284
G1 X129.5 Y107.1 E7.25179
G1 X130.225 Y107.14 E7.26628
G1 X130.942 Y107.259 E7.28078
G1 X131.641 Y107.457 E7.29528
G1 X132.314 Y107.73 E7.30977
G1 X132.953 Y108.075 E7.32427
G1 X133.55 Y108.489 E7.33876
G1 X134.098 Y108.965 E7.35325
G1 X134.591 Y109.499 E7.36775
G1 X135.021 Y110.084 E7.38224
G1 X135.385 Y110.713 E7.39674
G1 X135.678 Y111.378 E7.41125
G1 X135.896 Y112.071 E7.42574
G1 X136.036 Y112.783 E7.44022
G1 X136.1 Y113.7 E7.45857
G1 X136.1 Y121.3 E7.61024
G1 X136.06 Y122.025 E7.62473
G1 X135.941 Y122.742 E7.63923
G1 X135.743 Y123.441 E7.65373
G1 X135.47 Y124.114 E7.66822
G1 X135.125 Y124.753 E7.68271
G1 X134.711 Y125.35 E7.69721
G1 X134.235 Y125.898 E7.7117
G1 X133.701 Y126.391 E7.7262
G1 X133.116 Y126.821 E7.74069
G1 X132.487 Y127.185 E7.75519
G1 X131.822 Y127.478 E7.76969
G1 X131.129 Y127.696 E7.78419
G1 X130.417 Y127.836 E7.79867
G1 X129.5 Y127.9 E7.81702
G1 X105.5 Y127.9 E8.29596
G1 X104.775 Y127.86 E8.31045
G1 X104.058 Y127.741 E8.32496
G1 X103.359 Y127.543 E8.33945
G1 X102.686 Y127.27 E8.35395
G1 X102.047 Y126.925 E8.36844
G1 X101.45 Y126.511 E8.38294
G1 X100.902 Y126.035 E8.39742
G1 X100.409 Y125.501 E8.41193
G1 X99.979 Y124.916 E8.42642
G1 X99.615 Y124.287 E8.44092
G1 X99.322 Y123.622 E8.45542
G1 X99.104 Y122.929 E8.46992
G1 X98.964 Y122.217 E8.4844
G1 X98.9 Y121.3 E8.50274
G1 X98.9 Y113.7 E8.65441
G0 F6000 X99.3 Y113.7
G1 F1200 X99.34 Y112.997 E8.66846
G1 X99.459 Y112.303 E8.68251
G1 X99.657 Y111.628 E8.69655
G1 X99.929 Y110.979 E8.71059
G1 X100.274 Y110.365 E8.72465
G1 X100.685 Y109.794 E8.73869
G1 X101.159 Y109.273 E8.75274
G1 X101.689 Y108.809 E8.7668
G1 X102.268 Y108.409 E8.78085
G1 X102.889 Y108.077 E8.7949
G1 X103.543 Y107.817 E8.80894
G1 X104.223 Y107.633 E8.823
G1 X104.919 Y107.527 E8.83705
G1 X105.5 Y107.5 E8.84866
G1 X129.5 Y107.5 E9.3276
G1 X130.203 Y107.54 E9.34166
G1 X130.897 Y107.659 E9.35571
G1 X131.572 Y107.857 E9.36975
G1 X132.221 Y108.129 E9.38379
G1 X132.835 Y108.474 E9.39784
G1 X133.406 Y108.885 E9.41188
G1 X133.927 Y109.359 E9.42594
G1 X134.391 Y109.889 E9.44
G1 X134.791 Y110.468 E9.45404
G1 X135.123 Y111.089 E9.46809
G1 X135.383 Y111.743 E9.48214
G1 X135.567 Y112.423 E9.4962
G1 X135.673 Y113.119 E9.51025
G1 X135.7 Y113.7 E9.52185
G1 X135.7 Y121.3 E9.67352
G1 X135.66 Y122.003 E9.68757
G1 X135.541 Y122.697 E9.70162
G1 X135.343 Y123.372 E9.71566
G1 X135.071 Y124.021 E9.7297
G1 X134.726 Y124.635 E9.74376
G1 X134.315 Y125.206 E9.7578
G1 X133.841 Y125.727 E9.77185
G1 X133.311 Y126.191 E9.78591
G1 X132.732 Y126.591 E9.79995
G1 X132.111 Y126.923 E9.81401
G1 X131.457 Y127.183 E9.82805
G1 X130.777 Y127.367 E9.84211
G1 X130.081 Y127.473 E9.85616
G1 X129.5 Y127.5 E9.86777
G1 X105.5 Y127.5 E10.34671
G1 X104.797 Y127.46 E10.36076
G1 X104.103 Y127.341 E10.37482
G1 X103.428 Y127.143 E10.38885
G1 X102.779 Y126.871 E10.4029
G1 X102.165 Y126.526 E10.41695
G1 X101.594 Y126.115 E10.43099
G1 X101.073 Y125.641 E10.44505
G1 X100.609 Y125.111 E10.45911
G1 X100.209 Y124.532 E10.47315
G1 X99.877 Y123.911 E10.4872
G1 X99.617 Y123.257 E10.50125
G1 X99.433 Y122.577 E10.5153
G1 X99.327 Y121.881 E10.52935
G1 X99.3 Y121.3 E10.54096
G1 X99.3 Y113.7 E10.69263
G0 F6000 X99.7 Y113.7
G1 F1200 X99.74 Y113.02 E10.70622
G1 X99.859 Y112.35 E10.7198
G1 X100.056 Y111.698 E10.73339
G1 X100.328 Y111.074 E10.74698
G1 X100.672 Y110.486 E10.76057
G1 X101.082 Y109.942 E10.77417
G1 X101.553 Y109.451 E10.78774
G1 X102.078 Y109.017 E10.80134
G1 X102.65 Y108.648 E10.81492
G1 X103.262 Y108.349 E10.82851
G1 X103.904 Y108.124 E10.84209
G1 X104.569 Y107.975 E10.85569
G1 X105.5 Y107.9 E10.87433
G1 X129.5 Y107.9 E11.35327
G1 X130.18 Y107.94 E11.36687
G1 X130.85 Y108.059 E11.38045
G1 X131.502 Y108.256 E11.39404
G1 X132.126 Y108.528 E11.40762
G1 X132.714 Y108.872 E11.42122
G1 X133.258 Y109.282 E11.43481
G1 X133.749 Y109.753 E11.44839
G1 X134.183 Y110.278 E11.46198
G1 X134.552 Y110.85 E11.47557
G1 X134.851 Y111.462 E11.48916
G1 X135.076 Y112.104 E11.50274
G1 X135.225 Y112.769 E11.51634
G1 X135.3 Y113.7 E11.53498
G1 X135.3 Y121.3 E11.68664
G1 X135.26 Y121.98 E11.70024
G1 X135.141 Y122.65 E11.71382
G1 X134.944 Y123.302 E11.72741
G1 X134.672 Y123.926 E11.74099
G1 X134.328 Y124.514 E11.75459
G1 X133.918 Y125.058 E11.76818
G1 X133.447 Y125.549 E11.78176
G1 X132.922 Y125.983 E11.79535
G1 X132.35 Y126.352 E11.80894
G1 X131.738 Y126.651 E11.82253
G1 X131.096 Y126.876 E11.83611
G1 X130.431 Y127.025 E11.84971
G1 X129.5 Y127.1 E11.86834
G1 X105.5 Y127.1 E12.34729
G1 X104.82 Y127.06 E12.36088
G1 X104.15 Y126.941 E12.37446
G1 X103.498 Y126.744 E12.38806
G1 X102.874 Y126.472 E12.40164
G1 X102.286 Y126.128 E12.41524
G1 X101.742 Y125.718 E12.42883
G1 X101.251 Y125.247 E12.44241
G1 X100.817 Y124.722 E12.456
G1 X100.448 Y124.15 E12.46958
G1 X100.149 Y123.538 E12.48318
G1 X99.924 Y122.896 E12.49675
G1 X99.775 Y122.231 E12.51035
G1 X99.7 Y121.3 E12.52899
G1 X99.7 Y113.7 E12.68066
G0 F6000 X100.1 Y113.7
G1 F1200 X100.14 Y113.044 E12.69377
G1 X100.259 Y112.398 E12.70688
G1 X100.456 Y111.771 E12.72
G1 X100.728 Y111.173 E12.73311
G1 X101.07 Y110.612 E12.74622
G1 X101.478 Y110.097 E12.75933
G1 X101.945 Y109.635 E12.77244
G1 X102.465 Y109.234 E12.78555
G1 X103.029 Y108.898 E12.79865
G1 X103.631 Y108.634 E12.81176
G1 X104.26 Y108.444 E12.82488
G1 X104.907 Y108.333 E12.83798
G1 X105.5 Y108.3 E12.84983
G1 X129.5 Y108.3 E13.32878
G1 X130.156 Y108.34 E13.34189
G1 X130.802 Y108.459 E13.355
G1 X131.429 Y108.656 E13.36811
G1 X132.027 Y108.928 E13.38123
G1 X132.588 Y109.27 E13.39434
G1 X133.103 Y109.678 E13.40745
G1 X133.565 Y110.145 E13.42056
G1 X133.966 Y110.665 E13.43366
G1 X134.302 Y111.229 E13.44676
G1 X134.566 Y111.831 E13.45988
G1 X134.756 Y112.46 E13.47299
G1 X134.867 Y113.107 E13.48609
G1 X134.9 Y113.7 E13.49795
G1 X134.9 Y121.3 E13.64961
G1 X134.86 Y121.956 E13.66273
G1 X134.741 Y122.602 E13.67584
G1 X134.544 Y123.229 E13.68895
G1 X134.272 Y123.827 E13.70206
G1 X133.93 Y124.388 E13.71517
G1 X133.522 Y124.903 E13.72829
G1 X133.055 Y125.365 E13.7414
G1 X132.535 Y125.766 E13.7545
G1 X131.971 Y126.102 E13.7676
G1 X131.369 Y126.366 E13.78072
G1 X130.74 Y126.556 E13.79383
G1 X130.093 Y126.667 E13.80693
G1 X129.5 Y126.7 E13.81878
G1 X105.5 Y126.7 E14.29773
G1 X104.844 Y126.66 E14.31085
G1 X104.198 Y126.541 E14.32395
G1 X103.571 Y126.344 E14.33707
G1 X102.973 Y126.072 E14.35018
G1 X102.412 Y125.73 E14.36329
G1 X101.897 Y125.322 E14.3764
G1 X101.435 Y124.855 E14.38951
G1 X101.034 Y124.335 E14.40262
G1 X100.698 Y123.771 E14.41572
G1 X100.434 Y123.169 E14.42884
G1 X100.244 Y122.54 E14.44195
G1 X100.133 Y121.893 E14.45505
G1 X100.1 Y121.3 E14.4669
G1 X100.1 Y113.7 E14.61857
G0 F6000 X100.5 Y113.7
G1 F1200 X100.54 Y113.069 E14.63118
G1 X100.659 Y112.448 E14.6438
G1 X100.856 Y111.848 E14.65641
G1 X101.127 Y111.276 E14.66904
G1 X101.467 Y110.744 E14.68164
G1 X101.873 Y110.259 E14.69426
G1 X102.336 Y109.829 E14.70687
G1 X102.85 Y109.46 E14.7195
G1 X103.406 Y109.16 E14.7321
G1 X103.995 Y108.932 E14.74471
G1 X104.609 Y108.78 E14.75733
G1 X105.5 Y108.7 E14.77518
G1 X129.5 Y108.7 E15.25413
G1 X130.131 Y108.74 E15.26675
G1 X130.752 Y108.859 E15.27936
G1 X131.352 Y109.056 E15.29197
G1 X131.924 Y109.327 E15.3046
G1 X132.456 Y109.667 E15.3172
G1 X132.941 Y110.073 E15.32982
G1 X133.371 Y110.536 E15.34243
G1 X133.74 Y111.05 E15.35506
G1 X134.04 Y111.606 E15.36766
G1 X134.268 Y112.195 E15.38027
G1 X134.42 Y112.809 E15.39289
G1 X134.5 Y113.7 E15.41074
G1 X134.5 Y121.3 E15.56241
G1 X134.46 Y121.931 E15.57503
G1 X134.341 Y122.552 E15.58765
G1 X134.144 Y123.152 E15.60025
G1 X133.873 Y123.724 E15.61288
G1 X133.533 Y124.256 E15.62548
G1 X133.127 Y124.741 E15.6381
G1 X132.664 Y125.171 E15.65071
G1 X132.15 Y125.54 E15.66334
G1 X131.594 Y125.84 E15.67595
G1 X131.005 Y126.068 E15.68855
G1 X130.391 Y126.22 E15.70117
G1 X129.5 Y126.3 E15.71903
G1 X105.5 Y126.3 E16.19797
G1 X104.869 Y126.26 E16.21059
G1 X104.248 Y126.141 E16.22321
G1 X103.648 Y125.944 E16.23581
G1 X103.076 Y125.673 E16.24844
G1 X102.544 Y125.333 E16.26104
G1 X102.059 Y124.927 E16.27366
G1 X101.629 Y124.464 E16.28627
G1 X101.26 Y123.95 E16.2989
G1 X100.96 Y123.394 E16.31151
G1 X100.732 Y122.805 E16.32411
G1 X100.58 Y122.191 E16.33673
G1 X100.5 Y121.3 E16.35459
G1 X100.5 Y113.7 E16.50625
G0 F6000 X100.9 Y113.7
G1 F1200 X100.94 Y113.095 E16.51835
G1 X101.059 Y112.501 E16.53044
G1 X101.255 Y111.927 E16.54255
G1 X101.526 Y111.384 E16.55466
G1 X101.865 Y110.881 E16.56676
G1 X102.267 Y110.428 E16.57885
G1 X102.725 Y110.031 E16.59094
G1 X103.232 Y109.698 E16.60305
G1 X103.778 Y109.434 E16.61515
G1 X104.354 Y109.245 E16.62725
G1 X104.95 Y109.133 E16.63935
G1 X105.5 Y109.1 E16.65035
G1 X129.5 Y109.1 E17.12929
G1 X130.105 Y109.14 E17.14139
G1 X130.699 Y109.259 E17.15348
G1 X131.273 Y109.455 E17.16559
G1 X131.816 Y109.726 E17.1777
G1 X132.319 Y110.065 E17.1898
G1 X132.772 Y110.467 E17.20189
G1 X133.169 Y110.925 E17.21398
G1 X133.502 Y111.432 E17.22609
G1 X133.766 Y111.978 E17.23819
G1 X133.955 Y112.554 E17.25029
G1 X134.067 Y113.15 E17.26239
G1 X134.1 Y113.7 E17.27339
